;FLAVOR:Marlin
;TIME:5925
;Filament used: 2.42332m
;Layer height: 0.12
;MINX:75.99
;MINY:107.991
;MINZ:0.144
;MAXX:159.01
;MAXY:125.946
;MAXZ:12.764
;Generated with Cura_SteamEngine 5.2.2
M140 S50
M105
M190 S50
M104 S200
M105
M109 S200
M82 ;absolute extrusion mode
; Ender 3 Custom Start G-code
G92 E0 ; Reset Extruder
G28 ; Home all axes
G1 Z2.0 F3000 ; Move Z Axis up little to prevent scratching of Heat Bed
G1 X0.1 Y20 Z0.3 F5000.0 ; Move to start position
G1 X0.1 Y200.0 Z0.3 F1500.0 E15 ; Draw the first line
G1 X0.4 Y200.0 Z0.3 F5000.0 ; Move to side a little
G1 X0.4 Y20 Z0.3 F1500.0 E30 ; Draw the second line
G92 E0 ; Reset Extruder
G1 Z2.0 F3000 ; Move Z Axis up little to prevent scratching of Heat Bed
G1 X5 Y20 Z0.3 F5000.0 ; Move over to prevent blob squish
G92 E0
G92 E0
G1 F2700 E-5
;LAYER_COUNT:100
;LAYER:-7
M107
G0 F9000 X79.347 Y110.87 Z0.144
;TYPE:SUPPORT-INTERFACE
G1 F2700 E0
G1 F1125 X78.779 Y111.439 E0.03851
G1 X78.464 Y111.833 E0.06267
G1 X78.397 Y111.929 E0.06827
G1 X78.33 Y112.022 E0.07376
G1 X77.96 Y112.608 E0.10696
G1 X77.835 Y112.836 E0.11941
G1 X77.682 Y113.154 E0.13631
G1 X77.573 Y113.415 E0.14986
G1 X77.361 Y114.019 E0.18052
G1 X77.288 Y114.278 E0.1934
G1 X77.206 Y114.635 E0.21095
G1 X77.161 Y114.898 E0.22373
G1 X77.079 Y115.636 E0.25929
G1 X77.055 Y116.086 E0.28087
G1 X77.054 Y118.919 E0.41656
G1 X77.068 Y119.22 E0.43099
G1 X77.162 Y120.099 E0.47333
G1 X77.206 Y120.359 E0.48596
G1 X77.321 Y120.859 E0.51053
G1 X77.62 Y121.714 E0.55391
G1 X77.895 Y122.286 E0.58431
G1 X78.323 Y122.964 E0.62271
G1 X78.471 Y123.174 E0.63502
G1 X78.701 Y123.464 E0.65275
G1 X78.87 Y123.653 E0.66489
G1 X79.439 Y124.221 E0.70339
G1 X79.921 Y124.606 E0.73294
G1 X80.606 Y125.038 E0.77173
G1 X80.836 Y125.165 E0.78431
G1 X81.154 Y125.318 E0.80121
G1 X81.414 Y125.427 E0.81472
G1 X82.023 Y125.639 E0.8456
G1 X82.265 Y125.709 E0.85767
G1 X82.763 Y125.824 E0.88214
G1 X83.792 Y125.932 E0.9317
G1 X84.088 Y125.945 E0.94589
G1 X150.918 Y125.946 E4.14669
G1 X151.214 Y125.932 E4.16088
G1 X152.222 Y125.825 E4.20943
G1 X152.716 Y125.712 E4.2337
G1 X152.97 Y125.64 E4.24634
G1 X153.594 Y125.422 E4.278
G1 X153.841 Y125.319 E4.29082
G1 X154.167 Y125.162 E4.30815
G1 X154.407 Y125.03 E4.32127
G1 X154.964 Y124.677 E4.35285
G1 X155.173 Y124.529 E4.36511
G1 X155.466 Y124.297 E4.38301
G1 X155.653 Y124.13 E4.39502
G1 X156.221 Y123.561 E4.43353
G1 X156.606 Y123.08 E4.46304
G1 X157.04 Y122.392 E4.502
G1 X157.165 Y122.164 E4.51445
G1 X157.318 Y121.846 E4.53135
G1 X157.427 Y121.585 E4.5449
G1 X157.68 Y120.861 E4.58163
G1 X157.824 Y120.237 E4.6123
G1 X157.932 Y119.207 E4.6619
G1 X157.945 Y118.914 E4.67595
G1 X157.942 Y115.945 E4.81815
G1 X157.918 Y115.609 E4.83428
G1 X157.838 Y114.901 E4.86841
G1 X157.794 Y114.641 E4.88104
G1 X157.679 Y114.138 E4.90575
G1 X157.383 Y113.291 E4.94872
G1 X157.105 Y112.713 E4.97944
G1 X156.677 Y112.036 E5.0178
G1 X156.529 Y111.827 E5.03007
G1 X156.297 Y111.534 E5.04797
G1 X156.13 Y111.347 E5.05998
G1 X155.561 Y110.779 E5.09848
G1 X155.079 Y110.394 E5.12803
G1 X154.394 Y109.962 E5.16682
G1 X154.164 Y109.835 E5.1794
G1 X153.846 Y109.682 E5.1963
G1 X153.586 Y109.573 E5.2098
G1 X152.977 Y109.361 E5.24069
G1 X152.735 Y109.291 E5.25275
G1 X152.237 Y109.176 E5.27723
G1 X151.208 Y109.068 E5.32679
G1 X150.912 Y109.056 E5.34098
G1 X84.082 Y109.055 E8.54177
G1 X83.786 Y109.068 E8.55596
G1 X82.778 Y109.175 E8.60451
G1 X82.284 Y109.288 E8.62878
G1 X82.03 Y109.36 E8.64143
G1 X81.406 Y109.578 E8.67308
G1 X81.159 Y109.681 E8.6859
G1 X80.833 Y109.838 E8.70323
G1 X80.593 Y109.97 E8.71635
G1 X80.036 Y110.323 E8.74793
G1 X79.827 Y110.471 E8.7602
G1 X79.534 Y110.703 E8.7781
G1 X79.347 Y110.87 E8.79011
G0 F9000 X79.551 Y111.23
G1 F1125 X93.865 Y125.543 E9.7596
G0 F9000 X91.602 Y125.543
G1 F1125 X78.523 Y112.464 E10.64549
G0 F9000 X77.792 Y113.996
G1 F1125 X89.34 Y125.543 E11.42764
G0 F9000 X87.077 Y125.543
G1 F1125 X77.462 Y115.929 E12.07886
G0 F9000 X77.454 Y118.183
G1 F1125 X84.814 Y125.543 E12.57737
G0 F9000 X82.318 Y125.31
G1 F1125 X77.69 Y120.682 E12.89084
G1 F2700 E7.89084
G0 F9000 X76.161 Y120.567
G0 X75.99 Y118.936
G0 X76.019 Y115.542
G0 X76.256 Y114.014
G0 X76.709 Y112.718
G0 X77.444 Y111.43
G0 X78.091 Y110.619
G0 X78.976 Y109.809
G0 X80.05 Y109.054
G0 X80.862 Y110.278
G1 F2700 E12.89084
G1 F1125 X96.128 Y125.543 E13.92482
G0 F9000 X98.391 Y125.543
G1 F1125 X82.496 Y109.649 E15.00141
G0 F9000 X84.565 Y109.455
G1 F1125 X100.653 Y125.543 E16.0911
G0 F9000 X102.916 Y125.543
G1 F1125 X86.827 Y109.455 E17.18083
G0 F9000 X89.09 Y109.455
G1 F1125 X105.179 Y125.543 E18.27055
G0 F9000 X107.442 Y125.544
G1 F1125 X91.353 Y109.455 E19.36031
G0 F9000 X93.615 Y109.455
G1 F1125 X109.705 Y125.544 E20.4501
G0 F9000 X111.968 Y125.544
G1 F1125 X95.878 Y109.455 E21.5399
G0 F9000 X98.141 Y109.455
G1 F1125 X114.23 Y125.544 E22.62966
G0 F9000 X116.493 Y125.544
G1 F1125 X100.404 Y109.455 E23.71941
G0 F9000 X102.666 Y109.455
G1 F1125 X118.756 Y125.544 E24.80921
G0 F9000 X121.019 Y125.544
G1 F1125 X104.929 Y109.455 E25.899
G0 F9000 X107.192 Y109.455
G1 F1125 X123.281 Y125.544 E26.98876
G0 F9000 X125.544 Y125.544
G1 F1125 X109.455 Y109.455 E28.07852
G0 F9000 X111.717 Y109.455
G1 F1125 X127.807 Y125.544 E29.16831
G0 F9000 X130.07 Y125.545
G1 F1125 X113.98 Y109.455 E30.25814
G0 F9000 X116.243 Y109.455
G1 F1125 X132.333 Y125.545 E31.34797
G0 F9000 X134.596 Y125.545
G1 F1125 X118.506 Y109.455 E32.43779
G0 F9000 X120.769 Y109.455
G1 F1125 X136.859 Y125.545 E33.52762
G0 F9000 X139.121 Y125.545
G1 F1125 X123.032 Y109.455 E34.61741
G0 F9000 X125.295 Y109.455
G1 F1125 X141.384 Y125.545 E35.70721
G0 F9000 X143.647 Y125.545
G1 F1125 X127.557 Y109.455 E36.79703
G0 F9000 X129.82 Y109.455
G1 F1125 X145.91 Y125.545 E37.88686
G0 F9000 X148.172 Y125.545
G1 F1125 X132.083 Y109.455 E38.97665
G0 F9000 X134.346 Y109.455
G1 F1125 X150.435 Y125.545 E40.06645
G0 F9000 X152.503 Y125.35
G1 F1125 X136.608 Y109.455 E41.14307
G0 F9000 X138.871 Y109.455
G1 F1125 X154.14 Y124.724 E42.17728
G0 F9000 X155.447 Y123.769
G1 F1125 X141.134 Y109.455 E43.14678
G0 F9000 X143.397 Y109.455
G1 F1125 X156.476 Y122.535 E44.0327
G0 F9000 X157.206 Y121.002
G1 F1125 X145.659 Y109.455 E44.81481
G0 F9000 X147.922 Y109.455
G1 F1125 X157.537 Y119.071 E45.4661
G0 F9000 X157.542 Y116.813
G1 F1125 X150.185 Y109.455 E45.96445
G0 F9000 X152.681 Y109.689
G1 F1125 X157.308 Y114.316 E46.27785
G1 F2700 E41.27785
G0 F300 X157.308 Y114.316 Z0.324
G0 F9000 X158.839 Y114.433
G0 X159.01 Y116.064
G0 X158.979 Y119.471
G0 X158.787 Y120.71
G0 X158.421 Y121.965
G0 X156.977 Y121.622
;TIME_ELAPSED:62.508058
;LAYER:-6
;TYPE:SUPPORT
G1 F2700 E46.27785
G1 F1125 X153.613 Y124.986 E46.56267
G1 X154.108 Y124.746 E46.5956
G1 X154.842 Y124.283 E46.64756
G1 X155.294 Y123.922 E46.68219
G1 X155.921 Y123.294 E46.73532
G1 X156.284 Y122.84 E46.77012
G1 X156.751 Y122.1 E46.8225
G1 X156.953 Y121.681 E46.85035
G1 X157.051 Y121.442 E46.86582
G1 X157.299 Y120.737 E46.91056
G1 X157.427 Y120.178 E46.94489
G1 X157.479 Y119.706 E46.97332
G1 X151.706 Y125.478 E47.46206
G1 X151.182 Y125.534 E47.49361
G1 X150.9 Y125.546 E47.51051
G1 X150.225 Y125.546 E47.55092
G1 X157.541 Y118.23 E48.17034
G1 X157.544 Y116.813 E48.25517
G1 X148.811 Y125.546 E48.99456
G1 X147.397 Y125.546 E49.07922
G1 X157.494 Y115.448 E49.93414
G1 X157.443 Y114.969 E49.96298
G1 X157.401 Y114.717 E49.97827
G1 X157.287 Y114.241 E50.00757
G1 X145.982 Y125.546 E50.96473
G1 X144.568 Y125.546 E51.04938
G1 X156.911 Y113.203 E52.09442
G1 X156.681 Y112.788 E52.12283
G1 X156.383 Y112.316 E52.15624
G1 X143.154 Y125.546 E53.27634
G1 X141.74 Y125.545 E53.36099
G1 X155.751 Y111.534 E54.54726
G1 X155.294 Y111.077 E54.58595
G1 X155.016 Y110.855 E54.60725
G1 X140.326 Y125.545 E55.851
G1 X138.912 Y125.545 E55.93565
G1 X154.172 Y110.284 E57.2277
G1 X153.688 Y110.048 E57.25994
G1 X153.424 Y109.94 E57.27702
G1 X153.186 Y109.856 E57.29213
G1 X137.498 Y125.545 E58.62042
G1 X136.084 Y125.545 E58.70507
G1 X152.068 Y109.561 E60.05838
G1 X151.319 Y109.478 E60.1035
G1 X151.059 Y109.458 E60.11911
G1 X150.757 Y109.458 E60.13719
G1 X134.669 Y125.545 E61.49926
G1 X133.256 Y125.544 E61.58385
G1 X149.343 Y109.458 E62.94584
G1 X147.928 Y109.458 E63.03056
G1 X131.842 Y125.544 E64.3925
G1 X130.427 Y125.544 E64.47721
G1 X146.514 Y109.458 E65.8392
G1 X145.1 Y109.458 E65.92386
G1 X129.013 Y125.544 E67.28584
G1 X127.599 Y125.544 E67.3705
G1 X143.686 Y109.458 E68.73248
G1 X142.272 Y109.457 E68.81714
G1 X126.185 Y125.544 E70.17917
G1 X124.771 Y125.543 E70.26382
G1 X140.858 Y109.457 E71.62581
G1 X139.444 Y109.457 E71.71046
G1 X123.357 Y125.543 E73.07245
G1 X121.943 Y125.543 E73.1571
G1 X138.03 Y109.457 E74.51909
G1 X136.615 Y109.457 E74.6038
G1 X120.529 Y125.543 E75.96575
G1 X119.114 Y125.543 E76.05046
G1 X135.201 Y109.457 E77.41245
G1 X133.788 Y109.456 E77.49704
G1 X117.7 Y125.543 E78.85912
G1 X116.287 Y125.543 E78.94371
G1 X132.373 Y109.456 E80.3057
G1 X130.959 Y109.456 E80.39035
G1 X114.873 Y125.543 E81.75234
G1 X113.458 Y125.543 E81.83705
G1 X129.545 Y109.456 E83.19908
G1 X128.131 Y109.456 E83.28373
G1 X112.044 Y125.543 E84.64576
G1 X110.63 Y125.543 E84.73042
G1 X126.717 Y109.456 E86.09245
G1 X125.303 Y109.455 E86.1771
G1 X109.216 Y125.543 E87.53917
G1 X107.802 Y125.542 E87.62383
G1 X123.889 Y109.455 E88.98586
G1 X122.475 Y109.455 E89.07051
G1 X106.388 Y125.542 E90.43254
G1 X104.974 Y125.542 E90.51719
G1 X121.06 Y109.455 E91.87918
G1 X119.646 Y109.455 E91.96384
G1 X103.56 Y125.542 E93.32582
G1 X102.145 Y125.542 E93.41054
G1 X118.232 Y109.455 E94.77257
G1 X116.818 Y109.455 E94.85722
G1 X100.731 Y125.542 E96.21925
G1 X99.318 Y125.541 E96.30384
G1 X115.404 Y109.455 E97.66579
G1 X113.99 Y109.455 E97.75044
G1 X97.903 Y125.541 E99.11243
G1 X96.489 Y125.541 E99.19708
G1 X112.576 Y109.455 E100.55907
G1 X111.162 Y109.455 E100.64372
G1 X95.075 Y125.541 E102.00571
G1 X93.661 Y125.541 E102.09036
G1 X109.747 Y109.455 E103.45231
G1 X108.334 Y109.454 E103.5369
G1 X92.247 Y125.541 E104.89893
G1 X90.833 Y125.541 E104.98359
G1 X106.92 Y109.454 E106.34562
G1 X105.505 Y109.454 E106.43033
G1 X89.419 Y125.541 E107.79232
G1 X88.005 Y125.541 E107.87697
G1 X104.091 Y109.454 E109.23896
G1 X102.677 Y109.454 E109.32361
G1 X86.59 Y125.541 E110.68564
G1 X85.176 Y125.541 E110.7703
G1 X101.263 Y109.454 E112.13233
G1 X99.849 Y109.453 E112.21698
G1 X83.775 Y125.528 E113.57795
G1 X82.824 Y125.425 E113.63522
G1 X82.529 Y125.359 E113.65332
G1 X98.435 Y109.453 E115.00002
G1 X97.021 Y109.453 E115.08467
G1 X81.455 Y125.019 E116.40259
G1 X81.021 Y124.81 E116.43143
G1 X80.792 Y124.684 E116.44708
G1 X80.537 Y124.523 E116.46513
G1 X95.607 Y109.453 E117.74106
G1 X94.192 Y109.453 E117.82577
G1 X79.716 Y123.93 E119.05145
G1 X79.007 Y123.225 E119.11131
G1 X92.778 Y109.453 E120.27729
G1 X91.365 Y109.453 E120.36188
G1 X78.421 Y122.396 E121.45776
G1 X78.189 Y121.978 E121.48639
G1 X77.94 Y121.463 E121.52063
G1 X89.951 Y109.453 E122.53752
G1 X88.536 Y109.453 E122.62223
G1 X77.618 Y120.371 E123.54662
G1 X77.569 Y120.16 E123.55959
G1 X77.456 Y119.117 E123.6224
G1 X87.122 Y109.453 E124.4407
G1 X85.708 Y109.453 E124.52535
G1 X77.455 Y117.706 E125.22411
G1 X77.455 Y116.292 E125.30876
G1 X84.294 Y109.453 E125.88779
G1 X83.816 Y109.465 E125.91642
G1 X82.755 Y109.577 E125.98029
G1 X77.59 Y114.742 E126.41759
G1 X77.703 Y114.247 E126.44799
G1 X77.94 Y113.574 E126.49071
G1 X78.048 Y113.31 E126.50779
G1 X78.189 Y113.019 E126.52714
G1 X78.312 Y112.797 E126.54234
G1 X78.713 Y112.161 E126.58735
G1 X79.077 Y111.703 E126.62238
G1 X79.706 Y111.075 E126.67559
G1 X80.159 Y110.714 E126.71027
G1 X80.282 Y110.636 E126.71899
G1 X78.638 Y112.28 E126.85818
G1 F2700 E121.85818
G0 F300 X78.638 Y112.28 Z0.444
G0 F9000 X77.401 Y111.499
G0 X76.709 Y112.718
G0 X76.256 Y114.014
G0 X76.019 Y115.542
G0 X76.022 Y119.492
G0 X76.257 Y120.987
G0 X76.702 Y122.265
G0 X77.437 Y123.558
G0 X78.717 Y122.84
;TIME_ELAPSED:136.676440
;LAYER:-5
;TYPE:SUPPORT-INTERFACE
G1 F2700 E126.85818
G1 F1500 X80.16 Y124.283 E126.8989
G1 X79.699 Y123.916 E126.91066
G1 X79.079 Y123.296 E126.92816
G1 X78.717 Y122.84 E126.93978
G1 X78.312 Y122.2 E126.95489
G1 X78.189 Y121.978 E126.95996
G1 X77.984 Y121.542 E126.96957
G1 X81.463 Y125.02 E127.06774
G1 X82.333 Y125.325 E127.08614
G1 X77.689 Y120.681 E127.2172
G1 X77.569 Y120.16 E127.22787
G1 X77.549 Y119.976 E127.23157
G1 X83.021 Y125.447 E127.38599
G1 X83.657 Y125.518 E127.39876
G1 X77.467 Y119.327 E127.57347
G1 X77.454 Y118.749 E127.585
G1 X84.245 Y125.54 E127.77666
G1 X84.811 Y125.54 E127.78795
G1 X77.454 Y118.183 E127.99559
G1 X77.454 Y117.618 E128.00686
G1 X85.376 Y125.54 E128.23044
G1 X85.942 Y125.54 E128.24173
G1 X77.454 Y117.052 E128.48128
G1 X77.454 Y116.486 E128.49258
G1 X86.508 Y125.54 E128.7481
G1 X87.073 Y125.54 E128.75938
G1 X77.45 Y115.917 E129.03096
G1 X77.506 Y115.407 E129.0412
G1 X87.639 Y125.54 E129.32717
G1 X88.205 Y125.54 E129.33847
G1 X77.557 Y114.892 E129.63898
G1 X77.661 Y114.431 E129.64841
G1 X88.77 Y125.54 E129.96193
G1 X89.336 Y125.54 E129.97322
G1 X77.791 Y113.995 E130.29905
G1 X77.938 Y113.576 E130.30791
G1 X89.902 Y125.54 E130.64556
G1 X90.467 Y125.54 E130.65683
G1 X78.109 Y113.182 E131.0056
G1 X78.304 Y112.811 E131.01397
G1 X91.033 Y125.54 E131.37321
G1 X91.599 Y125.54 E131.3845
G1 X78.522 Y112.463 E131.75356
G1 X78.745 Y112.12 E131.76173
G1 X92.165 Y125.54 E132.14047
G1 X92.731 Y125.541 E132.15176
G1 X78.985 Y111.795 E132.53971
G1 X79.268 Y111.512 E132.54769
G1 X93.297 Y125.541 E132.94362
G1 X93.862 Y125.541 E132.9549
G1 X79.551 Y111.23 E133.35878
G1 X79.849 Y110.962 E133.36678
G1 X94.428 Y125.541 E133.77823
G1 X94.994 Y125.541 E133.78953
G1 X80.164 Y110.711 E134.20806
G1 X80.511 Y110.492 E134.21625
G1 X95.559 Y125.541 E134.64095
G1 X96.125 Y125.541 E134.65225
G1 X80.854 Y110.27 E135.08323
G1 X81.235 Y110.085 E135.09168
G1 X96.691 Y125.541 E135.52788
G1 X97.256 Y125.541 E135.53916
G1 X81.637 Y109.921 E135.97997
G1 X82.056 Y109.774 E135.98883
G1 X97.822 Y125.541 E136.4338
G1 X98.388 Y125.541 E136.44509
G1 X82.496 Y109.648 E136.89361
G1 X82.956 Y109.543 E136.90303
G1 X98.953 Y125.541 E137.35451
G1 X99.519 Y125.541 E137.36581
G1 X83.479 Y109.501 E137.81849
G1 X83.99 Y109.446 E137.82875
G1 X100.085 Y125.541 E138.28299
G1 X100.65 Y125.541 E138.29426
G1 X84.563 Y109.453 E138.74828
G1 X85.129 Y109.453 E138.75958
G1 X101.217 Y125.541 E139.21362
G1 X101.783 Y125.541 E139.22491
G1 X85.694 Y109.453 E139.67897
G1 X86.26 Y109.453 E139.69026
G1 X102.348 Y125.541 E140.1443
G1 X102.914 Y125.541 E140.15559
G1 X86.826 Y109.453 E140.60963
G1 X87.392 Y109.453 E140.62093
G1 X103.48 Y125.541 E141.07496
G1 X104.045 Y125.541 E141.08624
G1 X87.957 Y109.453 E141.54028
G1 X88.523 Y109.453 E141.55157
G1 X104.611 Y125.541 E142.00561
G1 X105.177 Y125.541 E142.01691
G1 X89.089 Y109.453 E142.47094
G1 X89.654 Y109.453 E142.48222
G1 X105.742 Y125.541 E142.93626
G1 X106.308 Y125.541 E142.94755
G1 X90.22 Y109.453 E143.40159
G1 X90.786 Y109.453 E143.41289
G1 X106.874 Y125.541 E143.86692
G1 X107.439 Y125.541 E143.8782
G1 X91.351 Y109.453 E144.33224
G1 X91.917 Y109.453 E144.34353
G1 X108.005 Y125.541 E144.79757
G1 X108.571 Y125.541 E144.80887
G1 X92.483 Y109.454 E145.26289
G1 X93.049 Y109.454 E145.27419
G1 X109.137 Y125.542 E145.72822
G1 X109.703 Y125.542 E145.73952
G1 X93.615 Y109.454 E146.19356
G1 X94.18 Y109.454 E146.20483
G1 X110.269 Y125.542 E146.65888
G1 X110.834 Y125.542 E146.67016
G1 X94.746 Y109.454 E147.1242
G1 X95.312 Y109.454 E147.13549
G1 X111.4 Y125.542 E147.58953
G1 X111.966 Y125.542 E147.60083
G1 X95.878 Y109.454 E148.05486
G1 X96.443 Y109.454 E148.06614
G1 X112.531 Y125.542 E148.52018
G1 X113.097 Y125.542 E148.53147
G1 X97.009 Y109.454 E148.98551
G1 X97.575 Y109.454 E148.99681
G1 X113.663 Y125.542 E149.45084
G1 X114.228 Y125.542 E149.46212
G1 X98.14 Y109.454 E149.91616
G1 X98.706 Y109.454 E149.92745
G1 X114.794 Y125.542 E150.38149
G1 X115.36 Y125.542 E150.39279
G1 X99.272 Y109.454 E150.84682
G1 X99.837 Y109.454 E150.8581
G1 X115.925 Y125.542 E151.31214
G1 X116.491 Y125.542 E151.32343
G1 X100.403 Y109.454 E151.77747
G1 X100.969 Y109.455 E151.78877
G1 X117.057 Y125.542 E152.24279
G1 X117.623 Y125.543 E152.25408
G1 X101.535 Y109.455 E152.70812
