;FLAVOR:Marlin
;TIME:13365
;Filament used: 5.43539m
;Layer height: 0.12
;MINX:75.99
;MINY:94.759
;MINZ:0.144
;MAXX:159.01
;MAXY:127.011
;MAXZ:12.764
;Generated with Cura_SteamEngine 5.2.2
M140 S50
M105
M190 S50
M104 S200
M105
M109 S200
M82 ;absolute extrusion mode
; Ender 3 Custom Start G-code
G92 E0 ; Reset Extruder
G28 ; Home all axes
G1 Z2.0 F3000 ; Move Z Axis up little to prevent scratching of Heat Bed
G1 X0.1 Y20 Z0.3 F5000.0 ; Move to start position
G1 X0.1 Y200.0 Z0.3 F1500.0 E15 ; Draw the first line
G1 X0.4 Y200.0 Z0.3 F5000.0 ; Move to side a little
G1 X0.4 Y20 Z0.3 F1500.0 E30 ; Draw the second line
G92 E0 ; Reset Extruder
G1 Z2.0 F3000 ; Move Z Axis up little to prevent scratching of Heat Bed
G1 X5 Y20 Z0.3 F5000.0 ; Move over to prevent blob squish
G92 E0
G92 E0
G1 F2700 E-5
;LAYER_COUNT:100
;LAYER:-7
M107
G0 F9000 X78.775 Y97.941 Z0.144
;TYPE:SUPPORT-INTERFACE
G1 F2700 E0
G1 F1125 X78.397 Y98.417 E0.02911
G1 X77.962 Y99.106 E0.06814
G1 X77.835 Y99.337 E0.08076
G1 X77.682 Y99.652 E0.09754
G1 X77.568 Y99.928 E0.11184
G1 X77.363 Y100.517 E0.14171
G1 X77.288 Y100.78 E0.15481
G1 X77.206 Y101.135 E0.17226
G1 X77.161 Y101.4 E0.18513
G1 X77.079 Y102.136 E0.2206
G1 X77.055 Y102.584 E0.24209
G1 X77.054 Y105.417 E0.37777
G1 X77.068 Y105.718 E0.3922
G1 X77.162 Y106.599 E0.43464
G1 X77.206 Y106.857 E0.44717
G1 X77.318 Y107.342 E0.47101
G1 X77.581 Y108.102 E0.50953
G1 X77.725 Y108.44 E0.52713
G1 X77.98 Y109.079 E0.56008
G1 X78.157 Y109.768 E0.59415
G1 X78.239 Y110.471 E0.62805
G1 X78.234 Y111.129 E0.65956
G1 X78.142 Y111.808 E0.69238
G1 X77.967 Y112.468 E0.72508
G1 X77.567 Y113.428 E0.77489
G1 X77.363 Y114.017 E0.80475
G1 X77.288 Y114.28 E0.81785
G1 X77.206 Y114.635 E0.8353
G1 X77.161 Y114.9 E0.84817
G1 X77.079 Y115.636 E0.88364
G1 X77.056 Y116.084 E0.90512
G1 X77.054 Y118.917 E1.04081
G1 X77.068 Y119.218 E1.05524
G1 X77.162 Y120.099 E1.09768
G1 X77.206 Y120.357 E1.11021
G1 X77.318 Y120.842 E1.13405
G1 X77.62 Y121.714 E1.17825
G1 X77.896 Y122.29 E1.20884
G1 X78.324 Y122.967 E1.2472
G1 X78.469 Y123.174 E1.25931
G1 X78.701 Y123.466 E1.27717
G1 X78.868 Y123.653 E1.28918
G1 X79.437 Y124.221 E1.32768
G1 X79.905 Y124.595 E1.35637
G1 X80.606 Y125.038 E1.39609
G1 X80.837 Y125.165 E1.40872
G1 X81.152 Y125.318 E1.42549
G1 X81.428 Y125.432 E1.43979
G1 X82.025 Y125.639 E1.47005
G1 X82.267 Y125.709 E1.48212
G1 X82.76 Y125.824 E1.50637
G1 X83.793 Y125.932 E1.55611
G1 X84.088 Y125.945 E1.57025
G1 X84.572 Y125.945 E1.59343
G1 X84.795 Y125.935 E1.60413
G1 X85.246 Y125.934 E1.62573
G1 X85.511 Y125.945 E1.63843
G1 X149.568 Y125.946 E4.70641
G1 X150.216 Y125.938 E4.73745
G1 X150.386 Y125.946 E4.7456
G1 X151.058 Y125.942 E4.77779
G1 X151.382 Y125.919 E4.79334
G1 X152.101 Y125.837 E4.828
G1 X152.361 Y125.793 E4.84063
G1 X152.71 Y125.712 E4.85779
G1 X152.956 Y125.642 E4.87004
G1 X153.596 Y125.421 E4.90247
G1 X153.84 Y125.32 E4.91512
G1 X154.167 Y125.162 E4.93251
G1 X154.409 Y125.028 E4.94576
G1 X154.967 Y124.677 E4.97734
G1 X155.176 Y124.529 E4.9896
G1 X155.466 Y124.299 E5.00733
G1 X155.655 Y124.13 E5.01947
G1 X156.225 Y123.559 E5.05811
G1 X156.603 Y123.083 E5.08722
G1 X157.038 Y122.394 E5.12625
G1 X157.165 Y122.163 E5.13888
G1 X157.318 Y121.848 E5.15565
G1 X157.432 Y121.572 E5.16995
G1 X157.639 Y120.975 E5.20021
G1 X157.709 Y120.733 E5.21228
G1 X157.824 Y120.24 E5.23653
G1 X157.932 Y119.205 E5.28637
G1 X157.945 Y118.916 E5.30022
G1 X157.943 Y116.153 E5.43255
G1 X157.942 Y115.945 E5.44252
G1 X157.918 Y115.611 E5.45855
G1 X157.838 Y114.902 E5.49273
G1 X157.794 Y114.641 E5.5054
G1 X157.682 Y114.157 E5.5292
G1 X157.419 Y113.397 E5.56771
G1 X157.272 Y113.052 E5.58568
G1 X157.019 Y112.418 E5.61837
G1 X156.843 Y111.732 E5.65229
G1 X156.764 Y111.08 E5.68375
G1 X156.766 Y110.371 E5.7177
G1 X156.858 Y109.692 E5.75052
G1 X157.043 Y109.006 E5.78455
G1 X157.433 Y108.072 E5.83303
G1 X157.639 Y107.475 E5.86327
G1 X157.709 Y107.233 E5.87534
G1 X157.824 Y106.74 E5.89959
G1 X157.932 Y105.705 E5.94943
G1 X157.945 Y105.416 E5.96328
G1 X157.942 Y102.445 E6.10558
G1 X157.918 Y102.111 E6.12161
G1 X157.838 Y101.402 E6.15579
G1 X157.794 Y101.141 E6.16846
G1 X157.682 Y100.658 E6.19221
G1 X157.379 Y99.781 E6.23665
G1 X157.111 Y99.224 E6.26625
G1 X156.677 Y98.533 E6.30534
G1 X156.529 Y98.324 E6.3176
G1 X156.299 Y98.034 E6.33533
G1 X156.13 Y97.845 E6.34747
G1 X155.559 Y97.276 E6.38608
G1 X155.094 Y96.905 E6.41457
G1 X154.394 Y96.462 E6.45425
G1 X154.163 Y96.335 E6.46687
G1 X153.848 Y96.182 E6.48364
G1 X153.572 Y96.068 E6.49795
G1 X152.975 Y95.861 E6.52821
G1 X152.733 Y95.791 E6.54028
G1 X152.24 Y95.676 E6.56452
G1 X151.207 Y95.568 E6.61427
G1 X150.911 Y95.556 E6.62845
G1 X150.428 Y95.555 E6.65159
G1 X150.205 Y95.565 E6.66228
G1 X149.755 Y95.566 E6.68383
G1 X149.489 Y95.555 E6.69658
G1 X85.43 Y95.555 E9.76466
G1 X84.784 Y95.562 E9.7956
G1 X84.614 Y95.555 E9.80375
G1 X83.942 Y95.558 E9.83594
G1 X83.618 Y95.581 E9.8515
G1 X82.899 Y95.663 E9.88616
G1 X82.639 Y95.707 E9.89878
G1 X82.29 Y95.788 E9.91594
G1 X82.044 Y95.858 E9.92819
G1 X81.404 Y96.079 E9.96062
G1 X81.16 Y96.18 E9.97327
G1 X80.833 Y96.338 E9.99066
G1 X80.591 Y96.472 E10.00391
G1 X80.033 Y96.823 E10.03549
G1 X79.824 Y96.971 E10.04775
G1 X79.534 Y97.201 E10.06548
G1 X79.345 Y97.37 E10.07762
G1 X78.775 Y97.941 E10.11626
G0 F9000 X79.589 Y97.691
G1 F1125 X107.442 Y125.544 E12.00284
G0 F9000 X109.705 Y125.544
G1 F1125 X80.912 Y96.751 E13.95308
G0 F9000 X82.558 Y96.135
G1 F1125 X111.968 Y125.544 E15.94508
G0 F9000 X114.23 Y125.544
G1 F1125 X84.642 Y95.956 E17.94917
G0 F9000 X86.904 Y95.955
G1 F1125 X116.493 Y125.544 E19.95332
G0 F9000 X118.756 Y125.544
G1 F1125 X89.166 Y95.955 E21.95752
G0 F9000 X91.429 Y95.955
G1 F1125 X121.019 Y125.544 E23.96171
G0 F9000 X123.281 Y125.544
G1 F1125 X93.692 Y95.955 E25.96586
G0 F9000 X95.955 Y95.955
G1 F1125 X125.544 Y125.544 E27.97002
G0 F9000 X127.807 Y125.544
G1 F1125 X98.217 Y95.955 E29.97421
G0 F9000 X100.48 Y95.955
G1 F1125 X130.07 Y125.545 E31.97844
G0 F9000 X132.333 Y125.545
G1 F1125 X102.743 Y95.955 E33.98266
G0 F9000 X105.006 Y95.955
G1 F1125 X134.596 Y125.545 E35.98689
G0 F9000 X136.859 Y125.545
G1 F1125 X107.268 Y95.955 E37.99115
G0 F9000 X109.531 Y95.955
G1 F1125 X139.121 Y125.545 E39.99537
G0 F9000 X141.384 Y125.545
G1 F1125 X111.794 Y95.955 E41.9996
G0 F9000 X114.057 Y95.955
G1 F1125 X143.647 Y125.545 E44.00382
G0 F9000 X145.91 Y125.545
G1 F1125 X116.319 Y95.955 E46.00808
G0 F9000 X118.582 Y95.955
G1 F1125 X148.172 Y125.545 E48.0123
G0 F9000 X150.435 Y125.545
G1 F1125 X120.845 Y95.955 E50.01653
G0 F9000 X123.107 Y95.955
G1 F1125 X152.502 Y125.349 E52.00751
G0 F9000 X154.135 Y124.72
G1 F1125 X125.37 Y95.955 E53.95586
G0 F9000 X127.633 Y95.955
G1 F1125 X155.448 Y123.769 E55.83982
G0 F9000 X156.475 Y122.534
G1 F1125 X129.896 Y95.955 E57.6401
G0 F9000 X132.158 Y95.955
G1 F1125 X157.206 Y121.002 E59.33665
G0 F9000 X157.537 Y119.07
G1 F1125 X134.421 Y95.955 E60.90234
G0 F9000 X136.684 Y95.955
G1 F1125 X157.542 Y116.813 E62.31511
G0 F9000 X157.306 Y114.314
G1 F1125 X138.947 Y95.955 E63.55863
G0 F9000 X141.209 Y95.955
G1 F1125 X156.366 Y111.111 E64.58523
G0 F9000 X156.603 Y109.086
G1 F1125 X143.472 Y95.955 E65.47463
G0 F9000 X145.735 Y95.955
G1 F1125 X157.226 Y107.446 E66.25295
G0 F9000 X157.54 Y105.497
G1 F1125 X147.998 Y95.955 E66.89926
G0 F9000 X150.269 Y95.963
G1 F1125 X157.542 Y103.236 E67.39189
G0 F9000 X157.274 Y100.706
G1 F1125 X152.788 Y96.22 E67.69574
G1 F2700 E62.69574
G0 F9000 X153.001 Y94.759
G0 X154.282 Y95.209
G0 X155.57 Y95.944
G0 X156.381 Y96.591
G0 X157.381 Y97.685
G0 X158.101 Y98.827
G0 X158.66 Y100.22
G0 X158.893 Y101.253
G0 X159.01 Y102.564
G0 X158.979 Y119.471
G0 X158.741 Y121.001
G0 X158.291 Y122.282
G0 X157.556 Y123.57
G0 X156.909 Y124.381
G0 X155.815 Y125.381
G0 X154.656 Y126.108
G0 X153.292 Y126.655
G0 X152.252 Y126.892
G0 X151.189 Y126.987
G0 X105.179 Y127.011
G0 X105.179 Y125.543
G1 F2700 E67.69574
G1 F1125 X78.552 Y98.917 E69.49923
G0 F9000 X77.812 Y100.44
G1 F1125 X102.916 Y125.543 E71.19957
G0 F9000 X100.653 Y125.543
G1 F1125 X77.467 Y102.357 E72.77004
G0 F9000 X77.453 Y104.606
G1 F1125 X98.391 Y125.543 E74.1882
G0 F9000 X96.128 Y125.543
G1 F1125 X77.668 Y107.084 E75.43852
G0 F9000 X78.624 Y110.303
G1 F1125 X93.865 Y125.543 E76.47081
G0 F9000 X91.602 Y125.543
G1 F1125 X78.411 Y112.352 E77.36428
G0 F9000 X77.793 Y113.996
G1 F1125 X89.34 Y125.543 E78.14639
G0 F9000 X87.077 Y125.543
G1 F1125 X77.464 Y115.93 E78.79751
G0 F9000 X77.454 Y118.183
G1 F1125 X84.804 Y125.533 E79.29535
G0 F9000 X82.316 Y125.308
G1 F1125 X77.691 Y120.684 E79.60858
G1 F2700 E74.60858
G0 F300 X77.691 Y120.684 Z0.324
G0 F9000 X76.161 Y120.567
G0 X75.99 Y118.936
G0 X76.019 Y102.042
G0 X76.256 Y100.514
G0 X76.709 Y99.218
G0 X77.444 Y97.93
G0 X78.091 Y97.119
G0 X79.075 Y96.219
G0 X80.344 Y95.392
G0 X81.414 Y96.498
;TIME_ELAPSED:101.466426
;LAYER:-6
;TYPE:SUPPORT
G1 F2700 E79.60858
G1 F1125 X80.89 Y96.752 E79.64344
G1 X80.159 Y97.214 E79.69522
G1 X79.706 Y97.575 E79.72989
G1 X79.077 Y98.203 E79.78311
G1 X78.713 Y98.661 E79.81813
G1 X78.312 Y99.297 E79.86314
G1 X78.189 Y99.519 E79.87834
G1 X78.048 Y99.81 E79.8977
G1 X77.94 Y100.073 E79.91472
G1 X77.844 Y100.346 E79.93204
G1 X81.84 Y96.35 E80.27037
G1 X82.268 Y96.201 E80.2975
G1 X82.831 Y96.071 E80.3321
G1 X83.624 Y95.98 E80.37988
G1 X77.483 Y102.121 E80.89982
G1 X77.454 Y102.586 E80.92771
G1 X77.454 Y103.564 E80.98626
G1 X85.061 Y95.957 E81.63032
G1 X86.48 Y95.952 E81.71528
G1 X77.454 Y104.979 E82.47952
G1 X77.454 Y105.409 E82.50526
G1 X77.464 Y105.687 E82.52191
G1 X77.532 Y106.314 E82.55967
G1 X87.894 Y95.952 E83.43699
G1 X89.309 Y95.952 E83.5217
G1 X77.786 Y107.475 E84.49731
G1 X77.957 Y107.964 E84.52833
G1 X78.179 Y108.497 E84.56289
G1 X90.723 Y95.952 E85.62499
G1 X92.137 Y95.952 E85.70965
G1 X78.534 Y109.555 E86.86136
G1 X78.638 Y110.423 E86.9137
G1 X78.635 Y110.868 E86.94034
G1 X93.551 Y95.952 E88.20323
G1 X94.965 Y95.952 E88.28788
G1 X78.355 Y112.562 E89.69419
G1 X77.946 Y113.556 E89.75854
G1 X77.703 Y114.249 E89.80251
G1 X77.59 Y114.742 E89.83279
G1 X96.38 Y95.952 E91.42367
G1 X97.794 Y95.952 E91.50832
G1 X77.455 Y116.292 E93.2304
G1 X77.455 Y117.706 E93.31505
G1 X99.208 Y95.952 E95.15684
G1 X100.622 Y95.952 E95.2415
G1 X77.456 Y119.118 E97.20288
G1 X77.569 Y120.16 E97.26563
G1 X77.618 Y120.371 E97.2786
G1 X102.036 Y95.952 E99.34603
G1 X103.451 Y95.952 E99.43074
G1 X77.94 Y121.463 E101.59067
G1 X78.189 Y121.978 E101.62491
G1 X78.421 Y122.396 E101.65353
G1 X104.865 Y95.952 E103.89246
G1 X106.279 Y95.952 E103.97711
G1 X79.007 Y123.225 E106.28618
G1 X79.716 Y123.93 E106.34604
G1 X107.693 Y95.953 E108.71475
G1 X109.107 Y95.953 E108.7994
G1 X80.537 Y124.523 E111.21832
G1 X80.792 Y124.684 E111.23638
G1 X81.021 Y124.81 E111.25203
G1 X81.455 Y125.019 E111.28087
G1 X110.521 Y95.953 E113.74178
G1 X111.935 Y95.953 E113.82644
G1 X82.529 Y125.359 E116.31614
G1 X82.824 Y125.425 E116.33424
G1 X83.775 Y125.528 E116.3915
G1 X113.349 Y95.953 E118.89547
G1 X114.764 Y95.953 E118.98019
G1 X85.183 Y125.534 E121.4847
G1 X85.533 Y125.544 E121.50567
G1 X86.586 Y125.545 E121.56871
G1 X116.178 Y95.953 E124.07416
G1 X117.592 Y95.953 E124.15881
G1 X88 Y125.545 E126.66426
G1 X89.415 Y125.545 E126.74898
G1 X119.006 Y95.953 E129.25439
G1 X120.42 Y95.953 E129.33904
G1 X90.829 Y125.545 E131.84445
G1 X92.243 Y125.545 E131.9291
G1 X121.835 Y95.953 E134.43455
G1 X123.249 Y95.953 E134.5192
G1 X93.657 Y125.545 E137.02466
G1 X95.071 Y125.545 E137.10931
G1 X124.663 Y95.953 E139.61476
G1 X126.077 Y95.953 E139.69941
G1 X96.486 Y125.545 E142.20482
G1 X97.9 Y125.545 E142.28948
G1 X127.492 Y95.953 E144.79493
G1 X128.905 Y95.954 E144.87952
G1 X99.314 Y125.545 E147.38489
G1 X100.728 Y125.545 E147.46954
G1 X130.319 Y95.954 E149.9749
G1 X131.733 Y95.954 E150.05956
G1 X102.142 Y125.545 E152.56492
G1 X103.557 Y125.545 E152.64964
G1 X133.148 Y95.954 E155.155
G1 X134.562 Y95.954 E155.23966
G1 X104.971 Y125.545 E157.74502
G1 X106.385 Y125.545 E157.82968
G1 X135.976 Y95.954 E160.33504
G1 X137.39 Y95.954 E160.4197
G1 X107.799 Y125.545 E162.92506
G1 X109.214 Y125.545 E163.00978
G1 X138.805 Y95.954 E165.51514
G1 X140.219 Y95.954 E165.5998
G1 X110.628 Y125.545 E168.10516
G1 X112.042 Y125.545 E168.18982
G1 X141.633 Y95.954 E170.69518
G1 X143.047 Y95.954 E170.77983
G1 X113.456 Y125.545 E173.2852
G1 X114.87 Y125.545 E173.36985
G1 X144.461 Y95.954 E175.87522
G1 X145.876 Y95.954 E175.95993
G1 X116.285 Y125.545 E178.4653
G1 X117.698 Y125.546 E178.54989
G1 X147.29 Y95.954 E181.05534
G1 X148.704 Y95.954 E181.14
G1 X119.112 Y125.546 E183.64545
G1 X120.527 Y125.546 E183.73016
G1 X150.108 Y95.964 E186.23472
G1 X150.451 Y95.955 E186.25526
G1 X151.057 Y95.959 E186.29155
G1 X151.49 Y95.996 E186.31756
G1 X121.941 Y125.546 E188.81942
G1 X123.355 Y125.546 E188.90407
G1 X152.712 Y96.189 E191.38962
G1 X153.424 Y96.44 E191.43482
G1 X153.741 Y96.573 E191.4554
G1 X124.769 Y125.546 E193.9084
G1 X126.183 Y125.546 E193.99305
G1 X154.64 Y97.089 E196.40241
G1 X154.839 Y97.214 E196.41648
G1 X155.445 Y97.698 E196.46291
G1 X127.598 Y125.546 E198.82066
G1 X129.012 Y125.546 E198.90531
G1 X156.112 Y98.445 E201.19982
G1 X156.286 Y98.661 E201.21642
G1 X156.681 Y99.291 E201.26094
G1 X130.426 Y125.546 E203.48386
G1 X131.84 Y125.546 E203.56851
G1 X157.121 Y100.264 E205.70901
G1 X157.3 Y100.775 E205.74142
G1 X157.435 Y101.365 E205.77766
G1 X133.254 Y125.546 E207.82498
G1 X134.669 Y125.546 E207.90969
G1 X157.544 Y102.67 E209.84648
G1 X157.542 Y104.086 E209.93125
G1 X136.083 Y125.546 E211.74815
G1 X137.497 Y125.546 E211.83281
G1 X157.54 Y105.503 E213.52978
G1 X157.521 Y105.82 E213.54879
G1 X157.427 Y106.678 E213.60046
G1 X157.322 Y107.135 E213.62854
G1 X138.911 Y125.546 E215.18733
G1 X140.326 Y125.546 E215.27204
G1 X156.537 Y109.334 E216.64462
G1 X156.463 Y109.614 E216.66195
G1 X156.365 Y110.342 E216.70593
G1 X156.362 Y110.923 E216.74072
G1 X141.74 Y125.546 E217.97875
G1 X143.154 Y125.546 E218.0634
G1 X156.537 Y112.162 E219.19654
G1 X156.627 Y112.516 E219.21841
G1 X156.903 Y113.211 E219.26318
G1 X144.568 Y125.546 E220.30754
G1 X145.982 Y125.546 E220.39219
G1 X157.287 Y114.241 E221.34934
G1 X157.401 Y114.717 E221.37865
G1 X157.443 Y114.969 E221.39394
G1 X157.494 Y115.448 E221.42278
G1 X147.397 Y125.546 E222.2777
G1 X148.811 Y125.546 E222.36236
G1 X157.544 Y116.813 E223.10175
G1 X157.541 Y118.23 E223.18658
G1 X150.224 Y125.546 E223.80604
G1 X151.047 Y125.541 E223.85532
G1 X151.36 Y125.519 E223.8741
G1 X151.704 Y125.481 E223.89482
G1 X157.479 Y119.706 E224.38377
G1 X157.427 Y120.178 E224.4122
G1 X157.299 Y120.737 E224.44653
G1 X157.051 Y121.442 E224.49127
G1 X156.953 Y121.681 E224.50674
G1 X156.751 Y122.1 E224.53459
G1 X156.284 Y122.84 E224.58697
G1 X155.921 Y123.294 E224.62177
G1 X155.294 Y123.922 E224.6749
G1 X154.842 Y124.283 E224.70953
G1 X154.108 Y124.746 E224.76149
G1 X153.613 Y124.986 E224.79442
G1 X156.977 Y121.622 E225.07924
G1 F2700 E220.07924
G0 F300 X156.977 Y121.622 Z0.444
G0 F9000 X158.421 Y121.965
G0 X158.845 Y120.552
G0 X159.009 Y118.933
G0 X158.978 Y102.007
G0 X158.743 Y100.513
G0 X158.298 Y99.235
G0 X157.704 Y98.189
G0 X157.112 Y97.348
G0 X155.923 Y98.206
;TIME_ELAPSED:233.787647
;LAYER:-5
;TYPE:SUPPORT-INTERFACE
G1 F2700 E225.07924
G1 F1500 X155.294 Y97.577 E225.09699
G1 X155.211 Y97.511 E225.09911
G1 X155.99 Y98.29 E225.12109
G1 X156.286 Y98.661 E225.13057
G1 X156.68 Y99.289 E225.14536
G1 X156.81 Y99.521 E225.15067
G1 X156.955 Y99.82 E225.1573
G1 X153.679 Y96.544 E225.24975
G1 X153.424 Y96.44 E225.25525
G1 X152.783 Y96.215 E225.26881
G1 X157.287 Y100.719 E225.39592
G1 X157.455 Y101.452 E225.41093
G1 X152.064 Y96.061 E225.56307
G1 X151.427 Y95.99 E225.57586
G1 X157.524 Y102.087 E225.74793
G1 X157.545 Y102.674 E225.75966
G1 X150.829 Y95.957 E225.94921
G1 X150.26 Y95.954 E225.96056
G1 X157.544 Y103.239 E226.16615
G1 X157.544 Y103.803 E226.1774
G1 X149.695 Y95.955 E226.39891
G1 X149.129 Y95.955 E226.4102
G1 X157.542 Y104.368 E226.64763
G1 X157.541 Y104.933 E226.65891
G1 X148.563 Y95.955 E226.91229
G1 X147.998 Y95.955 E226.92356
G1 X157.541 Y105.498 E227.19289
G1 X157.508 Y106.031 E227.20354
G1 X147.432 Y95.955 E227.48791
G1 X146.866 Y95.955 E227.49921
G1 X157.457 Y106.546 E227.79811
