;FLAVOR:Marlin
;TIME:24532
;Filament used: 18.9986m
;Layer height: 0.2
;MINX:52.581
;MINY:62.624
;MINZ:0.24
;MAXX:167.419
;MAXY:157.384
;MAXZ:38.09
;Generated with Cura_SteamEngine 4.11.0
M140 S50
M105
M190 S50
M104 S200
M105
M109 S200
M82 ;absolute extrusion mode
; Ender 3 Custom Start G-code
G92 E0 ; Reset Extruder
G28 ; Home all axes
G1 Z2.0 F3000 ; Move Z Axis up little to prevent scratching of Heat Bed
G1 X0.1 Y20 Z0.3 F5000.0 ; Move to start position
G1 X0.1 Y200.0 Z0.3 F1500.0 E15 ; Draw the first line
G1 X0.4 Y200.0 Z0.3 F5000.0 ; Move to side a little
G1 X0.4 Y20 Z0.3 F1500.0 E30 ; Draw the second line
G92 E0 ; Reset Extruder
G1 Z2.0 F3000 ; Move Z Axis up little to prevent scratching of Heat Bed
G1 X5 Y20 Z0.3 F5000.0 ; Move over to prevent blob squish
G92 E0
G92 E0
G1 F2700 E-5
;LAYER_COUNT:185
;LAYER:-6
M107
G0 F9000 X55.37 Y68.535 Z0.24
;TYPE:SUPPORT-INTERFACE
G1 F2700 E0
G1 F600 X55.593 Y68.383 E0.02154
G1 X55.875 Y68.21 E0.04795
G1 X56.101 Y68.097 E0.06812
G1 X56.522 Y67.949 E0.10374
G1 X56.778 Y67.883 E0.12485
G1 X56.951 Y67.849 E0.13892
G1 X57.305 Y67.809 E0.16736
G1 X57.409 Y67.805 E0.17567
G1 X57.707 Y67.816 E0.19947
G1 X58.421 Y67.904 E0.2569
G1 X58.421 Y67.881 E0.25873
G1 X58.729 Y67.905 E0.28339
G1 X99.082 Y67.905 E3.50454
G1 X99.75 Y67.863 E3.55797
G1 X100.421 Y67.734 E3.61251
G1 X101.07 Y67.521 E3.66704
G1 X101.687 Y67.229 E3.72153
G1 X102.262 Y66.861 E3.77602
G1 X102.786 Y66.423 E3.83054
G1 X103.252 Y65.92 E3.88527
G1 X103.728 Y65.235 E3.95186
G1 X103.956 Y64.868 E3.98635
G1 X104.255 Y64.532 E4.02225
G1 X104.511 Y64.294 E4.05015
G1 X104.633 Y64.203 E4.0623
G1 X104.946 Y64.005 E4.09186
G1 X104.998 Y63.978 E4.09654
G1 X105.335 Y63.836 E4.12573
G1 X105.612 Y63.757 E4.14873
G1 X106.069 Y63.703 E4.18546
G1 X106.31 Y63.689 E4.20473
G1 X113.705 Y63.688 E4.79503
G1 X114.068 Y63.709 E4.82405
G1 X114.436 Y63.769 E4.85382
G1 X114.483 Y63.782 E4.85771
G1 X114.841 Y63.903 E4.88788
G1 X115.091 Y64.022 E4.90998
G1 X115.45 Y64.271 E4.94485
G1 X115.732 Y64.51 E4.97436
G1 X115.835 Y64.617 E4.98622
G1 X116.064 Y64.898 E5.01515
G1 X116.092 Y64.939 E5.01911
G1 X116.239 Y65.196 E5.04275
G1 X116.608 Y65.756 E5.09628
G1 X117.053 Y66.274 E5.15079
G1 X117.559 Y66.732 E5.20527
G1 X118.119 Y67.123 E5.25979
G1 X118.724 Y67.439 E5.31428
G1 X119.365 Y67.677 E5.36886
G1 X120.034 Y67.832 E5.42368
G1 X120.904 Y67.905 E5.49337
G1 X160.175 Y67.905 E8.62815
G1 X161.047 Y67.831 E8.698
G1 X161.348 Y67.78 E8.72237
G1 X161.636 Y67.748 E8.7455
G1 X161.792 Y67.744 E8.75796
G1 X162.062 Y67.744 E8.77951
G1 X162.343 Y67.761 E8.80199
G1 X162.698 Y67.801 E8.8305
G1 X163.097 Y67.902 E8.86336
G1 X163.409 Y68.027 E8.89019
G1 X163.661 Y68.158 E8.91286
G1 X164.419 Y68.593 E8.98262
G1 X164.694 Y68.775 E9.00894
G1 X165 Y69.026 E9.04054
G1 X165.275 Y69.344 E9.0741
G1 X165.534 Y69.726 E9.11094
G1 X165.911 Y70.384 E9.17147
G1 X166.042 Y70.65 E9.19514
G1 X166.197 Y71.019 E9.22709
G1 X166.274 Y71.261 E9.24736
G1 X166.309 Y71.437 E9.26168
G1 X166.347 Y71.746 E9.28654
G1 X166.355 Y71.939 E9.30196
G1 X166.355 Y72.246 E9.32646
G1 X166.334 Y72.612 E9.35573
G1 X166.265 Y73.033 E9.38978
G1 X166.195 Y73.879 E9.45754
G1 X166.195 Y146.577 E15.26061
G1 X166.269 Y147.453 E15.33079
G1 X166.311 Y147.732 E15.35331
G1 X166.316 Y147.943 E15.37016
G1 X166.267 Y148.379 E15.40518
G1 X166.223 Y148.638 E15.42615
G1 X166.048 Y149.398 E15.4884
G1 X165.943 Y149.758 E15.51834
G1 X165.806 Y150.089 E15.54693
G1 X165.75 Y150.2 E15.55686
G1 X165.611 Y150.435 E15.57865
G1 X165.565 Y150.502 E15.58514
G1 X165.352 Y150.786 E15.61348
G1 X165.126 Y151.039 E15.64056
G1 X164.927 Y151.223 E15.66219
G1 X164.625 Y151.469 E15.69328
G1 X164.425 Y151.608 E15.71273
G1 X164.132 Y151.79 E15.74026
G1 X163.962 Y151.877 E15.7555
G1 X163.673 Y151.987 E15.78019
G1 X163.392 Y152.076 E15.80372
G1 X163.049 Y152.151 E15.83174
G1 X162.695 Y152.191 E15.86018
G1 X162.591 Y152.195 E15.86849
G1 X162.293 Y152.184 E15.89229
G1 X161.579 Y152.096 E15.94972
G1 X161.579 Y152.119 E15.95155
G1 X161.271 Y152.095 E15.97621
G1 X120.904 Y152.095 E19.19848
G1 X120.236 Y152.137 E19.25191
G1 X119.565 Y152.266 E19.30645
G1 X118.916 Y152.479 E19.36098
G1 X118.299 Y152.771 E19.41547
G1 X117.724 Y153.139 E19.46996
G1 X117.2 Y153.577 E19.52448
G1 X116.732 Y154.081 E19.57938
G1 X116.195 Y154.874 E19.65583
G1 X116.098 Y155.049 E19.6718
G1 X115.829 Y155.383 E19.70603
G1 X115.531 Y155.677 E19.73945
G1 X115.304 Y155.844 E19.76194
G1 X114.972 Y156.04 E19.79272
G1 X114.942 Y156.054 E19.79536
G1 X114.584 Y156.194 E19.82605
G1 X114.147 Y156.283 E19.86164
G1 X113.693 Y156.318 E19.89799
G1 X106.309 Y156.32 E20.48742
G1 X105.946 Y156.299 E20.51644
G1 X105.393 Y156.209 E20.56116
G1 X104.95 Y156.129 E20.5971
G1 X104.263 Y156.093 E20.65201
G1 X103.294 Y156.194 E20.72978
G1 X102.855 Y156.282 E20.76552
G1 X102.393 Y156.318 E20.80251
G1 X95.009 Y156.32 E21.39193
G1 X94.646 Y156.299 E21.42096
G1 X94.272 Y156.238 E21.45121
G1 X94.229 Y156.227 E21.45475
G1 X93.869 Y156.106 E21.48507
G1 X93.489 Y155.899 E21.51961
G1 X93.149 Y155.66 E21.55278
G1 X92.945 Y155.47 E21.57504
G1 X92.686 Y155.17 E21.60667
G1 X92.67 Y155.149 E21.60878
G1 X92.369 Y154.659 E21.65469
G1 X91.982 Y154.111 E21.70824
G1 X91.522 Y153.607 E21.76271
G1 X91.001 Y153.166 E21.81719
G1 X90.429 Y152.793 E21.8717
G1 X89.815 Y152.496 E21.92615
G1 X89.168 Y152.278 E21.98065
G1 X88.497 Y152.144 E22.03527
G1 X87.787 Y152.096 E22.09207
G1 X59.823 Y152.096 E24.32428
G1 X58.963 Y152.168 E24.39317
G1 X58.646 Y152.222 E24.41884
G1 X58.351 Y152.252 E24.44251
G1 X58.197 Y152.256 E24.4548
G1 X57.936 Y152.256 E24.47564
G1 X57.669 Y152.241 E24.49699
G1 X57.306 Y152.199 E24.52615
G1 X56.892 Y152.095 E24.56023
G1 X56.587 Y151.971 E24.58651
G1 X56.372 Y151.861 E24.60579
G1 X55.608 Y151.423 E24.67609
G1 X55.312 Y151.229 E24.70434
G1 X55.008 Y150.981 E24.73565
G1 X54.724 Y150.653 E24.77029
G1 X54.602 Y150.483 E24.78699
G1 X54.465 Y150.271 E24.80714
G1 X54.079 Y149.596 E24.86921
G1 X53.967 Y149.368 E24.88948
G1 X53.808 Y148.993 E24.922
G1 X53.694 Y148.568 E24.95712
G1 X53.652 Y148.242 E24.98336
G1 X53.645 Y148.056 E24.99822
G1 X53.645 Y147.755 E25.02225
G1 X53.666 Y147.389 E25.05151
G1 X53.735 Y146.968 E25.08556
G1 X53.805 Y146.122 E25.15333
G1 X53.804 Y73.429 E30.956
G1 X53.728 Y72.542 E31.02706
G1 X53.687 Y72.258 E31.04996
G1 X53.683 Y72.063 E31.06553
G1 X53.733 Y71.606 E31.10223
G1 X53.772 Y71.378 E31.12069
G1 X53.957 Y70.579 E31.18616
G1 X54.06 Y70.235 E31.21483
G1 X54.193 Y69.912 E31.24271
G1 X54.245 Y69.809 E31.25192
G1 X54.388 Y69.567 E31.27436
G1 X54.575 Y69.311 E31.29966
G1 X54.732 Y69.111 E31.31996
G1 X54.842 Y68.997 E31.33261
G1 X55.074 Y68.778 E31.35807
G1 X55.37 Y68.535 E31.38864
G0 F9000 X56 Y68.147
G1 F600 X56 Y151.647 E38.05397
G0 F9000 X57.6 Y152.233
G1 F600 X57.6 Y67.813 E44.79274
G0 F9000 X59.2 Y67.905
G1 F600 X59.2 Y152.149 E51.51746
G0 F9000 X60.8 Y152.096
G1 F600 X60.8 Y67.905 E58.23795
G0 F9000 X62.4 Y67.905
G1 F600 X62.4 Y152.096 E64.95844
G0 F9000 X64 Y152.096
G1 F600 X64 Y67.905 E71.67893
G0 F9000 X65.6 Y67.905
G1 F600 X65.6 Y152.096 E78.39942
G0 F9000 X67.2 Y152.096
G1 F600 X67.2 Y67.905 E85.11991
G0 F9000 X68.8 Y67.905
G1 F600 X68.8 Y152.096 E91.8404
G0 F9000 X70.4 Y152.096
G1 F600 X70.4 Y67.905 E98.56089
G0 F9000 X72 Y67.905
G1 F600 X72 Y152.096 E105.28138
G0 F9000 X73.6 Y152.096
G1 F600 X73.6 Y67.905 E112.00187
G0 F9000 X75.2 Y67.905
G1 F600 X75.2 Y152.096 E118.72236
G0 F9000 X76.8 Y152.096
G1 F600 X76.8 Y67.905 E125.44285
G0 F9000 X78.4 Y67.905
G1 F600 X78.4 Y152.096 E132.16334
G0 F9000 X80 Y152.096
G1 F600 X80 Y67.905 E138.88383
G0 F9000 X81.6 Y67.905
G1 F600 X81.6 Y152.096 E145.60432
G0 F9000 X83.2 Y152.096
G1 F600 X83.2 Y67.905 E152.32481
G0 F9000 X84.8 Y67.905
G1 F600 X84.8 Y152.096 E159.0453
G0 F9000 X86.4 Y152.096
G1 F600 X86.4 Y67.905 E165.76579
G0 F9000 X88 Y67.905
G1 F600 X88 Y152.11 E172.4874
G0 F9000 X89.6 Y152.423
G1 F600 X89.6 Y67.905 E179.23399
G0 F9000 X91.2 Y67.905
G1 F600 X91.2 Y153.334 E186.0533
G0 F9000 X92.8 Y155.302
G1 F600 X92.8 Y67.905 E193.02971
G0 F9000 X94.4 Y67.905
G1 F600 X94.4 Y156.258 E200.08242
G0 F9000 X96 Y156.32
G1 F600 X96 Y67.905 E207.14009
G0 F9000 X97.6 Y67.905
G1 F600 X97.6 Y156.32 E214.19776
G0 F9000 X99.2 Y156.319
G1 F600 X99.2 Y67.897 E221.25599
G0 F9000 X100.8 Y67.609
G1 F600 X100.8 Y156.319 E228.3372
G0 F9000 X102.4 Y156.318
G1 F600 X102.4 Y66.745 E235.48731
G0 F9000 X104 Y64.818
G1 F600 X104 Y156.121 E242.77551
G0 F9000 X105.6 Y156.242
G1 F600 X105.6 Y63.76 E250.15782
G0 F9000 X107.2 Y63.688
G1 F600 X107.2 Y156.32 E257.55211
G0 F9000 X108.8 Y156.32
G1 F600 X108.8 Y63.688 E264.94639
G0 F9000 X110.4 Y63.688
G1 F600 X110.4 Y156.319 E272.3406
G0 F9000 X112 Y156.319
G1 F600 X112 Y63.688 E279.73481
G0 F9000 X113.6 Y63.688
G1 F600 X113.6 Y156.319 E287.12901
G0 F9000 X115.2 Y155.906
G1 F600 X115.2 Y64.098 E294.45753
G0 F9000 X116.8 Y65.98
G1 F600 X116.8 Y154.008 E301.4843
G0 F9000 X118.4 Y152.724
G1 F600 X118.4 Y67.27 E308.30561
G0 F9000 X120 Y67.825
G1 F600 X120 Y152.183 E315.03943
G0 F9000 X121.6 Y152.095
G1 F600 X121.6 Y67.905 E321.75984
G0 F9000 X123.2 Y67.905
G1 F600 X123.2 Y152.095 E328.48025
G0 F9000 X124.8 Y152.095
G1 F600 X124.8 Y67.905 E335.20066
G0 F9000 X126.4 Y67.905
G1 F600 X126.4 Y152.095 E341.92107
G0 F9000 X128 Y152.095
G1 F600 X128 Y67.905 E348.64148
G0 F9000 X129.6 Y67.905
G1 F600 X129.6 Y152.095 E355.36189
G0 F9000 X131.2 Y152.095
G1 F600 X131.2 Y67.905 E362.0823
G0 F9000 X132.8 Y67.905
G1 F600 X132.8 Y152.095 E368.80271
G0 F9000 X134.4 Y152.095
G1 F600 X134.4 Y67.905 E375.52312
G0 F9000 X136 Y67.905
G1 F600 X136 Y152.095 E382.24353
G0 F9000 X137.6 Y152.095
G1 F600 X137.6 Y67.905 E388.96394
G0 F9000 X139.2 Y67.905
G1 F600 X139.2 Y152.095 E395.68435
G0 F9000 X140.8 Y152.095
G1 F600 X140.8 Y67.905 E402.40476
G0 F9000 X142.4 Y67.905
G1 F600 X142.4 Y152.095 E409.12517
G0 F9000 X144 Y152.095
G1 F600 X144 Y67.905 E415.84558
G0 F9000 X145.6 Y67.905
G1 F600 X145.6 Y152.095 E422.56599
G0 F9000 X147.2 Y152.095
G1 F600 X147.2 Y67.905 E429.2864
G0 F9000 X148.8 Y67.905
G1 F600 X148.8 Y152.095 E436.00681
G0 F9000 X150.4 Y152.095
G1 F600 X150.4 Y67.905 E442.72722
G0 F9000 X152 Y67.905
G1 F600 X152 Y152.095 E449.44763
G0 F9000 X153.6 Y152.095
G1 F600 X153.6 Y67.905 E456.16804
G0 F9000 X155.2 Y67.905
G1 F600 X155.2 Y152.095 E462.88845
G0 F9000 X156.8 Y152.095
G1 F600 X156.8 Y67.905 E469.60886
G0 F9000 X158.4 Y67.905
G1 F600 X158.4 Y152.095 E476.32927
G0 F9000 X160 Y152.095
G1 F600 X160 Y67.905 E483.04968
G0 F9000 X161.6 Y67.752
G1 F600 X161.6 Y152.098 E489.78254
G0 F9000 X163.2 Y152.118
G1 F600 X163.2 Y67.944 E496.50167
G0 F9000 X164.8 Y68.862
G1 F600 X164.8 Y151.327 E503.08438
G1 F2700 E498.08438
G0 F9000 X165.011 Y152.497
G0 X164.353 Y152.867
G0 X163.22 Y153.202
G0 X113.715 Y157.382
G0 X94.518 Y157.357
G0 X56.774 Y153.175
G0 X55.859 Y152.794
G0 X54.678 Y152.086
G0 X54.236 Y151.716
G0 X53.555 Y150.823
G0 X54.4 Y150.157
G1 F2700 E503.08438
G1 F600 X54.4 Y69.55 E509.51878
G1 F2700 E504.51878
G0 F300 X54.4 Y69.55 Z0.54
G0 F9000 X53.729 Y68.666
G0 X54.371 Y67.98
G0 X55.356 Y67.28
G0 X56.329 Y66.896
G0 X57.369 Y66.745
G0 X106.285 Y62.625
G0 X114.197 Y62.651
G0 X115.22 Y62.907
G0 X115.695 Y63.145
G0 X116.401 Y63.691
G0 X116.993 Y64.371
G0 X116.237 Y65.195
;TIME_ELAPSED:653.094374
;LAYER:-5
;TYPE:SUPPORT
G1 F2700 E509.51878
G1 F1125 X116.091 Y64.939 E509.54819
G1 X116.063 Y64.898 E509.55314
G1 X115.833 Y64.616 E509.58945
G1 X115.731 Y64.51 E509.60413
G1 X115.633 Y64.414 E509.61782
G1 X115.449 Y64.27 E509.64113
G1 X115.09 Y64.022 E509.68467
G1 X114.931 Y63.942 E509.70243
G1 X114.84 Y63.903 E509.71231
G1 X114.802 Y63.89 E509.71632
G1 X116.489 Y65.577 E509.95437
G1 X116.606 Y65.755 E509.97563
G1 X117.052 Y66.273 E510.04383
G1 X117.558 Y66.731 E510.11193
G1 F2700 E505.11193
G0 F9000 X118.226 Y65.899
G0 X161.213 Y66.724
G0 X161.634 Y67.747
G1 F2700 E510.11193
G1 F1125 X161.346 Y67.779 E510.14084
G1 X161.151 Y67.813 E510.16059
G1 X166.279 Y72.941 E510.88421
G1 X166.264 Y73.033 E510.89351
G1 X166.194 Y73.878 E510.97811
G1 X166.194 Y74.27 E511.01723
G1 X159.829 Y67.905 E511.9154
G1 X158.415 Y67.905 E512.05649
G1 X166.194 Y75.685 E513.15426
G1 X166.194 Y77.099 E513.29535
G1 X157.001 Y67.905 E514.59265
G1 X155.586 Y67.905 E514.73384
G1 X166.194 Y78.513 E516.23074
G1 X166.194 Y79.927 E516.37183
G1 X154.172 Y67.905 E518.06827
G1 X152.758 Y67.905 E518.20936
G1 X166.194 Y81.342 E520.10539
G1 X166.194 Y82.756 E520.24648
G1 X151.344 Y67.905 E522.34205
G1 X149.929 Y67.905 E522.48324
G1 X166.194 Y84.17 E524.7784
G1 X166.194 Y85.584 E524.91949
G1 X148.515 Y67.905 E527.41419
G1 X147.101 Y67.905 E527.55528
G1 X166.194 Y86.998 E530.24951
G1 X166.194 Y88.413 E530.3907
G1 X145.687 Y67.905 E533.28453
G1 X144.273 Y67.905 E533.42562
G1 X166.194 Y89.827 E536.51898
G1 X166.194 Y91.241 E536.66007
G1 X142.858 Y67.905 E539.95303
G1 X141.444 Y67.905 E540.09412
G1 X166.194 Y92.655 E543.58661
G1 X166.194 Y94.069 E543.7277
G1 X140.03 Y67.905 E547.41972
G1 X138.616 Y67.905 E547.56081
G1 X166.194 Y95.484 E551.45244
G1 X166.194 Y96.898 E551.59353
G1 X137.202 Y67.905 E555.68468
G1 X135.787 Y67.905 E555.82587
G1 X166.194 Y98.312 E560.11663
G1 X166.194 Y99.726 E560.25772
G1 X134.373 Y67.905 E564.748
G1 X132.959 Y67.905 E564.88909
G1 X166.194 Y101.141 E569.57898
G1 X166.194 Y102.555 E569.72007
G1 X131.545 Y67.905 E574.60949
G1 X130.13 Y67.905 E574.75068
G1 X166.194 Y103.969 E579.8397
G1 X166.194 Y105.383 E579.98079
G1 X128.716 Y67.905 E585.26934
G1 X127.302 Y67.905 E585.41043
G1 X166.194 Y106.797 E590.89851
G1 X166.194 Y108.212 E591.0397
G1 X125.888 Y67.905 E596.72738
G1 X124.474 Y67.905 E596.86847
G1 X166.194 Y109.626 E602.75568
G1 X166.194 Y111.04 E602.89677
G1 X123.059 Y67.905 E608.98359
G1 X121.645 Y67.905 E609.12468
G1 X166.194 Y112.454 E615.41102
G1 X166.194 Y113.868 E615.55211
G1 X120.169 Y67.844 E622.04667
G1 X120.033 Y67.832 E622.06029
G1 X119.363 Y67.677 E622.12891
G1 X118.723 Y67.439 E622.19704
G1 X118.117 Y67.122 E622.26528
G1 X117.84 Y66.929 E622.29897
G1 X166.194 Y115.283 E629.12224
G1 X166.194 Y116.697 E629.26333
G1 X113.185 Y63.688 E636.74347
G1 X111.771 Y63.688 E636.88456
G1 X166.194 Y118.111 E644.56423
G1 X166.194 Y119.525 E644.70532
G1 X110.357 Y63.688 E652.58453
G1 X108.943 Y63.689 E652.72562
G1 X166.194 Y120.94 E660.80435
G1 X166.194 Y122.354 E660.94544
G1 X107.529 Y63.689 E669.22371
G1 X106.309 Y63.689 E669.34544
G1 X106.126 Y63.699 E669.36372
G1 X166.194 Y123.768 E677.84004
G1 X166.194 Y125.182 E677.98113
G1 X104.993 Y63.981 E686.61725
G1 X104.945 Y64.005 E686.62261
G1 X104.632 Y64.203 E686.65956
G1 X104.51 Y64.294 E686.67475
G1 X104.415 Y64.37 E686.68689
G1 X104.254 Y64.531 E686.70961
G1 X104.195 Y64.597 E686.71844
G1 X166.194 Y126.596 E695.46717
G1 X166.194 Y128.011 E695.60836
G1 X103.6 Y65.416 E704.44112
G1 X103.251 Y65.92 E704.50229
G1 X102.98 Y66.211 E704.54196
G1 X166.194 Y129.425 E713.46214
G1 X166.194 Y130.839 E713.60323
G1 X102.234 Y66.878 E722.62875
G1 X101.686 Y67.228 E722.69363
G1 X101.336 Y67.395 E722.73232
G1 X166.194 Y132.253 E731.88449
G1 X166.194 Y133.667 E732.02558
G1 X100.286 Y67.759 E741.32591
G1 X99.749 Y67.863 E741.38049
G1 X99.081 Y67.904 E741.44727
G1 X99.017 Y67.904 E741.45365
G1 X166.194 Y135.082 E750.93312
G1 X166.194 Y136.496 E751.07421
G1 X97.603 Y67.904 E760.75321
G1 X96.189 Y67.904 E760.8943
G1 X166.194 Y137.91 E770.77283
G1 X166.194 Y139.324 E770.91392
G1 X94.774 Y67.904 E780.99206
G1 X93.36 Y67.904 E781.13315
G1 X166.194 Y140.738 E791.41081
G1 X166.194 Y142.153 E791.552
G1 X91.946 Y67.904 E802.02927
G1 X90.532 Y67.904 E802.17036
G1 X166.194 Y143.567 E812.84715
G1 X166.194 Y144.981 E812.98824
G1 X89.118 Y67.904 E823.86457
G1 X87.703 Y67.904 E824.00576
G1 X166.194 Y146.395 E835.08169
G1 X166.194 Y146.576 E835.09975
G1 X166.267 Y147.452 E835.18746
G1 X166.302 Y147.653 E835.20781
G1 X166.31 Y147.731 E835.21564
G1 X166.315 Y147.93 E835.2355
G1 X86.289 Y67.904 E846.52803
G1 X84.875 Y67.904 E846.66912
G1 X166.107 Y149.137 E858.13191
G1 X166.047 Y149.398 E858.15863
G1 X165.984 Y149.623 E858.18194
G1 X165.942 Y149.758 E858.19605
G1 X165.805 Y150.089 E858.23179
G1 X165.752 Y150.195 E858.24362
