;FLAVOR:Marlin
;TIME:25896
;Filament used: 18.8017m
;Layer height: 0.2
;MINX:52.597
;MINY:66.738
;MINZ:0.24
;MAXX:167.353
;MAXY:153.3
;MAXZ:36.09
;Generated with Cura_SteamEngine 4.11.0
M140 S50
M105
M190 S50
M104 S200
M105
M109 S200
M82 ;absolute extrusion mode
; Ender 3 Custom Start G-code
G92 E0 ; Reset Extruder
G28 ; Home all axes
G1 Z2.0 F3000 ; Move Z Axis up little to prevent scratching of Heat Bed
G1 X0.1 Y20 Z0.3 F5000.0 ; Move to start position
G1 X0.1 Y200.0 Z0.3 F1500.0 E15 ; Draw the first line
G1 X0.4 Y200.0 Z0.3 F5000.0 ; Move to side a little
G1 X0.4 Y20 Z0.3 F1500.0 E30 ; Draw the second line
G92 E0 ; Reset Extruder
G1 Z2.0 F3000 ; Move Z Axis up little to prevent scratching of Heat Bed
G1 X5 Y20 Z0.3 F5000.0 ; Move over to prevent blob squish
G92 E0
G92 E0
G1 F2700 E-5
;LAYER_COUNT:175
;LAYER:-6
M107
G0 F9000 X55.244 Y68.825 Z0.24
;TYPE:SUPPORT-INTERFACE
G1 F2700 E0
G1 F600 X55.626 Y68.566 E0.03684
G1 X56.288 Y68.187 E0.09773
G1 X56.55 Y68.058 E0.12104
G1 X56.92 Y67.903 E0.15307
G1 X57.161 Y67.826 E0.17326
G1 X57.337 Y67.791 E0.18759
G1 X57.649 Y67.753 E0.21267
G1 X57.862 Y67.745 E0.22969
G1 X58.145 Y67.745 E0.25228
G1 X58.511 Y67.766 E0.28154
G1 X58.932 Y67.835 E0.3156
G1 X59.778 Y67.905 E0.38336
G1 X161.377 Y67.904 E8.49343
G1 X162.059 Y67.859 E8.54799
G1 X162.372 Y67.824 E8.57313
G1 X162.747 Y67.821 E8.60307
G1 X162.83 Y67.827 E8.60971
G1 X163.146 Y67.872 E8.63519
G1 X163.305 Y67.908 E8.6482
G1 X163.56 Y67.982 E8.6694
G1 X163.843 Y68.078 E8.69325
G1 X164.07 Y68.187 E8.71335
G1 X164.414 Y68.392 E8.74532
G1 X164.654 Y68.555 E8.76848
G1 X164.924 Y68.774 E8.79623
G1 X165.054 Y68.893 E8.81029
G1 X165.286 Y69.138 E8.83723
G1 X165.51 Y69.431 E8.86667
G1 X165.743 Y69.8 E8.9015
G1 X165.829 Y69.967 E8.9165
G1 X165.965 Y70.343 E8.94842
G1 X166.047 Y70.616 E8.97117
G1 X166.225 Y71.364 E9.03255
G1 X166.289 Y71.723 E9.06165
G1 X166.315 Y72.091 E9.0911
G1 X166.299 Y72.385 E9.11461
G1 X166.209 Y72.885 E9.15516
G1 X166.214 Y72.981 E9.16283
G1 X166.195 Y73.432 E9.19887
G1 X166.195 Y146.577 E15.03762
G1 X166.269 Y147.453 E15.10779
G1 X166.311 Y147.732 E15.13031
G1 X166.316 Y147.94 E15.14692
G1 X166.267 Y148.379 E15.18218
G1 X166.223 Y148.638 E15.20315
G1 X166.048 Y149.398 E15.26541
G1 X165.943 Y149.758 E15.29534
G1 X165.806 Y150.089 E15.32394
G1 X165.75 Y150.2 E15.33386
G1 X165.611 Y150.435 E15.35566
G1 X165.431 Y150.684 E15.38018
G1 X165.242 Y150.921 E15.40438
G1 X165.126 Y151.039 E15.41759
G1 X164.92 Y151.229 E15.43996
G1 X164.625 Y151.469 E15.47031
G1 X164.425 Y151.608 E15.48976
G1 X164.132 Y151.79 E15.51729
G1 X163.962 Y151.877 E15.53253
G1 X163.673 Y151.987 E15.55722
G1 X163.392 Y152.076 E15.58075
G1 X163.049 Y152.151 E15.60877
G1 X162.695 Y152.191 E15.63721
G1 X162.591 Y152.195 E15.64552
G1 X162.293 Y152.184 E15.66932
G1 X161.579 Y152.096 E15.72675
G1 X161.579 Y152.119 E15.72858
G1 X161.271 Y152.095 E15.75324
G1 X59.825 Y152.095 E23.8511
G1 X58.953 Y152.169 E23.92096
G1 X58.652 Y152.22 E23.94533
G1 X58.364 Y152.252 E23.96846
G1 X58.208 Y152.256 E23.98092
G1 X57.938 Y152.256 E24.00247
G1 X57.657 Y152.239 E24.02494
G1 X57.302 Y152.199 E24.05346
G1 X56.903 Y152.098 E24.08631
G1 X56.591 Y151.973 E24.11314
G1 X56.339 Y151.842 E24.13581
G1 X55.586 Y151.409 E24.20515
G1 X55.306 Y151.225 E24.2319
G1 X54.998 Y150.972 E24.26371
G1 X54.725 Y150.656 E24.29705
G1 X54.593 Y150.472 E24.31512
G1 X54.457 Y150.259 E24.3353
G1 X54.089 Y149.616 E24.39443
G1 X53.958 Y149.35 E24.4181
G1 X53.806 Y148.988 E24.44944
G1 X53.726 Y148.739 E24.47032
G1 X53.691 Y148.563 E24.48464
G1 X53.652 Y148.247 E24.51006
G1 X53.645 Y148.049 E24.52588
G1 X53.645 Y147.754 E24.54942
G1 X53.666 Y147.388 E24.57869
G1 X53.735 Y146.967 E24.61274
G1 X53.805 Y146.121 E24.6805
G1 X53.805 Y73.925 E30.4435
G1 X53.731 Y73.053 E30.51336
G1 X53.68 Y72.752 E30.53773
G1 X53.648 Y72.464 E30.56086
G1 X53.644 Y72.318 E30.57252
G1 X53.644 Y72.031 E30.59543
G1 X53.661 Y71.75 E30.6179
G1 X53.7 Y71.408 E30.64537
G1 X53.751 Y71.16 E30.66559
G1 X53.802 Y71.003 E30.67876
G1 X53.927 Y70.691 E30.70559
G1 X54.059 Y70.437 E30.72844
G1 X54.489 Y69.688 E30.79738
G1 X54.68 Y69.4 E30.82497
G1 X54.928 Y69.098 E30.85616
G1 X55.244 Y68.825 E30.8895
G1 F2700 E25.8895
G0 F9000 X54.821 Y67.818
G0 X88.524 Y90.936
G0 X87.747 Y90.207
G1 F2700 E30.8895
G1 F600 X87.305 Y90.711 E30.94301
G1 X86.922 Y91.275 E30.99743
G1 X86.613 Y91.885 E31.05201
G1 X86.384 Y92.527 E31.10642
G1 X86.236 Y93.198 E31.16127
G1 X86.175 Y94.002 E31.22563
G1 X86.175 Y125.996 E33.77953
G1 X86.217 Y126.664 E33.83296
G1 X86.346 Y127.335 E33.8875
G1 X86.559 Y127.984 E33.94203
G1 X86.851 Y128.601 E33.99652
G1 X87.22 Y129.178 E34.05119
G1 X87.745 Y129.791 E34.11561
G1 X90.207 Y132.253 E34.39355
G1 X90.711 Y132.695 E34.44706
G1 X91.275 Y133.078 E34.50148
G1 X91.885 Y133.387 E34.55606
G1 X92.527 Y133.616 E34.61047
G1 X93.198 Y133.764 E34.66532
G1 X94.002 Y133.825 E34.72968
G1 X125.996 Y133.825 E37.28358
G1 X126.664 Y133.783 E37.33701
G1 X127.335 Y133.654 E37.39155
G1 X127.984 Y133.441 E37.44608
G1 X128.601 Y133.149 E37.50057
G1 X129.178 Y132.78 E37.55524
G1 X129.791 Y132.255 E37.61967
G1 X132.253 Y129.793 E37.8976
G1 X132.695 Y129.289 E37.95111
G1 X133.078 Y128.725 E38.00553
G1 X133.387 Y128.115 E38.06011
G1 X133.616 Y127.473 E38.11452
G1 X133.764 Y126.802 E38.16937
G1 X133.825 Y125.998 E38.23373
G1 X133.825 Y94.004 E40.78763
G1 X133.783 Y93.336 E40.84106
G1 X133.654 Y92.665 E40.8956
G1 X133.441 Y92.016 E40.95013
G1 X133.149 Y91.399 E41.00462
G1 X132.78 Y90.822 E41.05929
G1 X132.255 Y90.209 E41.12372
G1 X129.793 Y87.747 E41.40165
G1 X129.289 Y87.305 E41.45516
G1 X128.725 Y86.922 E41.50958
G1 X128.115 Y86.613 E41.56416
G1 X127.473 Y86.384 E41.61857
G1 X126.802 Y86.236 E41.67342
G1 X125.998 Y86.175 E41.73779
G1 X94.004 Y86.175 E44.29168
G1 X93.336 Y86.217 E44.34511
G1 X92.665 Y86.346 E44.39966
G1 X92.016 Y86.559 E44.45418
G1 X91.399 Y86.851 E44.50867
G1 X90.822 Y87.22 E44.56334
G1 X90.209 Y87.745 E44.62777
G1 X87.747 Y90.207 E44.9057
G0 F9000 X88 Y89.954
G1 F600 X88 Y67.904 E46.66582
G0 F9000 X86.4 Y67.904
G1 F600 X86.4 Y92.483 E48.62783
G1 F2700 E43.62783
G0 F9000 X87.594 Y92.301
G0 X90.353 Y89.107
G0 X89.6 Y88.354
G1 F2700 E48.62783
G1 F600 X89.6 Y67.904 E50.26023
G0 F9000 X91.2 Y67.904
G1 F600 X91.2 Y86.979 E51.78288
G0 F9000 X92.8 Y86.321
G1 F600 X92.8 Y67.904 E53.25301
G0 F9000 X94.4 Y67.904
G1 F600 X94.4 Y86.175 E54.71148
G0 F9000 X96 Y86.175
G1 F600 X96 Y67.904 E56.16995
G0 F9000 X97.6 Y67.904
G1 F600 X97.6 Y86.175 E57.62842
G0 F9000 X99.2 Y86.175
G1 F600 X99.2 Y67.904 E59.08689
G0 F9000 X100.8 Y67.904
G1 F600 X100.8 Y86.175 E60.54536
G0 F9000 X102.4 Y86.175
G1 F600 X102.4 Y67.904 E62.00383
G0 F9000 X104 Y67.904
G1 F600 X104 Y86.175 E63.4623
G0 F9000 X105.6 Y86.175
G1 F600 X105.6 Y67.904 E64.92077
G0 F9000 X107.2 Y67.904
G1 F600 X107.2 Y86.175 E66.37924
G0 F9000 X108.8 Y86.175
G1 F600 X108.8 Y67.904 E67.83771
G0 F9000 X110.4 Y67.904
G1 F600 X110.4 Y86.175 E69.29618
G0 F9000 X112 Y86.175
G1 F600 X112 Y67.904 E70.75465
G0 F9000 X113.6 Y67.904
G1 F600 X113.6 Y86.175 E72.21312
G0 F9000 X115.2 Y86.175
G1 F600 X115.2 Y67.904 E73.67159
G0 F9000 X116.8 Y67.904
G1 F600 X116.8 Y86.175 E75.13006
G0 F9000 X118.4 Y86.175
G1 F600 X118.4 Y67.904 E76.58853
G0 F9000 X120 Y67.904
G1 F600 X120 Y86.175 E78.047
G0 F9000 X121.6 Y86.175
G1 F600 X121.6 Y67.904 E79.50547
G0 F9000 X123.2 Y67.904
G1 F600 X123.2 Y86.175 E80.96394
G0 F9000 X124.8 Y86.175
G1 F600 X124.8 Y67.904 E82.42241
G0 F9000 X126.4 Y67.904
G1 F600 X126.4 Y86.205 E83.88328
G0 F9000 X128 Y86.571
G1 F600 X128 Y67.904 E85.37336
G0 F9000 X129.6 Y67.904
G1 F600 X129.6 Y87.577 E86.94374
G0 F9000 X131.2 Y89.154
G1 F600 X131.2 Y67.904 E88.64001
G0 F9000 X132.8 Y67.904
G1 F600 X132.8 Y90.853 E90.4719
G1 F2700 E85.4719
G0 F9000 X131.922 Y91.458
G0 X134.399 Y66.84
G0 X134.4 Y67.904
G1 F2700 E90.4719
G1 F600 X134.4 Y152.095 E97.19239
G0 F9000 X132.8 Y152.095
G1 F600 X132.8 Y129.134 E99.02523
G0 F9000 X131.2 Y130.846
G1 F600 X131.2 Y152.095 E100.72142
G0 F9000 X129.6 Y152.095
G1 F600 X129.6 Y132.418 E102.29212
G0 F9000 X128 Y133.433
G1 F600 X128 Y152.095 E103.7818
G0 F9000 X126.4 Y152.095
G1 F600 X126.4 Y133.799 E105.24227
G0 F9000 X124.8 Y133.825
G1 F600 X124.8 Y152.095 E106.70066
G0 F9000 X123.2 Y152.095
G1 F600 X123.2 Y133.825 E108.15905
G0 F9000 X121.6 Y133.825
G1 F600 X121.6 Y152.095 E109.61744
G0 F9000 X120 Y152.095
G1 F600 X120 Y133.825 E111.07583
G0 F9000 X118.4 Y133.825
G1 F600 X118.4 Y152.095 E112.53422
G0 F9000 X116.8 Y152.095
G1 F600 X116.8 Y133.825 E113.99261
G0 F9000 X115.2 Y133.825
G1 F600 X115.2 Y152.095 E115.451
G0 F9000 X113.6 Y152.095
G1 F600 X113.6 Y133.825 E116.90939
G0 F9000 X112 Y133.825
G1 F600 X112 Y152.095 E118.36778
G0 F9000 X110.4 Y152.095
G1 F600 X110.4 Y133.825 E119.82617
G0 F9000 X108.8 Y133.825
G1 F600 X108.8 Y152.095 E121.28456
G0 F9000 X107.2 Y152.095
G1 F600 X107.2 Y133.825 E122.74296
G0 F9000 X105.6 Y133.825
G1 F600 X105.6 Y152.095 E124.20135
G0 F9000 X104 Y152.095
G1 F600 X104 Y133.825 E125.65974
G0 F9000 X102.4 Y133.825
G1 F600 X102.4 Y152.095 E127.11813
G0 F9000 X100.8 Y152.095
G1 F600 X100.8 Y133.825 E128.57652
G0 F9000 X99.2 Y133.825
G1 F600 X99.2 Y152.095 E130.03491
G0 F9000 X97.6 Y152.095
G1 F600 X97.6 Y133.825 E131.4933
G0 F9000 X96 Y133.825
G1 F600 X96 Y152.095 E132.95169
G0 F9000 X94.4 Y152.095
G1 F600 X94.4 Y133.825 E134.41008
G0 F9000 X92.8 Y133.677
G1 F600 X92.8 Y152.095 E135.88028
G0 F9000 X91.2 Y152.095
G1 F600 X91.2 Y133.028 E137.40229
G0 F9000 X89.6 Y131.646
G1 F600 X89.6 Y152.095 E139.03462
G0 F9000 X88 Y152.095
G1 F600 X88 Y130.046 E140.79467
G0 F9000 X86.4 Y127.5
G1 F600 X86.4 Y152.095 E142.75795
G0 F9000 X84.8 Y152.095
G1 F600 X84.8 Y67.904 E149.47844
G0 F9000 X83.2 Y67.904
G1 F600 X83.2 Y152.095 E156.19893
G0 F9000 X81.6 Y152.095
G1 F600 X81.6 Y67.904 E162.91942
G0 F9000 X80 Y67.904
G1 F600 X80 Y152.095 E169.63991
G0 F9000 X78.4 Y152.095
G1 F600 X78.4 Y67.904 E176.36039
G0 F9000 X76.8 Y67.904
G1 F600 X76.8 Y152.095 E183.08088
G0 F9000 X75.2 Y152.095
G1 F600 X75.2 Y67.904 E189.80137
G0 F9000 X73.6 Y67.904
G1 F600 X73.6 Y152.095 E196.52186
G0 F9000 X72 Y152.095
G1 F600 X72 Y67.904 E203.24235
G0 F9000 X70.4 Y67.904
G1 F600 X70.4 Y152.095 E209.96284
G0 F9000 X68.8 Y152.095
G1 F600 X68.8 Y67.904 E216.68333
G0 F9000 X67.2 Y67.904
G1 F600 X67.2 Y152.095 E223.40382
G0 F9000 X65.6 Y152.095
G1 F600 X65.6 Y67.904 E230.12431
G0 F9000 X64 Y67.904
G1 F600 X64 Y152.095 E236.8448
G0 F9000 X62.4 Y152.095
G1 F600 X62.4 Y67.904 E243.56529
G0 F9000 X60.8 Y67.904
G1 F600 X60.8 Y152.095 E250.28578
G0 F9000 X59.2 Y152.149
G1 F600 X59.2 Y67.858 E257.01425
G0 F9000 X57.6 Y67.758
G1 F600 X57.6 Y152.232 E263.75733
G0 F9000 X56 Y151.647
G1 F600 X56 Y68.351 E270.40638
G0 F9000 X54.4 Y69.843
G1 F600 X54.4 Y150.159 E276.81755
G1 F2700 E271.81755
G0 F9000 X53.718 Y151.079
G0 X54.303 Y151.779
G0 X55.031 Y152.318
G0 X56.151 Y152.943
G0 X57.146 Y153.252
G0 X57.881 Y153.286
G0 X136 Y153.16
G0 X136 Y152.095
G1 F2700 E276.81755
G1 F600 X136 Y67.904 E283.53804
G0 F9000 X137.6 Y67.904
G1 F600 X137.6 Y152.095 E290.25853
G0 F9000 X139.2 Y152.095
G1 F600 X139.2 Y67.904 E296.97902
G0 F9000 X140.8 Y67.904
G1 F600 X140.8 Y152.095 E303.69951
G0 F9000 X142.4 Y152.095
G1 F600 X142.4 Y67.904 E310.42
G0 F9000 X144 Y67.904
G1 F600 X144 Y152.095 E317.14049
G0 F9000 X145.6 Y152.095
G1 F600 X145.6 Y67.904 E323.86098
G0 F9000 X147.2 Y67.904
G1 F600 X147.2 Y152.095 E330.58147
G0 F9000 X148.8 Y152.095
G1 F600 X148.8 Y67.904 E337.30196
G0 F9000 X150.4 Y67.904
G1 F600 X150.4 Y152.095 E344.02245
G0 F9000 X152 Y152.095
G1 F600 X152 Y67.904 E350.74294
G0 F9000 X153.6 Y67.904
G1 F600 X153.6 Y152.095 E357.46343
G0 F9000 X155.2 Y152.095
G1 F600 X155.2 Y67.904 E364.18392
G0 F9000 X156.8 Y67.904
G1 F600 X156.8 Y152.095 E370.90441
G0 F9000 X158.4 Y152.095
G1 F600 X158.4 Y67.904 E377.6249
G0 F9000 X160 Y67.904
G1 F600 X160 Y152.095 E384.34539
G0 F9000 X161.6 Y152.098
G1 F600 X161.6 Y67.889 E391.06731
G0 F9000 X163.2 Y67.885
G1 F600 X163.2 Y152.118 E397.79115
G0 F9000 X164.8 Y151.327
G1 F600 X164.8 Y68.674 E404.38887
G0 F300 X164.8 Y68.674 Z0.54
G0 F9000 X162.575 Y67.822
;TIME_ELAPSED:525.767845
;LAYER:-5
;TYPE:SUPPORT
G1 F1125 X162.371 Y67.824 E404.40923
G1 X162.223 Y67.838 E404.42406
G1 X162.058 Y67.858 E404.44065
G1 X161.376 Y67.904 E404.50885
G1 X161.242 Y67.904 E404.52222
G1 X166.211 Y72.873 E405.2234
G1 X166.208 Y72.884 E405.22454
G0 F9000 X166.227 Y72.889
G1 F1125 X166.213 Y72.981 E405.23383
G1 X166.194 Y73.431 E405.27877
G1 X166.194 Y74.27 E405.36248
G1 X159.828 Y67.904 E406.26079
G1 X158.413 Y67.904 E406.40198
G1 X166.194 Y75.685 E407.49997
G1 X166.194 Y77.099 E407.64106
G1 X156.999 Y67.904 E408.93857
G1 X155.585 Y67.904 E409.07966
G1 X166.194 Y78.513 E410.5767
G1 X166.194 Y79.927 E410.71779
G1 X154.171 Y67.904 E412.41437
G1 X152.756 Y67.904 E412.55556
G1 X166.194 Y81.342 E414.4518
G1 X166.194 Y82.756 E414.59289
G1 X151.342 Y67.904 E416.68867
G1 X149.928 Y67.904 E416.82976
G1 X166.194 Y84.17 E419.12507
G1 X166.194 Y85.584 E419.26616
G1 X148.514 Y67.904 E421.761
G1 X147.1 Y67.904 E421.90209
G1 X166.194 Y86.998 E424.59646
G1 X166.194 Y88.413 E424.73765
G1 X145.685 Y67.904 E427.63169
G1 X144.271 Y67.904 E427.77278
G1 X166.194 Y89.827 E430.86635
G1 X166.194 Y91.241 E431.00744
G1 X142.857 Y67.904 E434.30054
G1 X141.443 Y67.904 E434.44163
G1 X166.194 Y92.655 E437.93427
G1 X166.194 Y94.069 E438.07535
G1 X140.029 Y67.904 E441.76752
G1 X138.614 Y67.904 E441.90871
G1 X166.194 Y95.484 E445.80054
G1 X166.194 Y96.898 E445.94163
G1 X137.2 Y67.904 E450.033
G1 X135.786 Y67.904 E450.17409
G1 X166.194 Y98.312 E454.46499
G1 X166.194 Y99.726 E454.60608
G1 X134.372 Y67.904 E459.0965
G1 X132.957 Y67.904 E459.23769
G1 X166.194 Y101.141 E463.92779
G1 X166.194 Y102.555 E464.06888
G1 X131.543 Y67.904 E468.95851
G1 X130.129 Y67.904 E469.0996
G1 X166.194 Y103.969 E474.18876
G1 X166.194 Y105.383 E474.32985
G1 X128.715 Y67.904 E479.61854
G1 X127.301 Y67.904 E479.75963
G1 X166.194 Y106.797 E485.24786
G1 X166.194 Y108.212 E485.38905
G1 X125.886 Y67.904 E491.07694
G1 X124.472 Y67.904 E491.21803
G1 X166.194 Y109.626 E497.10545
G1 X166.194 Y111.04 E497.24654
G1 X123.058 Y67.904 E503.3335
G1 X121.644 Y67.904 E503.47459
G1 X166.194 Y112.454 E509.76108
G1 X166.194 Y113.868 E509.90216
G1 X120.23 Y67.904 E516.38818
G1 X118.815 Y67.904 E516.52937
G1 X166.194 Y115.283 E523.21506
G1 X166.194 Y116.697 E523.35615
G1 X117.401 Y67.904 E530.24137
G1 X115.987 Y67.904 E530.38246
G1 X166.194 Y118.111 E537.46721
G1 X166.194 Y119.525 E537.6083
G1 X114.573 Y67.904 E544.89258
G1 X113.159 Y67.904 E545.03367
G1 X166.194 Y120.94 E552.51755
G1 X166.194 Y122.354 E552.65864
G1 X111.744 Y67.904 E560.34212
G1 X110.33 Y67.904 E560.48321
G1 X166.194 Y123.768 E568.36623
G1 X166.194 Y125.182 E568.50732
G1 X133.641 Y92.628 E573.10097
G1 X133.44 Y92.016 E573.16524
G1 X133.148 Y91.399 E573.23335
G1 X132.779 Y90.822 E573.30169
G1 X132.254 Y90.208 E573.3823
G1 X129.792 Y87.747 E573.72964
G1 X129.288 Y87.305 E573.79653
G1 X128.724 Y86.921 E573.86461
G1 X128.114 Y86.612 E573.93284
G1 X127.472 Y86.383 E574.00086
G0 F9000 X127.373 Y86.361
G1 F1125 X108.916 Y67.904 E576.60534
G1 X107.502 Y67.904 E576.74643
G1 X125.772 Y86.174 E579.32452
G1 X124.358 Y86.174 E579.46561
G1 X106.087 Y67.904 E582.04378
G1 X104.673 Y67.904 E582.18487
G1 X122.943 Y86.174 E584.76296
G1 X121.529 Y86.174 E584.90405
G1 X103.259 Y67.904 E587.48214
G1 X101.845 Y67.904 E587.62323
G1 X120.115 Y86.174 E590.20133
G1 X118.701 Y86.174 E590.34242
G1 X100.431 Y67.904 E592.92051
G1 X99.016 Y67.904 E593.0617
G1 X117.287 Y86.174 E595.63987
G1 X115.872 Y86.174 E595.78105
G1 X97.602 Y67.904 E598.35915
G1 X96.188 Y67.904 E598.50024
G1 X114.458 Y86.174 E601.07833
G1 X113.044 Y86.174 E601.21942
G1 X94.774 Y67.904 E603.79752
G1 X93.36 Y67.904 E603.93861
G1 X111.63 Y86.174 E606.5167
G1 X110.216 Y86.174 E606.65779
G1 X91.945 Y67.904 E609.23595
G1 X90.531 Y67.904 E609.37704
G1 X108.801 Y86.174 E611.95514
G1 X107.387 Y86.174 E612.09623
G1 X89.117 Y67.904 E614.67432
G1 X87.703 Y67.904 E614.81541
G1 X105.973 Y86.174 E617.39351
G1 X104.559 Y86.174 E617.5346
G1 X86.288 Y67.904 E620.11276
