;FLAVOR:Marlin
;TIME:27777
;Filament used: 14.1191m
;Layer height: 0.12
;MINX:74.335
;MINY:74.335
;MINZ:0.144
;MAXX:144.8
;MAXY:145.665
;MAXZ:30.639
;Generated with Cura_SteamEngine 4.11.0
M140 S50
M105
M190 S50
M104 S200
M105
M109 S200
M82 ;absolute extrusion mode
; Ender 3 Custom Start G-code
G92 E0 ; Reset Extruder
G28 ; Home all axes
G1 Z2.0 F3000 ; Move Z Axis up little to prevent scratching of Heat Bed
G1 X0.1 Y20 Z0.3 F5000.0 ; Move to start position
G1 X0.1 Y200.0 Z0.3 F1500.0 E15 ; Draw the first line
G1 X0.4 Y200.0 Z0.3 F5000.0 ; Move to side a little
G1 X0.4 Y20 Z0.3 F1500.0 E30 ; Draw the second line
G92 E0 ; Reset Extruder
G1 Z2.0 F3000 ; Move Z Axis up little to prevent scratching of Heat Bed
G1 X5 Y20 Z0.3 F5000.0 ; Move over to prevent blob squish
G92 E0
G92 E0
G1 F2700 E-5
;LAYER_COUNT:250
;LAYER:-6
M107
G0 F9000 X83.282 Y83.05 Z0.144
;TYPE:SUPPORT-INTERFACE
G1 F2700 E0
G1 F600 X83.392 Y82.955 E0.00696
G1 X83.708 Y82.73 E0.02554
G1 X83.738 Y82.711 E0.02724
G1 X84.093 Y82.536 E0.0462
G1 X84.122 Y82.524 E0.0477
G1 X84.478 Y82.415 E0.06553
G1 X84.55 Y82.4 E0.06905
G1 X84.896 Y82.351 E0.08579
G1 X85.148 Y82.34 E0.09787
G1 X134.815 Y82.34 E2.47665
G1 X135.178 Y82.361 E2.49407
G1 X135.547 Y82.422 E2.51198
G1 X135.598 Y82.435 E2.5145
G1 X135.944 Y82.551 E2.53198
G1 X135.993 Y82.573 E2.53455
G1 X136.325 Y82.749 E2.55255
G1 X136.376 Y82.783 E2.55549
G1 X136.662 Y82.998 E2.57262
G1 X136.951 Y83.282 E2.59203
G1 X137.045 Y83.392 E2.59896
G1 X137.27 Y83.708 E2.61754
G1 X137.289 Y83.738 E2.61924
G1 X137.464 Y84.093 E2.63819
G1 X137.476 Y84.122 E2.6397
G1 X137.585 Y84.477 E2.65748
G1 X137.6 Y84.55 E2.66105
G1 X137.649 Y84.896 E2.67779
G1 X137.66 Y85.136 E2.6893
G1 X137.66 Y134.815 E5.06865
G1 X137.639 Y135.178 E5.08607
G1 X137.577 Y135.555 E5.10437
G1 X137.568 Y135.591 E5.10614
G1 X137.449 Y135.944 E5.12398
G1 X137.427 Y135.993 E5.12656
G1 X137.251 Y136.325 E5.14455
G1 X137.217 Y136.376 E5.14749
G1 X137.007 Y136.656 E5.16425
G1 X136.731 Y136.939 E5.18319
G1 X136.601 Y137.05 E5.19137
G1 X136.292 Y137.27 E5.20954
G1 X136.262 Y137.289 E5.21124
G1 X135.907 Y137.464 E5.2302
G1 X135.878 Y137.476 E5.2317
G1 X135.522 Y137.585 E5.24953
G1 X135.45 Y137.6 E5.25305
G1 X135.104 Y137.649 E5.26979
G1 X134.852 Y137.66 E5.28187
G1 X85.185 Y137.66 E7.66065
G1 X84.822 Y137.639 E7.67807
G1 X84.453 Y137.578 E7.69598
G1 X84.402 Y137.565 E7.6985
G1 X84.056 Y137.449 E7.71598
G1 X84.007 Y137.427 E7.71855
G1 X83.675 Y137.251 E7.73655
G1 X83.622 Y137.216 E7.73959
G1 X83.345 Y137.008 E7.75618
G1 X83.049 Y136.718 E7.77603
G1 X82.951 Y136.603 E7.78327
G1 X82.73 Y136.292 E7.80154
G1 X82.711 Y136.262 E7.80324
G1 X82.536 Y135.907 E7.8222
G1 X82.524 Y135.878 E7.8237
G1 X82.415 Y135.522 E7.84153
G1 X82.399 Y135.449 E7.84511
G1 X82.351 Y135.103 E7.86184
G1 X82.34 Y134.864 E7.8733
G1 X82.34 Y85.185 E10.25265
G1 X82.361 Y84.822 E10.27007
G1 X82.422 Y84.453 E10.28798
G1 X82.435 Y84.402 E10.2905
G1 X82.551 Y84.056 E10.30798
G1 X82.573 Y84.007 E10.31055
G1 X82.749 Y83.675 E10.32855
G1 X82.783 Y83.624 E10.33149
G1 X82.998 Y83.338 E10.34862
G1 X83.282 Y83.05 E10.368
G0 F9000 X83.2 Y83.133
G1 F600 X83.2 Y136.865 E12.94147
G0 F9000 X84.8 Y137.635
G1 F600 X84.8 Y82.364 E15.58865
G0 F9000 X86.4 Y82.34
G1 F600 X86.4 Y137.66 E18.23818
G0 F9000 X88 Y137.66
G1 F600 X88 Y82.34 E20.88771
G0 F9000 X89.6 Y82.34
G1 F600 X89.6 Y137.66 E23.53724
G0 F9000 X91.2 Y137.66
G1 F600 X91.2 Y82.34 E26.18677
G0 F9000 X92.8 Y82.34
G1 F600 X92.8 Y137.66 E28.83629
G0 F9000 X94.4 Y137.66
G1 F600 X94.4 Y82.34 E31.48582
G0 F9000 X96 Y82.34
G1 F600 X96 Y137.66 E34.13535
G0 F9000 X97.6 Y137.66
G1 F600 X97.6 Y82.34 E36.78488
G0 F9000 X99.2 Y82.34
G1 F600 X99.2 Y137.66 E39.43441
G0 F9000 X100.8 Y137.66
G1 F600 X100.8 Y82.34 E42.08394
G0 F9000 X102.4 Y82.34
G1 F600 X102.4 Y137.66 E44.73347
G0 F9000 X104 Y137.66
G1 F600 X104 Y82.34 E47.383
G0 F9000 X105.6 Y82.34
G1 F600 X105.6 Y137.66 E50.03253
G0 F9000 X107.2 Y137.66
G1 F600 X107.2 Y82.34 E52.68206
G0 F9000 X108.8 Y82.34
G1 F600 X108.8 Y137.66 E55.33158
G0 F9000 X110.4 Y137.66
G1 F600 X110.4 Y82.34 E57.98111
G0 F9000 X112 Y82.34
G1 F600 X112 Y137.66 E60.63064
G0 F9000 X113.6 Y137.66
G1 F600 X113.6 Y82.34 E63.28017
G0 F9000 X115.2 Y82.34
G1 F600 X115.2 Y137.66 E65.9297
G0 F9000 X116.8 Y137.66
G1 F600 X116.8 Y82.34 E68.57923
G0 F9000 X118.4 Y82.34
G1 F600 X118.4 Y137.66 E71.22876
G0 F9000 X120 Y137.66
G1 F600 X120 Y82.34 E73.87829
G0 F9000 X121.6 Y82.34
G1 F600 X121.6 Y137.66 E76.52782
G0 F9000 X123.2 Y137.66
G1 F600 X123.2 Y82.34 E79.17735
G0 F9000 X124.8 Y82.34
G1 F600 X124.8 Y137.66 E81.82687
G0 F9000 X126.4 Y137.66
G1 F600 X126.4 Y82.34 E84.4764
G0 F9000 X128 Y82.34
G1 F600 X128 Y137.66 E87.12593
G0 F9000 X129.6 Y137.66
G1 F600 X129.6 Y82.34 E89.77546
G0 F9000 X131.2 Y82.34
G1 F600 X131.2 Y137.66 E92.42499
G0 F9000 X132.8 Y137.66
G1 F600 X132.8 Y82.34 E95.07452
G0 F9000 X134.4 Y82.34
G1 F600 X134.4 Y137.66 E97.72405
G0 F9000 X136 Y137.419
G1 F600 X136 Y82.577 E100.35068
G0 F9000 X137.6 Y84.55
G1 F600 X137.6 Y135.416 E102.78689
G1 F2700 E97.78689
G0 F300 X137.6 Y135.416 Z0.324
G0 F9000 X138.714 Y135.099
G0 X138.725 Y85.333
G0 X137.659 Y85.333
;TIME_ELAPSED:223.609419
;LAYER:-5
;TYPE:SUPPORT
G1 F2700 E102.78689
G1 F1125 X134.665 Y82.339 E103.04038
G1 X134.814 Y82.339 E103.0493
G1 X135.032 Y82.348 E103.06236
G1 X135.177 Y82.36 E103.07107
G1 X135.546 Y82.421 E103.09347
G1 X135.596 Y82.435 E103.09657
G1 X135.943 Y82.551 E103.11848
G1 X135.992 Y82.573 E103.12169
G1 X136.323 Y82.749 E103.14414
G1 X136.374 Y82.783 E103.14781
G1 X136.661 Y82.998 E103.16928
G1 X136.743 Y83.07 E103.17581
G1 X136.832 Y83.154 E103.18314
G1 X136.95 Y83.282 E103.19356
G1 X137.044 Y83.391 E103.20218
G1 X137.269 Y83.708 E103.22545
G1 X137.288 Y83.737 E103.22752
G1 X137.462 Y84.093 E103.25125
G1 X137.474 Y84.122 E103.25313
G1 X137.584 Y84.476 E103.27532
G1 X137.599 Y84.549 E103.27978
G1 X137.648 Y84.895 E103.3007
G1 X137.653 Y84.985 E103.3061
G1 X137.659 Y85.135 E103.31509
G1 F2700 E98.31509
G0 F9000 X138.708 Y84.786
G0 X138.482 Y83.774
G0 X138.161 Y83.124
G0 X137.466 Y82.288
G0 X136.869 Y81.833
G0 X135.995 Y81.455
G0 X135.099 Y81.286
G0 X134.665 Y82.339
G1 F2700 E103.31509
G1 F1125 X133.251 Y82.339 E103.39974
G1 X137.659 Y86.747 E103.77295
G1 X137.659 Y88.162 E103.85766
G1 X131.837 Y82.339 E104.35063
G1 X130.423 Y82.339 E104.43529
G1 X137.659 Y89.576 E105.04798
G1 X137.659 Y90.99 E105.13263
G1 X129.008 Y82.339 E105.86508
G1 X127.594 Y82.339 E105.94973
G1 X137.659 Y92.404 E106.8019
G1 X137.659 Y93.818 E106.88655
G1 X126.18 Y82.339 E107.85844
G1 X124.766 Y82.339 E107.94309
G1 X137.659 Y95.233 E109.03474
G1 X137.659 Y96.647 E109.1194
G1 X123.351 Y82.339 E110.3308
G1 X121.937 Y82.339 E110.41546
G1 X137.659 Y98.061 E111.74658
G1 X137.659 Y99.475 E111.83124
G1 X120.523 Y82.339 E113.28208
G1 X119.109 Y82.339 E113.36674
G1 X137.659 Y100.889 E114.9373
G1 X137.659 Y102.304 E115.02201
G1 X117.695 Y82.339 E116.71234
G1 X116.28 Y82.339 E116.79705
G1 X137.659 Y103.718 E118.60714
G1 X137.659 Y105.132 E118.69179
G1 X114.866 Y82.339 E120.62159
G1 X113.452 Y82.339 E120.70625
G1 X137.659 Y106.546 E122.75577
G1 X137.659 Y107.961 E122.84048
G1 X112.038 Y82.339 E125.00976
G1 X110.624 Y82.339 E125.09442
G1 X137.659 Y109.375 E127.38342
G1 X137.659 Y110.789 E127.46807
G1 X109.209 Y82.339 E129.87683
G1 X107.795 Y82.339 E129.96149
G1 X137.659 Y112.203 E132.48997
G1 X137.659 Y113.617 E132.57462
G1 X106.381 Y82.339 E135.22282
G1 X104.967 Y82.339 E135.30747
G1 X137.659 Y115.032 E138.07543
G1 X137.659 Y116.446 E138.16008
G1 X103.552 Y82.339 E141.0478
G1 X102.138 Y82.339 E141.13246
G1 X137.659 Y117.86 E144.1399
G1 X137.659 Y119.274 E144.22455
G1 X100.724 Y82.339 E147.35171
G1 X99.31 Y82.339 E147.43636
G1 X137.659 Y120.688 E150.68323
G1 X137.659 Y122.103 E150.76795
G1 X97.896 Y82.339 E154.13458
G1 X96.481 Y82.339 E154.2193
G1 X137.659 Y123.517 E157.70569
G1 X137.659 Y124.931 E157.79035
G1 X95.067 Y82.339 E161.39646
G1 X93.653 Y82.339 E161.48112
G1 X137.659 Y126.345 E165.20695
G1 X137.659 Y127.76 E165.29166
G1 X92.239 Y82.339 E169.13726
G1 X90.825 Y82.339 E169.22191
G1 X137.659 Y129.174 E173.18722
G1 X137.659 Y130.588 E173.27188
G1 X89.41 Y82.339 E177.35695
G1 X87.996 Y82.339 E177.4416
G1 X137.659 Y132.002 E181.64639
G1 X137.659 Y133.416 E181.73105
G1 X86.582 Y82.339 E186.05556
G1 X85.168 Y82.339 E186.14021
G1 X137.658 Y134.83 E190.5844
G1 X137.651 Y135.026 E190.59614
G1 X137.638 Y135.177 E190.60521
G1 X137.576 Y135.555 E190.62815
G1 X137.566 Y135.591 E190.63038
G1 X137.448 Y135.944 E190.65267
G1 X137.426 Y135.993 E190.65588
G1 X137.419 Y136.005 E190.65671
G1 X83.997 Y82.583 E195.17977
G1 X83.737 Y82.71 E195.19709
G1 X83.707 Y82.73 E195.19925
G1 X83.391 Y82.954 E195.22244
G1 X83.28 Y83.048 E195.23114
G1 X83.16 Y83.16 E195.24097
G1 X136.838 Y136.838 E199.7857
G1 X136.73 Y136.938 E199.79451
G1 X136.601 Y137.049 E199.8047
G1 X136.292 Y137.269 E199.82741
G1 X136.261 Y137.288 E199.82959
G1 X136.001 Y137.415 E199.84691
G1 X82.579 Y83.993 E204.36996
G1 X82.573 Y84.005 E204.37076
G1 X82.55 Y84.055 E204.37406
G1 X82.435 Y84.4 E204.39583
G1 X82.421 Y84.452 E204.39906
G1 X82.36 Y84.821 E204.42145
G1 X82.348 Y84.973 E204.43057
G1 X82.34 Y85.168 E204.44226
G1 X134.831 Y137.659 E208.88649
G1 X133.416 Y137.659 E208.9712
G1 X82.339 Y86.582 E213.29571
G1 X82.339 Y87.996 E213.38036
G1 X132.002 Y137.659 E217.58516
G1 X130.588 Y137.659 E217.66981
G1 X82.339 Y89.41 E221.75488
G1 X82.339 Y90.825 E221.8396
G1 X129.174 Y137.659 E225.80491
G1 X127.76 Y137.659 E225.88956
G1 X82.339 Y92.239 E229.73516
G1 X82.339 Y93.653 E229.81981
G1 X126.345 Y137.659 E233.54564
G1 X124.931 Y137.659 E233.6303
G1 X82.339 Y95.067 E237.23641
G1 X82.339 Y96.481 E237.32107
G1 X123.517 Y137.659 E240.80746
G1 X122.103 Y137.659 E240.89212
G1 X82.339 Y97.896 E244.25875
G1 X82.339 Y99.31 E244.3434
G1 X120.688 Y137.659 E247.59028
G1 X119.274 Y137.659 E247.67493
G1 X82.339 Y100.724 E250.80209
G1 X82.339 Y102.138 E250.88674
G1 X117.86 Y137.659 E253.89418
G1 X116.446 Y137.659 E253.97884
G1 X82.339 Y103.552 E256.86655
G1 X82.339 Y104.967 E256.95127
G1 X115.032 Y137.659 E259.71923
G1 X113.617 Y137.659 E259.80394
G1 X82.339 Y106.381 E262.45214
G1 X82.339 Y107.795 E262.53679
G1 X112.203 Y137.659 E265.06527
G1 X110.789 Y137.659 E265.14993
G1 X82.339 Y109.209 E267.55869
G1 X82.339 Y110.624 E267.6434
G1 X109.375 Y137.659 E269.9324
G1 X107.961 Y137.659 E270.01706
G1 X82.339 Y112.038 E272.18634
G1 X82.339 Y113.452 E272.27099
G1 X106.546 Y137.659 E274.32051
G1 X105.132 Y137.659 E274.40517
G1 X82.339 Y114.866 E276.33497
G1 X82.339 Y116.28 E276.41962
G1 X103.718 Y137.659 E278.22971
G1 X102.304 Y137.659 E278.31436
G1 X82.339 Y117.695 E280.00469
G1 X82.339 Y119.109 E280.08934
G1 X100.889 Y137.659 E281.6599
G1 X99.475 Y137.659 E281.74456
G1 X82.339 Y120.523 E283.1954
G1 X82.339 Y121.937 E283.28006
G1 X98.061 Y137.659 E284.61118
G1 X96.647 Y137.659 E284.69584
G1 X82.339 Y123.351 E285.90724
G1 X82.339 Y124.766 E285.99196
G1 X95.233 Y137.659 E287.0836
G1 X93.818 Y137.659 E287.16832
G1 X82.339 Y126.18 E288.1402
G1 X82.339 Y127.594 E288.22486
G1 X92.404 Y137.659 E289.07703
G1 X90.99 Y137.659 E289.16168
G1 X82.339 Y129.008 E289.89413
G1 X82.339 Y130.423 E289.97884
G1 X89.576 Y137.659 E290.59153
G1 X88.162 Y137.659 E290.67619
G1 X82.339 Y131.837 E291.16916
G1 X82.339 Y133.251 E291.25381
G1 X86.747 Y137.659 E291.62702
G1 X85.333 Y137.659 E291.71167
G1 X82.339 Y134.665 E291.96516
G0 F9000 X82.339 Y134.863
G1 F1125 X82.345 Y135.012 E291.97409
G1 X82.351 Y135.102 E291.97949
G1 X82.398 Y135.448 E292.0004
G1 X82.414 Y135.521 E292.00487
G1 X82.524 Y135.876 E292.02712
G1 X82.536 Y135.905 E292.029
G1 X82.71 Y136.261 E292.05272
G1 X82.729 Y136.291 E292.05485
G1 X82.951 Y136.602 E292.07773
G1 X83.048 Y136.716 E292.08669
G1 X83.167 Y136.844 E292.09715
G1 X83.241 Y136.914 E292.10325
G1 X83.345 Y137.007 E292.1116
G1 X83.622 Y137.215 E292.13234
G1 X83.675 Y137.25 E292.13614
G1 X84.007 Y137.426 E292.15864
G1 X84.055 Y137.448 E292.1618
G1 X84.402 Y137.564 E292.1837
G1 X84.452 Y137.577 E292.1868
G1 X84.821 Y137.638 E292.20919
G1 X84.965 Y137.649 E292.21783
G1 X85.185 Y137.659 E292.23102
G1 X85.333 Y137.659 E292.23988
G0 F300 X85.333 Y137.659 Z0.444
G0 F9000 X83.926 Y137.611
;TIME_ELAPSED:395.190651
;LAYER:-4
;TYPE:SUPPORT-INTERFACE
G1 F1500 X83.976 Y137.633 E292.24097
G1 X84.352 Y137.759 E292.24888
G1 X84.418 Y137.776 E292.25024
G1 X84.796 Y137.839 E292.25789
G1 X84.948 Y137.851 E292.26093
G1 X85.176 Y137.86 E292.26549
G1 X134.858 Y137.86 E293.25694
G1 X135.012 Y137.855 E293.26002
G1 X135.132 Y137.847 E293.26242
G1 X135.495 Y137.796 E293.26973
G1 X135.565 Y137.781 E293.27116
G1 X135.942 Y137.665 E293.27903
G1 X135.994 Y137.644 E293.28015
G1 X136.083 Y137.6 E293.28213
G1 X83.905 Y137.6 E294.3234
G1 X83.562 Y137.417 E294.33116
G1 X83.516 Y137.387 E294.33226
G1 X83.266 Y137.2 E294.33849
G1 X136.733 Y137.2 E295.40548
G1 X136.861 Y137.091 E295.40883
G1 X136.994 Y136.969 E295.41244
G1 X137.072 Y136.886 E295.41471
G1 X137.146 Y136.8 E295.41697
G1 X82.855 Y136.8 E296.50041
G1 X82.791 Y136.724 E296.50239
G1 X82.559 Y136.4 E296.51034
G1 X137.436 Y136.4 E297.60547
G1 X137.612 Y136.07 E297.61294
G1 X137.638 Y136.011 E297.61422
G1 X137.641 Y136 E297.61445
G1 X82.357 Y136 E298.7177
G1 X82.355 Y135.994 E298.71783
G1 X82.334 Y135.942 E298.71895
G1 X82.228 Y135.6 E298.72609
G1 X137.771 Y135.6 E299.83452
G1 X137.775 Y135.584 E299.83484
G1 X137.839 Y135.203 E299.84255
G0 F9000 X137.839 Y135.2
G1 F1500 X82.161 Y135.2 E300.95367
G1 X82.152 Y135.129 E300.9551
G1 X82.144 Y135.011 E300.95746
G1 X82.139 Y134.864 E300.96039
G1 X82.139 Y134.8 E300.96167
G1 X137.86 Y134.8 E302.07364
G1 X137.86 Y134.4 E302.08162
G1 X82.139 Y134.4 E303.1936
G1 X82.139 Y134 E303.20158
G1 X137.86 Y134 E304.31355
G1 X137.86 Y133.6 E304.32154
G1 X82.139 Y133.6 E305.43351
G1 X82.139 Y133.2 E305.44149
G1 X137.86 Y133.2 E306.55346
G1 X137.86 Y132.8 E306.56145
G1 X82.139 Y132.8 E307.67342
G1 X82.139 Y132.4 E307.6814
G1 X137.86 Y132.4 E308.79337
G1 X137.86 Y132 E308.80136
G1 X82.139 Y132 E309.91333
G1 X82.139 Y131.6 E309.92131
G1 X137.86 Y131.6 E311.03328
G1 X137.86 Y131.2 E311.04127
G1 X82.139 Y131.2 E312.15324
G1 X82.139 Y130.8 E312.16122
G1 X137.86 Y130.8 E313.27319
G1 X137.86 Y130.4 E313.28118
G1 X82.139 Y130.4 E314.39315
G1 X82.139 Y130 E314.40113
G1 X137.86 Y130 E315.51311
G1 X137.86 Y129.6 E315.52109
G1 X82.139 Y129.6 E316.63306
G1 X82.139 Y129.2 E316.64104
G1 X137.86 Y129.2 E317.75302
G1 X137.86 Y128.8 E317.761
G1 X82.139 Y128.8 E318.87297
G1 X82.139 Y128.4 E318.88095
G1 X137.86 Y128.4 E319.99293
G1 X137.86 Y128 E320.00091
G1 X82.139 Y128 E321.11288
G1 X82.139 Y127.6 E321.12086
G1 X137.86 Y127.6 E322.23284
G1 X137.86 Y127.2 E322.24082
G1 X82.139 Y127.2 E323.35279
G1 X82.139 Y126.8 E323.36077
G1 X137.86 Y126.8 E324.47275
G1 X137.86 Y126.4 E324.48073
G1 X82.139 Y126.4 E325.5927
G1 X82.139 Y126 E325.60068
G1 X137.86 Y126 E326.71266
G1 X137.86 Y125.6 E326.72064
G1 X82.139 Y125.6 E327.83261
G1 X82.139 Y125.2 E327.84059
G1 X137.86 Y125.2 E328.95257
G1 X137.86 Y124.8 E328.96055
G1 X82.139 Y124.8 E330.07252
G1 X82.139 Y124.4 E330.08051
G1 X137.86 Y124.4 E331.19248
G1 X137.86 Y124 E331.20046
G1 X82.139 Y124 E332.31243
G1 X82.139 Y123.6 E332.32042
G1 X137.86 Y123.6 E333.43239
G1 X137.86 Y123.2 E333.44037
G1 X82.139 Y123.2 E334.55234
G1 X82.139 Y122.8 E334.56033
G1 X137.86 Y122.8 E335.6723
G1 X137.86 Y122.4 E335.68028
G1 X82.139 Y122.4 E336.79225
G1 X82.139 Y122 E336.80024
G1 X137.86 Y122 E337.91221
G1 X137.86 Y121.6 E337.92019
G1 X82.139 Y121.6 E339.03216
G1 X82.139 Y121.2 E339.04015
G1 X137.86 Y121.2 E340.15212
G1 X137.86 Y120.8 E340.1601
G1 X82.139 Y120.8 E341.27208
G1 X82.139 Y120.4 E341.28006
G1 X137.86 Y120.4 E342.39203
G1 X137.86 Y120 E342.40001
G1 X82.139 Y120 E343.51199
G1 X82.139 Y119.6 E343.51997
G1 X137.86 Y119.6 E344.63194
G1 X137.86 Y119.2 E344.63992
G1 X82.139 Y119.2 E345.7519
G1 X82.14 Y118.8 E345.75988
G1 X137.86 Y118.8 E346.87183
G1 X137.86 Y118.4 E346.87981
G1 X82.14 Y118.4 E347.99177
G1 X82.14 Y118 E347.99975
G1 X137.86 Y118 E349.1117
G1 X137.86 Y117.6 E349.11968
G1 X82.14 Y117.6 E350.23164
