;FLAVOR:Marlin
;TIME:28980
;Filament used: 14.711m
;Layer height: 0.12
;MINX:51.8
;MINY:74.335
;MINZ:0.144
;MAXX:140.592
;MAXY:144.8
;MAXZ:30.639
;Generated with Cura_SteamEngine 4.11.0
M140 S50
M105
M190 S50
M104 S200
M105
M109 S200
M82 ;absolute extrusion mode
; Ender 3 Custom Start G-code
G92 E0 ; Reset Extruder
G28 ; Home all axes
G1 Z2.0 F3000 ; Move Z Axis up little to prevent scratching of Heat Bed
G1 X0.1 Y20 Z0.3 F5000.0 ; Move to start position
G1 X0.1 Y200.0 Z0.3 F1500.0 E15 ; Draw the first line
G1 X0.4 Y200.0 Z0.3 F5000.0 ; Move to side a little
G1 X0.4 Y20 Z0.3 F1500.0 E30 ; Draw the second line
G92 E0 ; Reset Extruder
G1 Z2.0 F3000 ; Move Z Axis up little to prevent scratching of Heat Bed
G1 X5 Y20 Z0.3 F5000.0 ; Move over to prevent blob squish
G92 E0
G92 E0
G1 F2700 E-5
;LAYER_COUNT:250
;LAYER:-6
M107
G0 F9000 X59.992 Y82.955 Z0.144
;TYPE:SUPPORT-INTERFACE
G1 F2700 E0
G1 F600 X60.308 Y82.73 E0.01858
G1 X60.338 Y82.711 E0.02028
G1 X60.693 Y82.536 E0.03924
G1 X60.722 Y82.524 E0.04074
G1 X61.078 Y82.415 E0.05857
G1 X61.15 Y82.4 E0.06209
G1 X61.496 Y82.351 E0.07883
G1 X61.748 Y82.34 E0.09091
G1 X111.415 Y82.34 E2.46969
G1 X111.778 Y82.361 E2.48711
G1 X112.147 Y82.422 E2.50502
G1 X112.198 Y82.435 E2.50754
G1 X112.544 Y82.551 E2.52502
G1 X112.593 Y82.573 E2.52759
G1 X112.925 Y82.749 E2.54559
G1 X112.976 Y82.783 E2.54852
G1 X113.262 Y82.998 E2.56566
G1 X113.551 Y83.282 E2.58507
G1 X113.645 Y83.392 E2.592
G1 X113.87 Y83.708 E2.61058
G1 X113.889 Y83.738 E2.61228
G1 X114.064 Y84.093 E2.63123
G1 X114.076 Y84.122 E2.63274
G1 X114.185 Y84.477 E2.65052
G1 X114.2 Y84.55 E2.65409
G1 X114.249 Y84.896 E2.67083
G1 X114.26 Y85.136 E2.68234
G1 X114.26 Y87.314 E2.78665
G1 X114.302 Y87.982 E2.81871
G1 X114.431 Y88.653 E2.85143
G1 X114.644 Y89.302 E2.88415
G1 X114.936 Y89.919 E2.91684
G1 X115.304 Y90.494 E2.94954
G1 X115.742 Y91.018 E2.98225
G1 X116.242 Y91.482 E3.01492
G1 X116.798 Y91.881 E3.04769
G1 X117.398 Y92.205 E3.08035
G1 X118.034 Y92.451 E3.11301
G1 X118.698 Y92.615 E3.14577
G1 X119.376 Y92.694 E3.17846
G1 X120.059 Y92.687 E3.21118
G1 X120.735 Y92.594 E3.24386
G1 X121.394 Y92.416 E3.27655
G1 X122.025 Y92.156 E3.30924
G1 X122.619 Y91.819 E3.34195
G1 X123.14 Y91.43 E3.37309
G1 X123.54 Y91.091 E3.3982
G1 X123.574 Y91.067 E3.40019
G1 X123.89 Y90.877 E3.41785
G1 X123.915 Y90.865 E3.41918
G1 X124.317 Y90.711 E3.4398
G1 X124.779 Y90.596 E3.4626
G1 X125.09 Y90.561 E3.47759
G1 X125.437 Y90.543 E3.49423
G1 X125.806 Y90.552 E3.51191
G1 X126.073 Y90.578 E3.52476
G1 X126.405 Y90.633 E3.54088
G1 X126.786 Y90.737 E3.55979
G1 X126.827 Y90.752 E3.56188
G1 X127.164 Y90.907 E3.57965
G1 X127.408 Y91.06 E3.59344
G1 X127.753 Y91.361 E3.61537
G1 X127.988 Y91.606 E3.63163
G1 X128.081 Y91.728 E3.63898
G1 X128.287 Y92.049 E3.65725
G1 X128.315 Y92.1 E3.66003
G1 X128.459 Y92.433 E3.67741
G1 X128.538 Y92.702 E3.69084
G1 X128.597 Y93.175 E3.71367
G1 X128.614 Y93.453 E3.72701
G1 X128.614 Y95.096 E3.8057
G1 X128.656 Y95.764 E3.83775
G1 X128.785 Y96.435 E3.87048
G1 X128.998 Y97.084 E3.90319
G1 X129.29 Y97.701 E3.93589
G1 X129.658 Y98.276 E3.96858
G1 X130.096 Y98.8 E4.00129
G1 X130.596 Y99.264 E4.03396
G1 X130.995 Y99.551 E4.0575
G1 X131.164 Y99.669 E4.06738
G1 X138.068 Y103.656 E4.44922
G1 X138.368 Y103.853 E4.46641
G1 X138.67 Y104.102 E4.48515
G1 X138.949 Y104.425 E4.5056
G1 X139.149 Y104.713 E4.52239
G1 X139.27 Y104.954 E4.53531
G1 X139.407 Y105.309 E4.55353
G1 X139.493 Y105.744 E4.57477
G1 X139.528 Y106.201 E4.59672
G1 X139.528 Y113.811 E4.9612
G1 X139.507 Y114.174 E4.97861
G1 X139.447 Y114.54 E4.99638
G1 X139.44 Y114.566 E4.99767
G1 X139.302 Y114.961 E5.0177
G1 X139.13 Y115.318 E5.03668
G1 X138.986 Y115.531 E5.049
G1 X138.738 Y115.829 E5.06757
G1 X138.716 Y115.852 E5.06909
G1 X138.412 Y116.111 E5.08822
G1 X138.054 Y116.352 E5.10889
G1 X131.466 Y120.156 E5.47324
G1 X131.136 Y120.322 E5.49093
G1 X130.795 Y120.45 E5.50838
G1 X130.761 Y120.46 E5.51007
G1 X130.36 Y120.537 E5.52963
G1 X129.986 Y120.565 E5.54759
G1 X129.711 Y120.548 E5.56079
G1 X129.342 Y120.487 E5.5787
G1 X129.318 Y120.481 E5.57989
G1 X128.919 Y120.342 E5.60012
G1 X128.752 Y120.266 E5.60891
G1 X128.515 Y120.145 E5.62166
G1 X122.349 Y116.584 E5.96269
G1 X121.749 Y116.286 E5.99477
G1 X121.104 Y116.063 E6.02746
G1 X120.435 Y115.922 E6.0602
G1 X119.755 Y115.867 E6.09288
G1 X119.073 Y115.899 E6.12558
G1 X118.401 Y116.015 E6.15824
G1 X117.748 Y116.216 E6.19096
G1 X117.126 Y116.498 E6.22367
G1 X116.545 Y116.855 E6.25633
G1 X116.012 Y117.283 E6.28907
G1 X115.539 Y117.776 E6.32179
G1 X115.132 Y118.323 E6.35445
G1 X114.796 Y118.919 E6.38722
G1 X114.539 Y119.551 E6.41989
G1 X114.364 Y120.211 E6.4526
G1 X114.273 Y120.882 E6.48503
G1 X114.26 Y121.26 E6.50314
G1 X114.26 Y134.815 E7.15235
G1 X114.239 Y135.178 E7.16977
G1 X114.177 Y135.555 E7.18807
G1 X114.168 Y135.591 E7.18985
G1 X114.049 Y135.944 E7.20769
G1 X114.027 Y135.993 E7.21026
G1 X113.851 Y136.325 E7.22826
G1 X113.817 Y136.376 E7.23119
G1 X113.607 Y136.656 E7.24796
G1 X113.331 Y136.939 E7.26689
G1 X113.201 Y137.05 E7.27508
G1 X112.892 Y137.27 E7.29324
G1 X112.862 Y137.289 E7.29494
G1 X112.507 Y137.464 E7.3139
G1 X112.478 Y137.476 E7.3154
G1 X112.122 Y137.585 E7.33323
G1 X112.05 Y137.6 E7.33676
G1 X111.704 Y137.649 E7.35349
G1 X111.452 Y137.66 E7.36557
G1 X61.785 Y137.66 E9.74436
G1 X61.422 Y137.639 E9.76177
G1 X61.053 Y137.578 E9.77968
G1 X61.002 Y137.565 E9.7822
G1 X60.656 Y137.449 E9.79968
G1 X60.607 Y137.427 E9.80225
G1 X60.275 Y137.251 E9.82025
G1 X60.222 Y137.216 E9.82329
G1 X59.945 Y137.008 E9.83988
G1 X59.649 Y136.718 E9.85973
G1 X59.551 Y136.603 E9.86697
G1 X59.33 Y136.292 E9.88524
G1 X59.311 Y136.262 E9.88694
G1 X59.136 Y135.907 E9.9059
G1 X59.124 Y135.878 E9.9074
G1 X59.015 Y135.522 E9.92523
G1 X58.999 Y135.449 E9.92881
G1 X58.951 Y135.103 E9.94554
G1 X58.94 Y134.864 E9.957
G1 X58.94 Y85.175 E12.33684
G1 X58.961 Y84.822 E12.35377
G1 X59.022 Y84.453 E12.37169
G1 X59.035 Y84.402 E12.37421
G1 X59.151 Y84.056 E12.39168
G1 X59.173 Y84.007 E12.39426
G1 X59.349 Y83.675 E12.41225
G1 X59.383 Y83.624 E12.41519
G1 X59.598 Y83.338 E12.43233
G1 X59.882 Y83.05 E12.4517
G1 X59.992 Y82.955 E12.45866
G0 F9000 X60.8 Y82.5
G1 F600 X60.8 Y137.497 E15.09272
G0 F9000 X62.4 Y137.66
G1 F600 X62.4 Y82.34 E17.74225
G0 F9000 X64 Y82.34
G1 F600 X64 Y137.66 E20.39178
G0 F9000 X65.6 Y137.66
G1 F600 X65.6 Y82.34 E23.04131
G0 F9000 X67.2 Y82.34
G1 F600 X67.2 Y137.66 E25.69083
G0 F9000 X68.8 Y137.66
G1 F600 X68.8 Y82.34 E28.34036
G0 F9000 X70.4 Y82.34
G1 F600 X70.4 Y137.66 E30.98989
G0 F9000 X72 Y137.66
G1 F600 X72 Y82.34 E33.63942
G0 F9000 X73.6 Y82.34
G1 F600 X73.6 Y137.66 E36.28895
G0 F9000 X75.2 Y137.66
G1 F600 X75.2 Y82.34 E38.93848
G0 F9000 X76.8 Y82.34
G1 F600 X76.8 Y137.66 E41.58801
G0 F9000 X78.4 Y137.66
G1 F600 X78.4 Y82.34 E44.23754
G0 F9000 X80 Y82.34
G1 F600 X80 Y137.66 E46.88707
G0 F9000 X81.6 Y137.66
G1 F600 X81.6 Y82.34 E49.5366
G0 F9000 X83.2 Y82.34
G1 F600 X83.2 Y137.66 E52.18612
G0 F9000 X84.8 Y137.66
G1 F600 X84.8 Y82.34 E54.83565
G0 F9000 X86.4 Y82.34
G1 F600 X86.4 Y137.66 E57.48518
G0 F9000 X88 Y137.66
G1 F600 X88 Y82.34 E60.13471
G0 F9000 X89.6 Y82.34
G1 F600 X89.6 Y137.66 E62.78424
G0 F9000 X91.2 Y137.66
G1 F600 X91.2 Y82.34 E65.43377
G0 F9000 X92.8 Y82.34
G1 F600 X92.8 Y137.66 E68.0833
G0 F9000 X94.4 Y137.66
G1 F600 X94.4 Y82.34 E70.73283
G0 F9000 X96 Y82.34
G1 F600 X96 Y137.66 E73.38236
G0 F9000 X97.6 Y137.66
G1 F600 X97.6 Y82.34 E76.03188
G0 F9000 X99.2 Y82.34
G1 F600 X99.2 Y137.66 E78.68141
G0 F9000 X100.8 Y137.66
G1 F600 X100.8 Y82.34 E81.33094
G0 F9000 X102.4 Y82.34
G1 F600 X102.4 Y137.66 E83.98047
G0 F9000 X104 Y137.66
G1 F600 X104 Y82.34 E86.63
G0 F9000 X105.6 Y82.34
G1 F600 X105.6 Y137.66 E89.27953
G0 F9000 X107.2 Y137.66
G1 F600 X107.2 Y82.34 E91.92906
G0 F9000 X108.8 Y82.34
G1 F600 X108.8 Y137.66 E94.57859
G0 F9000 X110.4 Y137.66
G1 F600 X110.4 Y82.34 E97.22812
G0 F9000 X112 Y82.398
G1 F600 X112 Y137.608 E99.87238
G0 F9000 X113.6 Y136.664
G1 F600 X113.6 Y83.34 E102.42631
G1 F2700 E97.42631
G0 F9000 X114.761 Y83.124
G0 X115.082 Y83.774
G0 X115.264 Y84.593
G0 X115.869 Y89.401
G0 X115.2 Y90.332
G1 F2700 E102.42631
G1 F600 X115.2 Y118.232 E103.76257
G0 F9000 X116.8 Y116.699
G1 F600 X116.8 Y91.883 E104.95112
G0 F9000 X118.4 Y92.542
G1 F600 X118.4 Y116.016 E106.0754
G0 F9000 X120 Y115.886
G1 F600 X120 Y92.687 E107.1865
G0 F9000 X121.6 Y92.331
G1 F600 X121.6 Y116.234 E108.33133
G0 F9000 X123.2 Y117.075
G1 F600 X123.2 Y91.379 E109.56203
G0 F9000 X124.8 Y90.593
G1 F600 X124.8 Y117.999 E110.87463
G0 F9000 X126.4 Y118.923
G1 F600 X126.4 Y90.633 E112.22957
G0 F9000 X128 Y91.622
G1 F600 X128 Y119.847 E113.58139
G0 F9000 X129.6 Y120.529
G1 F600 X129.6 Y98.186 E114.6515
G0 F9000 X131.2 Y99.69
G1 F600 X131.2 Y120.29 E115.63813
G0 F9000 X132.8 Y119.386
G1 F600 X132.8 Y100.614 E116.53721
G0 F9000 X134.4 Y101.538
G1 F600 X134.4 Y118.462 E117.34777
G0 F9000 X136 Y117.539
G1 F600 X136 Y102.462 E118.06988
G0 F9000 X137.6 Y103.386
G1 F600 X137.6 Y116.615 E118.70348
G0 F9000 X139.2 Y115.173
G1 F600 X139.2 Y104.815 E119.19957
G1 F2700 E114.19957
G0 F9000 X139.94 Y103.978
G0 X128.474 Y90.576
G0 X127.798 Y90.044
G0 X112.933 Y81.559
G0 X111.91 Y81.303
G0 X61.386 Y81.292
G0 X60.374 Y81.518
G0 X59.724 Y81.839
G0 X58.888 Y82.534
G0 X58.259 Y83.458
G0 X59.2 Y83.956
G1 F2700 E119.19957
G1 F600 X59.2 Y136.036 E121.69392
G0 F300 X59.2 Y136.036 Z0.324
G0 F9000 X58.998 Y135.448
;TIME_ELAPSED:266.191082
;LAYER:-5
;TYPE:SUPPORT
G1 F1125 X59.015 Y135.521 E121.69841
G1 X59.124 Y135.877 E121.7207
G1 X59.136 Y135.906 E121.72258
G1 X59.31 Y136.26 E121.74619
G1 X59.329 Y136.291 E121.74837
G1 X59.551 Y136.601 E121.7712
G1 X59.648 Y136.717 E121.78025
G1 X59.766 Y136.845 E121.79067
G1 X59.841 Y136.915 E121.79681
G1 X59.944 Y137.006 E121.80504
G1 X60.222 Y137.214 E121.82583
G1 X60.274 Y137.25 E121.82961
G1 X60.607 Y137.426 E121.85216
G1 X60.656 Y137.448 E121.85538
G1 X61.002 Y137.564 E121.87723
G1 X61.053 Y137.577 E121.88038
G1 X61.24 Y137.607 E121.89172
G1 X58.985 Y135.352 E122.08264
G1 X58.95 Y135.101 E122.09781
G1 X58.945 Y135.012 E122.10315
G1 X58.94 Y134.863 E122.11207
G1 X58.94 Y133.893 E122.17015
G1 X62.705 Y137.658 E122.48892
G1 X64.119 Y137.658 E122.57357
G1 X58.94 Y132.479 E123.01206
G1 X58.94 Y131.065 E123.09671
G1 X65.533 Y137.658 E123.65492
G1 X66.948 Y137.658 E123.73963
G1 X58.94 Y129.65 E124.41764
G1 X58.94 Y128.236 E124.50229
G1 X68.362 Y137.658 E125.30002
G1 X69.776 Y137.658 E125.38467
G1 X58.94 Y126.822 E126.30212
G1 X58.94 Y125.408 E126.38677
G1 X71.19 Y137.658 E127.42394
G1 X72.605 Y137.658 E127.50865
G1 X58.94 Y123.994 E128.66558
G1 X58.94 Y122.579 E128.75029
G1 X74.019 Y137.658 E130.02698
G1 X75.433 Y137.658 E130.11163
G1 X58.94 Y121.165 E131.50803
G1 X58.94 Y119.751 E131.59269
G1 X76.847 Y137.658 E133.10881
G1 X78.261 Y137.658 E133.19346
G1 X58.94 Y118.337 E134.82931
G1 X58.94 Y116.922 E134.91402
G1 X79.676 Y137.658 E136.66966
G1 X81.09 Y137.658 E136.75432
G1 X58.94 Y115.508 E138.62968
G1 X58.94 Y114.094 E138.71433
G1 X82.504 Y137.658 E140.70941
G1 X83.918 Y137.658 E140.79407
G1 X58.94 Y112.68 E142.90887
G1 X58.94 Y111.266 E142.99352
G1 X85.332 Y137.658 E145.22804
G1 X86.747 Y137.658 E145.31275
G1 X58.94 Y109.851 E147.66707
G1 X58.94 Y108.437 E147.75173
G1 X88.161 Y137.658 E150.22577
G1 X89.575 Y137.658 E150.31042
G1 X58.94 Y107.023 E152.90418
G1 X58.94 Y105.609 E152.98883
G1 X90.989 Y137.658 E155.70231
G1 X92.404 Y137.658 E155.78702
G1 X58.94 Y104.195 E158.62026
G1 X58.94 Y102.78 E158.70497
G1 X93.818 Y137.658 E161.65797
G1 X95.232 Y137.658 E161.74262
G1 X58.94 Y101.366 E164.81534
G1 X58.94 Y99.952 E164.89999
G1 X96.646 Y137.658 E168.09243
G1 X98.06 Y137.658 E168.17708
G1 X58.94 Y98.538 E171.48923
G1 X58.94 Y97.123 E171.57395
G1 X99.475 Y137.658 E175.0059
G1 X100.889 Y137.658 E175.09056
G1 X58.94 Y95.709 E178.64223
G1 X58.94 Y94.295 E178.72688
G1 X102.303 Y137.658 E182.39828
G1 X103.717 Y137.658 E182.48293
G1 X58.94 Y92.881 E186.27404
G1 X58.94 Y91.467 E186.35869
G1 X105.131 Y137.658 E190.26952
G1 X106.546 Y137.658 E190.35424
G1 X58.94 Y90.052 E194.38487
G1 X58.94 Y88.638 E194.46952
G1 X107.96 Y137.658 E198.61987
G1 X109.374 Y137.658 E198.70453
G1 X58.94 Y87.224 E202.9746
G1 X58.94 Y85.81 E203.05925
G1 X110.788 Y137.658 E207.44904
G1 X111.452 Y137.658 E207.48879
G1 X111.613 Y137.654 E207.49843
G1 X111.704 Y137.648 E207.50389
G1 X112.05 Y137.599 E207.52481
G1 X112.121 Y137.584 E207.52916
G1 X112.126 Y137.582 E207.52948
G1 X59.017 Y84.473 E212.02603
G1 X59.022 Y84.452 E212.02733
G1 X59.034 Y84.401 E212.03046
G1 X59.15 Y84.055 E212.05231
G1 X59.172 Y84.006 E212.05553
G1 X59.348 Y83.674 E212.07802
G1 X59.383 Y83.623 E212.08173
G1 X59.468 Y83.51 E212.09019
G1 X113.087 Y137.129 E216.62992
G1 X113.201 Y137.049 E216.63826
G1 X113.33 Y136.938 E216.64845
G1 X113.446 Y136.83 E216.65794
G1 X113.606 Y136.655 E216.67213
G1 X113.787 Y136.415 E216.69013
G1 X60.188 Y82.815 E221.22821
G1 X60.308 Y82.729 E221.23705
G1 X60.337 Y82.71 E221.23913
G1 X60.693 Y82.535 E221.26287
G1 X60.722 Y82.523 E221.26475
G1 X61.077 Y82.414 E221.28699
G1 X61.149 Y82.399 E221.29139
G1 X61.182 Y82.395 E221.29338
G1 X114.2 Y135.413 E225.78223
G1 X114.238 Y135.177 E225.79654
G1 X114.252 Y135.025 E225.80568
G1 X114.259 Y134.814 E225.81831
G1 X114.259 Y134.058 E225.86358
G1 X62.54 Y82.339 E230.24244
G1 X63.954 Y82.339 E230.32709
G1 X114.259 Y132.644 E234.58624
G1 X114.259 Y131.23 E234.6709
G1 X65.369 Y82.339 E238.81028
G1 X66.783 Y82.339 E238.89494
G1 X114.259 Y129.816 E242.9146
G1 X114.259 Y128.402 E242.99926
G1 X68.197 Y82.339 E246.89921
G1 X69.611 Y82.339 E246.98386
G1 X114.259 Y126.987 E250.76405
G1 X114.259 Y125.573 E250.8487
G1 X71.026 Y82.339 E254.50913
G1 X72.44 Y82.339 E254.59379
G1 X114.259 Y124.159 E258.1345
G1 X114.259 Y122.745 E258.21915
G1 X73.854 Y82.339 E261.64014
G1 X75.268 Y82.339 E261.7248
G1 X114.259 Y121.331 E265.02607
G1 X114.259 Y121.258 E265.03044
G1 X114.272 Y120.881 E265.05302
G1 X114.363 Y120.21 E265.09356
G1 X114.404 Y120.061 E265.10281
G1 X76.682 Y82.339 E268.2966
G1 X78.097 Y82.339 E268.38132
G1 X114.761 Y119.003 E271.48553
G1 X114.795 Y118.918 E271.49101
G1 X115.131 Y118.322 E271.53197
G1 X115.286 Y118.115 E271.54745
G1 X79.511 Y82.339 E274.57644
G1 X80.925 Y82.339 E274.66109
G1 X115.942 Y117.356 E277.62586
G1 X116.012 Y117.282 E277.63196
G1 X116.544 Y116.854 E277.67283
G1 X116.736 Y116.736 E277.68633
G1 X82.339 Y82.339 E280.5986
G1 X83.753 Y82.339 E280.68325
G1 X117.666 Y116.251 E283.5545
G1 X117.747 Y116.215 E283.55981
G1 X118.4 Y116.015 E283.6007
G1 X118.777 Y115.949 E283.62361
G1 X85.168 Y82.339 E286.46921
G1 X86.582 Y82.339 E286.55386
G1 X120.14 Y115.897 E289.3951
G1 X120.434 Y115.921 E289.41276
G1 X121.103 Y116.063 E289.4537
G1 X121.748 Y116.286 E289.49456
G1 X122.135 Y116.478 E289.52043
G1 X87.996 Y82.339 E292.41085
G1 X89.41 Y82.339 E292.49551
G1 X125.441 Y118.37 E295.54613
G1 X128.514 Y120.145 E295.75859
G1 X128.751 Y120.266 E295.77452
G1 X90.825 Y82.339 E298.98562
G1 X92.239 Y82.339 E299.07027
G1 X130.423 Y120.524 E302.30322
G1 X130.76 Y120.46 E302.32376
G1 X130.794 Y120.449 E302.3259
G1 X131.135 Y120.321 E302.3477
G1 X131.272 Y120.256 E302.35678
G1 X131.465 Y120.155 E302.36982
G0 F9000 X131.467 Y120.153
G1 F1125 X93.653 Y82.339 E305.5714
G1 X95.067 Y82.339 E305.65606
G1 X132.364 Y119.636 E308.81386
G1 X133.26 Y119.118 E308.87582
G1 X96.481 Y82.339 E311.98977
G1 X97.896 Y82.339 E312.07448
G1 X134.157 Y118.6 E315.14458
G1 X135.053 Y118.083 E315.20651
G1 X99.31 Y82.339 E318.23278
G1 X100.724 Y82.339 E318.31744
G1 X135.95 Y117.565 E321.2999
G1 X136.847 Y117.048 E321.36188
G1 X102.138 Y82.339 E324.30057
G1 X103.552 Y82.339 E324.38522
G1 X137.743 Y116.53 E327.28006
G1 X138.053 Y116.352 E327.30146
G1 X138.247 Y116.227 E327.31527
G1 X138.411 Y116.11 E327.32733
G1 X138.587 Y115.959 E327.34122
G1 X104.967 Y82.339 E330.1877
G1 X106.381 Y82.339 E330.27236
G1 X139.208 Y115.166 E333.0517
G1 X139.301 Y114.961 E333.06518
G1 X139.439 Y114.566 E333.09023
G1 X139.445 Y114.539 E333.09189
G1 X139.506 Y114.173 E333.1141
G1 X139.516 Y114.06 E333.12089
G1 X117.828 Y92.372 E334.95714
G1 X118.033 Y92.451 E334.97029
G1 X118.697 Y92.614 E335.01122
