;FLAVOR:Marlin
;TIME:11485
;Filament used: 5.93297m
;Layer height: 0.12
;MINX:74.983
;MINY:81.029
;MINZ:0.144
;MAXX:144.928
;MAXY:161.934
;MAXZ:10.599
;Generated with Cura_SteamEngine 4.11.0
M140 S50
M105
M190 S50
M104 S200
M105
M109 S200
M82 ;absolute extrusion mode
; Ender 3 Custom Start G-code
G92 E0 ; Reset Extruder
G28 ; Home all axes
G1 Z2.0 F3000 ; Move Z Axis up little to prevent scratching of Heat Bed
G1 X0.1 Y20 Z0.3 F5000.0 ; Move to start position
G1 X0.1 Y200.0 Z0.3 F1500.0 E15 ; Draw the first line
G1 X0.4 Y200.0 Z0.3 F5000.0 ; Move to side a little
G1 X0.4 Y20 Z0.3 F1500.0 E30 ; Draw the second line
G92 E0 ; Reset Extruder
G1 Z2.0 F3000 ; Move Z Axis up little to prevent scratching of Heat Bed
G1 X5 Y20 Z0.3 F5000.0 ; Move over to prevent blob squish
G92 E0
G92 E0
G1 F2700 E-5
;LAYER_COUNT:83
;LAYER:-6
M107
G0 F9000 X89.638 Y86.172 Z0.144
;TYPE:SUPPORT-INTERFACE
G1 F2700 E0
G1 F600 X90.92 Y84.954 E0.08469
G1 X91.18 Y84.729 E0.10116
G1 X91.429 Y84.554 E0.11574
G1 X92.958 Y83.581 E0.20254
G1 X93.18 Y83.451 E0.21486
G1 X93.43 Y83.333 E0.2281
G1 X93.552 Y83.283 E0.23442
G1 X95.163 Y82.652 E0.31728
G1 X95.479 Y82.544 E0.33328
G1 X95.823 Y82.463 E0.3502
G1 X97.563 Y82.148 E0.43489
G1 X97.908 Y82.103 E0.45156
G1 X98.236 Y82.091 E0.46728
G1 X99.995 Y82.119 E0.55153
G1 X100.271 Y82.132 E0.56477
G1 X100.543 Y82.169 E0.57792
G1 X100.675 Y82.193 E0.58434
G1 X102.402 Y82.56 E0.6689
G1 X102.688 Y82.632 E0.68303
G1 X103.048 Y82.764 E0.70139
G1 X104.7 Y83.471 E0.78746
G1 X104.833 Y83.53 E0.79442
G1 X106.256 Y84.18 E0.86935
G1 X106.949 Y84.438 E0.90477
G1 X107.944 Y84.731 E0.95445
G1 X108.673 Y84.89 E0.99018
G1 X109.676 Y85.034 E1.03871
G1 X110.416 Y85.087 E1.07425
G1 X111.439 Y85.087 E1.12324
G1 X112.183 Y85.034 E1.15897
G1 X113.215 Y84.885 E1.20891
G1 X113.942 Y84.726 E1.24455
G1 X114.916 Y84.439 E1.29318
G1 X115.606 Y84.181 E1.32846
G1 X117.044 Y83.525 E1.40416
G1 X117.161 Y83.473 E1.4103
G1 X118.815 Y82.765 E1.49647
G1 X119.079 Y82.663 E1.51002
G1 X119.331 Y82.592 E1.52256
G1 X119.465 Y82.56 E1.52916
G1 X121.192 Y82.193 E1.61372
G1 X121.481 Y82.144 E1.62776
G1 X121.872 Y82.119 E1.64652
G1 X123.631 Y82.091 E1.73078
G1 X123.959 Y82.103 E1.7465
G1 X124.304 Y82.148 E1.76316
G1 X126.044 Y82.463 E1.84786
G1 X126.296 Y82.517 E1.8602
G1 X126.548 Y82.596 E1.87285
G1 X126.704 Y82.653 E1.8808
G1 X128.315 Y83.282 E1.96363
G1 X128.619 Y83.417 E1.97956
G1 X128.895 Y83.573 E1.99475
G1 X130.427 Y84.546 E2.08167
G1 X130.66 Y84.708 E2.09526
G1 X130.867 Y84.881 E2.10818
G1 X130.917 Y84.926 E2.1114
G1 X132.245 Y86.19 E2.19921
G1 X132.439 Y86.389 E2.21252
G1 X132.534 Y86.501 E2.21956
G1 X134.927 Y89.482 E2.40264
G1 X135.021 Y89.611 E2.41029
G1 X137.137 Y92.671 E2.58847
G1 X137.276 Y92.891 E2.60094
G1 X139.118 Y96.022 E2.77492
G1 X139.298 Y96.353 E2.79297
G1 X140.902 Y99.589 E2.96595
G1 X141.002 Y99.808 E2.97748
G1 X142.344 Y103.093 E3.14744
G1 X142.457 Y103.421 E3.16405
G1 X142.545 Y103.805 E3.18292
G1 X142.55 Y103.841 E3.18466
G1 X142.573 Y104.211 E3.20242
G1 X142.571 Y104.276 E3.20553
G1 X142.536 Y104.629 E3.22252
G1 X142.518 Y104.725 E3.2272
G1 X142.443 Y105.023 E3.24192
G1 X142.333 Y105.307 E3.2565
G1 X142.259 Y105.463 E3.26477
G1 X142.07 Y105.792 E3.28294
G1 X142.048 Y105.823 E3.28476
G1 X141.807 Y106.118 E3.30301
G1 X141.765 Y106.16 E3.30585
G1 X141.507 Y106.387 E3.32231
G1 X141.417 Y106.454 E3.32769
G1 X141.156 Y106.625 E3.34263
G1 X141.053 Y106.68 E3.34822
G1 X140.714 Y106.853 E3.36645
G1 X140.19 Y107.128 E3.39479
G1 X140.059 Y107.207 E3.40212
G1 X139.522 Y107.598 E3.43394
G1 X139.277 Y107.763 E3.44808
G1 X138.692 Y108.201 E3.48308
G1 X137.784 Y108.987 E3.5406
G1 X137.271 Y109.5 E3.57535
G1 X136.54 Y110.337 E3.62857
G1 X136.097 Y110.923 E3.66376
G1 X135.456 Y111.911 E3.72016
G1 X135.102 Y112.548 E3.75507
G1 X134.61 Y113.605 E3.81091
G1 X134.351 Y114.281 E3.84558
G1 X134.019 Y115.369 E3.90006
G1 X133.851 Y116.113 E3.93659
G1 X133.681 Y117.236 E3.99099
G1 X133.623 Y117.948 E4.0252
G1 X133.613 Y118.799 E4.06597
G1 X133.61 Y118.86 E4.06889
G1 X133.647 Y119.812 E4.11452
G1 X133.807 Y121.025 E4.17312
G1 X133.956 Y121.75 E4.20857
G1 X134.277 Y122.892 E4.26538
G1 X134.537 Y123.609 E4.30191
G1 X135.015 Y124.677 E4.35795
G1 X135.364 Y125.33 E4.39342
G1 X135.992 Y126.326 E4.44981
G1 X136.434 Y126.926 E4.4855
G1 X137.199 Y127.822 E4.54193
G1 X137.728 Y128.358 E4.578
G1 X138.619 Y129.138 E4.63471
G1 X139.214 Y129.588 E4.67044
G1 X140.19 Y130.221 E4.72616
G1 X140.844 Y130.581 E4.76191
G1 X142.207 Y131.21 E4.83381
G1 X142.517 Y131.376 E4.85065
G1 X142.832 Y131.59 E4.86889
G1 X142.863 Y131.615 E4.8708
G1 X143.157 Y131.895 E4.89024
G1 X143.398 Y132.212 E4.90932
G1 X143.42 Y132.248 E4.91134
G1 X143.598 Y132.589 E4.92976
G1 X143.728 Y132.923 E4.94693
G1 X143.809 Y133.241 E4.96264
G1 X143.861 Y133.611 E4.98054
G1 X143.864 Y133.652 E4.98251
G1 X143.855 Y134.028 E5.00052
G1 X143.85 Y134.075 E5.00278
G1 X143.779 Y134.454 E5.02125
G1 X143.771 Y134.487 E5.02288
G1 X143.643 Y134.84 E5.04086
G1 X143.486 Y135.163 E5.05806
G1 X142.436 Y136.986 E5.15882
G1 X142.236 Y137.284 E5.17601
G1 X142.182 Y137.355 E5.18028
G1 X140.813 Y139.089 E5.2861
G1 X140.644 Y139.287 E5.29856
G1 X140.468 Y139.464 E5.31052
G1 X138.831 Y141.007 E5.41826
G1 X138.582 Y141.212 E5.43371
G1 X138.465 Y141.299 E5.44069
G1 X136.708 Y142.532 E5.5435
G1 X136.433 Y142.704 E5.55903
G1 X136.309 Y142.774 E5.56585
G1 X134.19 Y143.841 E5.67948
G1 X133.924 Y143.949 E5.69323
G1 X133.793 Y143.995 E5.69988
G1 X131.631 Y144.712 E5.80897
G1 X131.346 Y144.782 E5.82303
G1 X131.252 Y144.801 E5.82762
G1 X129.019 Y145.196 E5.93623
G1 X128.842 Y145.223 E5.94481
G1 X128.246 Y145.329 E5.9738
G1 X127.594 Y145.532 E6.00651
G1 X126.973 Y145.815 E6.03919
G1 X126.393 Y146.174 E6.07186
G1 X125.862 Y146.604 E6.10459
G1 X125.39 Y147.098 E6.13731
G1 X124.984 Y147.646 E6.16997
G1 X124.651 Y148.243 E6.20271
G1 X124.395 Y148.876 E6.23542
G1 X124.222 Y149.537 E6.26814
G1 X124.132 Y150.213 E6.3008
G1 X124.13 Y150.896 E6.33352
G1 X124.213 Y151.574 E6.36623
G1 X124.38 Y152.23 E6.39865
G1 X124.495 Y152.554 E6.41512
G1 X124.598 Y152.853 E6.43026
G1 X124.628 Y152.959 E6.43554
G1 X125.199 Y155.16 E6.54445
G1 X125.269 Y155.492 E6.5607
G1 X125.291 Y155.64 E6.56786
G1 X125.509 Y157.778 E6.67079
G1 X125.524 Y158.142 E6.68824
G1 X125.503 Y158.49 E6.70494
G1 X125.492 Y158.56 E6.70833
G1 X125.41 Y158.917 E6.72588
G1 X125.393 Y158.97 E6.72854
G1 X125.256 Y159.306 E6.74592
G1 X125.111 Y159.567 E6.76022
G1 X124.839 Y159.909 E6.78115
G1 X124.576 Y160.183 E6.79934
G1 X124.457 Y160.285 E6.80685
G1 X124.148 Y160.505 E6.82501
G1 X124.118 Y160.524 E6.82671
G1 X123.763 Y160.699 E6.84567
G1 X123.734 Y160.711 E6.84717
G1 X123.374 Y160.821 E6.8652
G1 X123.095 Y160.869 E6.87876
G1 X122.65 Y160.877 E6.90008
G1 X122.378 Y160.865 E6.91312
G1 X120.247 Y160.647 E7.01571
G1 X119.952 Y160.593 E7.03008
G1 X119.773 Y160.552 E7.03887
G1 X117.604 Y159.991 E7.14618
G1 X117.354 Y159.917 E7.15866
G1 X117.113 Y159.824 E7.17103
G1 X114.909 Y158.877 E7.28593
G1 X114.613 Y158.723 E7.30191
G1 X114.514 Y158.665 E7.3074
G1 X112.506 Y157.413 E7.42074
G1 X112.236 Y157.216 E7.43674
G1 X112.116 Y157.118 E7.44417
G1 X110.321 Y155.574 E7.55756
G1 X110.084 Y155.334 E7.57372
G1 X108.482 Y153.469 E7.69147
G1 X108.288 Y153.205 E7.70716
G1 X108.217 Y153.097 E7.71335
G1 X106.981 Y151.11 E7.82543
G1 X106.852 Y150.877 E7.83819
G1 X106.761 Y150.685 E7.84836
G1 X105.843 Y148.551 E7.95962
G1 X105.75 Y148.3 E7.97244
G1 X105.502 Y147.678 E8.00452
G1 X105.17 Y147.081 E8.03723
G1 X104.767 Y146.531 E8.06989
G1 X104.297 Y146.035 E8.10262
G1 X103.767 Y145.604 E8.13533
G1 X103.189 Y145.242 E8.168
G1 X102.568 Y144.956 E8.20074
G1 X101.917 Y144.752 E8.23342
G1 X101.245 Y144.63 E8.26613
G1 X100.563 Y144.594 E8.29884
G1 X99.882 Y144.645 E8.33155
G1 X99.244 Y144.774 E8.36272
G1 X98.631 Y144.938 E8.39311
G1 X98.377 Y144.994 E8.40557
G1 X98.101 Y145.036 E8.41894
G1 X95.889 Y145.283 E8.52554
G1 X95.551 Y145.304 E8.54176
G1 X95.385 Y145.304 E8.54971
G1 X93.059 Y145.218 E8.66119
G1 X92.788 Y145.194 E8.67422
G1 X92.633 Y145.167 E8.68176
G1 X90.414 Y144.751 E8.78989
G1 X90.141 Y144.689 E8.8033
G1 X89.956 Y144.633 E8.81255
G1 X87.803 Y143.888 E8.92167
G1 X87.525 Y143.779 E8.93597
G1 X87.347 Y143.693 E8.94544
G1 X85.289 Y142.616 E9.05669
G1 X84.977 Y142.423 E9.07426
G1 X84.89 Y142.362 E9.07935
G1 X83.136 Y141.081 E9.18337
G1 X82.936 Y140.931 E9.19535
G1 X82.685 Y140.702 E9.21162
G1 X81.056 Y139.094 E9.32125
G1 X80.833 Y138.84 E9.33744
G1 X80.751 Y138.736 E9.34378
G1 X79.42 Y136.959 E9.45012
G1 X79.241 Y136.697 E9.46531
G1 X79.135 Y136.519 E9.47524
G1 X78.022 Y134.454 E9.58759
G1 X77.9 Y134.18 E9.60195
G1 X77.857 Y134.069 E9.60766
G1 X77.097 Y131.965 E9.7148
G1 X77.014 Y131.701 E9.72805
G1 X76.957 Y131.452 E9.74029
G1 X76.513 Y129.24 E9.84834
G1 X76.474 Y128.992 E9.86037
G1 X76.46 Y128.875 E9.86601
G1 X76.191 Y126.027 E10.00302
G1 X76.169 Y125.701 E10.01867
G1 X76.058 Y122.717 E10.16169
G1 X76.058 Y122.609 E10.16686
G1 X76.117 Y119.826 E10.30018
G1 X76.128 Y119.644 E10.30891
G1 X76.165 Y119.286 E10.32615
G1 X76.171 Y119.227 E10.32899
G1 X76.201 Y118.494 E10.36413
G1 X76.438 Y115.789 E10.49418
G1 X76.478 Y115.48 E10.5091
G1 X77.084 Y111.685 E10.69316
G1 X77.155 Y111.331 E10.71046
G1 X78.021 Y107.729 E10.88789
G1 X78.091 Y107.473 E10.9006
G1 X78.948 Y104.768 E11.0365
G1 X79.065 Y104.459 E11.05233
G1 X79.125 Y104.3 E11.06046
G1 X79.341 Y103.605 E11.09532
G1 X79.414 Y103.398 E11.10583
G1 X80.611 Y100.406 E11.26018
G1 X80.748 Y100.068 E11.27765
G1 X80.799 Y99.954 E11.28363
G1 X82.444 Y96.593 E11.46285
G1 X82.653 Y96.198 E11.48425
G1 X84.525 Y92.994 E11.66198
G1 X84.637 Y92.818 E11.67197
G1 X86.833 Y89.625 E11.85757
G1 X86.991 Y89.417 E11.87008
G1 X89.391 Y86.431 E12.05357
G1 X89.638 Y86.172 E12.07071
G0 F9000 X89.6 Y86.211
G1 F600 X89.6 Y144.509 E14.86287
G0 F9000 X91.2 Y144.898
G1 F600 X91.2 Y84.714 E17.74535
G0 F9000 X92.8 Y83.681
G1 F600 X92.8 Y145.195 E20.69154
G0 F9000 X94.4 Y145.267
G1 F600 X94.4 Y82.95 E23.67619
G0 F9000 X96 Y82.43
G1 F600 X96 Y145.271 E26.68593
G0 F9000 X97.6 Y145.092
G1 F600 X97.6 Y82.143 E29.70085
G0 F9000 X99.2 Y82.107
G1 F600 X99.2 Y144.786 E32.70284
G0 F9000 X100.8 Y144.606
G1 F600 X100.8 Y82.22 E35.69079
G0 F9000 X102.4 Y82.56
G1 F600 X102.4 Y144.903 E38.67668
G0 F9000 X104 Y145.793
G1 F600 X104 Y83.172 E41.67589
G0 F9000 X105.6 Y83.881
G1 F600 X105.6 Y147.923 E44.74315
G0 F9000 X107.2 Y151.462
G1 F600 X107.2 Y84.512 E47.9497
G0 F9000 X108.8 Y84.909
G1 F600 X108.8 Y153.839 E51.25107
G0 F9000 X110.4 Y155.641
G1 F600 X110.4 Y85.086 E54.63027
G0 F9000 X112 Y85.047
G1 F600 X112 Y157.018 E58.0773
G0 F9000 X113.6 Y158.095
G1 F600 X113.6 Y84.8 E61.58773
G0 F9000 X115.2 Y84.332
G1 F600 X115.2 Y159.002 E65.16402
G0 F9000 X116.8 Y159.689
G1 F600 X116.8 Y83.636 E68.80655
G0 F9000 X118.4 Y82.942
G1 F600 X118.4 Y160.196 E72.5066
G0 F9000 X120 Y160.601
G1 F600 X120 Y82.446 E76.2498
G0 F9000 X121.6 Y82.136
G1 F600 X121.6 Y160.785 E80.01666
G0 F9000 X123.2 Y160.851
G1 F600 X123.2 Y82.097 E83.78855
G0 F9000 X124.8 Y82.238
G1 F600 X124.8 Y147.976 E86.93705
G0 F9000 X126.4 Y146.17
G1 F600 X126.4 Y82.55 E89.9841
G0 F9000 X128 Y83.16
G1 F600 X128 Y145.406 E92.96535
G0 F9000 X129.6 Y145.094
G1 F600 X129.6 Y84.021 E95.89041
G0 F9000 X131.2 Y85.196
G1 F600 X131.2 Y144.811 E98.74565
G0 F9000 X132.8 Y144.325
G1 F600 X132.8 Y86.833 E101.49921
G0 F9000 X134.4 Y88.826
G1 F600 X134.4 Y114.154 E102.71228
G0 F9000 X136 Y111.073
G1 F600 X136 Y91.027 E103.67238
G0 F9000 X137.6 Y93.442
G1 F600 X137.6 Y109.171 E104.42571
G0 F9000 X139.2 Y107.821
G1 F600 X139.2 Y96.173 E104.98359
G0 F9000 X140.8 Y99.384
G1 F600 X140.8 Y106.81 E105.33925
G0 F9000 X142.4 Y105.135
G1 F600 X142.4 Y103.256 E105.42924
G1 F2700 E100.42924
G0 F9000 X143.485 Y103.144
G0 X143.609 Y103.737
G0 X143.59 Y104.779
G0 X143.356 Y105.564
G0 X135.291 Y122.565
G0 X134.4 Y123.232
G1 F2700 E105.42924
G1 F600 X134.4 Y143.736 E106.41128
G0 F9000 X136 Y142.93
G1 F600 X136 Y126.337 E107.20599
G0 F9000 X137.6 Y128.229
G1 F600 X137.6 Y141.907 E107.86109
G0 F9000 X139.2 Y140.66
G1 F600 X139.2 Y129.578 E108.39186
G0 F9000 X140.8 Y130.557
G1 F600 X140.8 Y139.105 E108.80126
G0 F9000 X142.4 Y137.04
G1 F600 X142.4 Y131.314 E109.07551
G1 F2700 E104.07551
G0 F9000 X142.885 Y130.361
G0 X143.565 Y130.812
G0 X144.275 Y131.606
G0 X144.744 Y132.6
G0 X144.928 Y133.633
G0 X144.819 Y134.688
G0 X144.417 Y135.681
G0 X143.021 Y138.01
G0 X141.21 Y140.227
G0 X139.489 Y141.797
G0 X125.83 Y153.354
G0 X124.8 Y153.622
G1 F2700 E109.07551
G1 F600 X124.8 Y159.95 E109.37859
G1 F2700 E104.37859
G0 F9000 X125.443 Y160.833
G0 X124.627 Y161.46
G0 X123.642 Y161.852
G0 X123.112 Y161.934
G0 X122.306 Y161.928
G0 X119.724 Y161.633
G0 X116.791 Y160.843
G0 X114.35 Y159.764
G0 X87.652 Y144.962
G0 X88 Y143.956
G1 F2700 E109.37859
G1 F600 X88 Y88.161 E112.05086
G0 F9000 X86.4 Y90.254
G1 F600 X86.4 Y143.197 E114.58655
G0 F9000 X84.8 Y142.296
G1 F600 X84.8 Y92.58 E116.96768
G0 F9000 X83.2 Y95.261
G1 F600 X83.2 Y141.127 E119.16441
G0 F9000 X81.6 Y139.63
G1 F600 X81.6 Y98.317 E121.14308
G0 F9000 X80 Y101.933
G1 F600 X80 Y137.733 E122.8577
G0 F9000 X78.4 Y135.155
G1 F600 X78.4 Y106.497 E124.23027
G1 F2700 E119.23027
G0 F9000 X77.385 Y106.176
G0 X76.99 Y107.464
G0 X76.131 Y111.102
G0 X75.749 Y113.296
G0 X76.8 Y113.463
G1 F2700 E124.23027
G1 F600 X76.8 Y130.669 E125.05434
G1 F2700 E120.05434
G0 F300 X76.8 Y130.669 Z0.324
G0 F9000 X75.915 Y131.673
G0 X76.094 Y132.32
G0 X77.104 Y134.995
G0 X78.324 Y137.2
G0 X79.895 Y139.368
G0 X80.746 Y138.729
;TIME_ELAPSED:275.196775
;LAYER:-5
;TYPE:SUPPORT
G1 F2700 E125.05434
G1 F1125 X82.981 Y140.963 E125.24353
G1 X82.935 Y140.929 E125.24695
G1 X82.778 Y140.789 E125.25955
G1 X82.684 Y140.701 E125.26726
G1 X81.055 Y139.093 E125.40429
G1 X80.972 Y139.004 E125.41158
G1 X80.925 Y138.952 E125.41577
G1 X80.832 Y138.839 E125.42454
G1 X80.75 Y138.735 E125.43246
G0 F9000 X82.981 Y140.963
G1 F1125 X83.135 Y141.08 E125.44404
G1 X84.89 Y142.361 E125.57412
G1 X84.977 Y142.422 E125.58049
G1 X85.135 Y142.527 E125.59184
G1 X85.289 Y142.615 E125.60246
G1 X86.877 Y143.446 E125.70976
G1 X78.179 Y134.748 E126.44619
G1 X78.044 Y134.496 E126.46331
G1 X77.969 Y134.343 E126.47351
G1 X77.9 Y134.179 E126.48416
G1 X77.857 Y134.068 E126.49129
G1 X77.259 Y132.413 E126.59664
G1 X89.226 Y144.38 E127.60984
G1 X89.956 Y144.633 E127.6561
G1 X90.102 Y144.678 E127.66524
G1 X90.305 Y144.727 E127.67775
G1 X90.413 Y144.75 E127.68436
G1 X91.147 Y144.887 E127.72906
G1 X76.767 Y130.507 E128.94656
G1 X76.513 Y129.239 E129.02398
G1 X76.474 Y128.991 E129.03901
G1 X76.459 Y128.874 E129.04607
G1 X76.449 Y128.775 E129.05203
G1 X92.874 Y145.2 E130.44268
G1 X93.111 Y145.221 E130.45692
G1 X94.353 Y145.265 E130.53133
G1 X76.302 Y127.214 E132.05964
G1 X76.19 Y126.026 E132.13108
G1 X76.168 Y125.7 E132.15064
G1 X76.167 Y125.664 E132.1528
G1 X95.792 Y145.289 E133.81438
G1 X95.889 Y145.282 E133.8202
G1 X97.067 Y145.15 E133.89117
G1 X76.112 Y124.196 E135.66531
G1 X76.058 Y122.727 E135.75332
G1 X98.33 Y145 E137.63905
G1 X98.463 Y144.978 E137.64712
G1 X98.631 Y144.937 E137.65747
G1 X99.243 Y144.773 E137.69541
G1 X99.471 Y144.726 E137.70934
G1 X76.084 Y121.339 E139.68944
G1 X76.114 Y119.955 E139.77231
G1 X100.762 Y144.603 E141.85917
G1 X101.244 Y144.628 E141.88807
G1 X101.917 Y144.751 E141.92903
G1 X102.509 Y144.936 E141.96616
G1 X76.194 Y118.621 E144.19416
G1 X76.201 Y118.493 E144.20183
G1 X76.303 Y117.316 E144.27256
G1 X119.457 Y160.469 E147.92622
G1 X119.772 Y160.551 E147.9457
G1 X119.952 Y160.592 E147.95676
G1 X120.111 Y160.624 E147.96647
G1 X120.247 Y160.646 E147.97471
G1 X121.14 Y160.738 E148.02846
G1 X76.417 Y116.015 E151.815
G1 X76.438 Y115.788 E151.82865
G1 X76.459 Y115.606 E151.83962
G1 X76.477 Y115.479 E151.84729
G1 X76.59 Y114.774 E151.89004
G1 X122.69 Y160.874 E155.79316
G1 X123.094 Y160.868 E155.81735
G1 X123.279 Y160.839 E155.82857
G1 X123.373 Y160.82 E155.83431
G1 X123.733 Y160.709 E155.85686
G1 X123.763 Y160.698 E155.85877
G1 X123.873 Y160.643 E155.86614
G1 X76.784 Y113.554 E159.853
G1 X76.979 Y112.334 E159.92696
G1 X124.705 Y160.06 E163.96776
G1 X124.838 Y159.908 E163.97985
