;FLAVOR:Marlin
;TIME:34489
;Filament used: 17.0144m
;Layer height: 0.12
;MINX:46.001
;MINY:56.335
;MINZ:0.144
;MAXX:173.961
;MAXY:163.664
;MAXZ:10.599
;Generated with Cura_SteamEngine 4.11.0
M140 S50
M105
M190 S50
M104 S200
M105
M109 S200
M82 ;absolute extrusion mode
; Ender 3 Custom Start G-code
G92 E0 ; Reset Extruder
G28 ; Home all axes
G1 Z2.0 F3000 ; Move Z Axis up little to prevent scratching of Heat Bed
G1 X0.1 Y20 Z0.3 F5000.0 ; Move to start position
G1 X0.1 Y200.0 Z0.3 F1500.0 E15 ; Draw the first line
G1 X0.4 Y200.0 Z0.3 F5000.0 ; Move to side a little
G1 X0.4 Y20 Z0.3 F1500.0 E30 ; Draw the second line
G92 E0 ; Reset Extruder
G1 Z2.0 F3000 ; Move Z Axis up little to prevent scratching of Heat Bed
G1 X5 Y20 Z0.3 F5000.0 ; Move over to prevent blob squish
G92 E0
G92 E0
G1 F2700 E-5
;LAYER_COUNT:83
;LAYER:-6
M107
G0 F9000 X64.019 Y64.023 Z0.144
;TYPE:SUPPORT-INTERFACE
G1 F2700 E0
G1 F600 X64.218 Y63.84 E0.01295
G1 X66.563 Y61.839 E0.16059
G1 X66.783 Y61.671 E0.17385
G1 X66.924 Y61.581 E0.18186
G1 X69.488 Y60.008 E0.32593
G1 X69.721 Y59.875 E0.33878
G1 X69.957 Y59.764 E0.35127
G1 X72.881 Y58.556 E0.5028
G1 X73.155 Y58.467 E0.5166
G1 X73.302 Y58.429 E0.52387
G1 X76.322 Y57.705 E0.67261
G1 X76.629 Y57.66 E0.68747
G1 X76.747 Y57.647 E0.69315
G1 X79.554 Y57.427 E0.82801
G1 X79.758 Y57.419 E0.83778
G1 X80.527 Y57.423 E0.87462
G1 X80.889 Y57.4 E0.89199
G1 X89.072 Y57.401 E1.28391
G1 X89.801 Y57.431 E1.31885
G1 X90.054 Y57.405 E1.33104
G1 X90.208 Y57.4 E1.33842
G1 X129.759 Y57.4 E3.23269
G1 X130.492 Y57.43 E3.26783
G1 X130.743 Y57.404 E3.27992
G1 X130.89 Y57.4 E3.28696
G1 X139.071 Y57.4 E3.67879
G1 X139.442 Y57.415 E3.69657
G1 X139.442 Y57.428 E3.69719
G1 X139.707 Y57.425 E3.70988
G1 X139.8 Y57.425 E3.71434
G1 X140.251 Y57.42 E3.73594
G1 X140.442 Y57.427 E3.74509
G1 X143.253 Y57.647 E3.88014
G1 X143.592 Y57.691 E3.89651
G1 X143.744 Y57.72 E3.90392
G1 X146.698 Y58.429 E4.04942
G1 X146.956 Y58.499 E4.06222
G1 X147.216 Y58.594 E4.07548
G1 X150.073 Y59.777 E4.22358
G1 X150.405 Y59.945 E4.2414
G1 X150.512 Y60.008 E4.24735
G1 X153.124 Y61.611 E4.39413
G1 X153.427 Y61.831 E4.41207
G1 X155.782 Y63.84 E4.56032
G1 X155.981 Y64.023 E4.57327
G1 X156.16 Y64.218 E4.58595
G1 X158.161 Y66.563 E4.73359
G1 X158.323 Y66.775 E4.74637
G1 X158.419 Y66.924 E4.75486
G1 X159.982 Y69.471 E4.89799
G1 X160.123 Y69.719 E4.91165
G1 X160.236 Y69.957 E4.92427
G1 X161.442 Y72.875 E5.07549
G1 X161.53 Y73.144 E5.08905
G1 X161.571 Y73.302 E5.09686
G1 X162.278 Y76.249 E5.24201
G1 X162.339 Y76.618 E5.25993
G1 X162.352 Y76.733 E5.26547
G1 X162.626 Y80.208 E5.43242
G1 X162.658 Y80.315 E5.43777
G1 X162.818 Y80.98 E5.47053
G1 X163.061 Y81.617 E5.50318
G1 X163.383 Y82.22 E5.53592
G1 X163.778 Y82.777 E5.56863
G1 X164.24 Y83.279 E5.6013
G1 X164.762 Y83.72 E5.63403
G1 X165.335 Y84.091 E5.66672
G1 X165.951 Y84.387 E5.69946
G1 X166.598 Y84.601 E5.7321
G1 X167.517 Y84.789 E5.77702
G1 X167.683 Y84.838 E5.78531
G1 X168.718 Y85.186 E5.83761
G1 X168.989 Y85.294 E5.85158
G1 X169.312 Y85.445 E5.86866
G1 X169.578 Y85.601 E5.88343
G1 X169.695 Y85.688 E5.89041
G1 X169.975 Y85.93 E5.90814
G1 X170.031 Y85.987 E5.91196
G1 X170.249 Y86.246 E5.92818
G1 X170.441 Y86.545 E5.9452
G1 X170.512 Y86.683 E5.95263
G1 X170.662 Y87.039 E5.97113
G1 X170.738 Y87.309 E5.98457
G1 X170.79 Y87.747 E6.00569
G1 X170.805 Y87.998 E6.01773
G1 X170.825 Y106.891 E6.92261
G1 X170.817 Y119.115 E7.50807
G1 X170.859 Y119.783 E7.54013
G1 X170.987 Y120.453 E7.5728
G1 X171.2 Y121.102 E7.60551
G1 X171.494 Y121.726 E7.63855
G1 X172.057 Y122.548 E7.68627
G1 X172.244 Y122.782 E7.70061
G1 X172.418 Y123.059 E7.71628
G1 X172.549 Y123.297 E7.72929
G1 X172.639 Y123.494 E7.73967
G1 X172.735 Y123.729 E7.75182
G1 X172.791 Y123.914 E7.76108
G1 X172.857 Y124.222 E7.77617
G1 X172.9 Y124.492 E7.78926
G1 X172.916 Y124.743 E7.80131
G1 X172.921 Y125.043 E7.81568
G1 X172.865 Y125.52 E7.83868
G1 X172.797 Y125.82 E7.85341
G1 X172.659 Y126.243 E7.87472
G1 X172.611 Y126.367 E7.88109
G1 X172.377 Y126.924 E7.91003
G1 X172.194 Y127.582 E7.94274
G1 X172.096 Y128.257 E7.97541
G1 X172.083 Y128.941 E8.00817
G1 X172.156 Y129.619 E8.04083
G1 X172.316 Y130.287 E8.07373
G1 X172.618 Y131.054 E8.11321
G1 X172.748 Y131.406 E8.13118
G1 X172.82 Y131.666 E8.14411
G1 X172.864 Y131.872 E8.15419
G1 X172.908 Y132.131 E8.16678
G1 X172.921 Y132.34 E8.17681
G1 X172.916 Y132.651 E8.1917
G1 X172.897 Y132.926 E8.20491
G1 X172.86 Y133.16 E8.21625
G1 X172.795 Y133.464 E8.23114
G1 X172.734 Y133.666 E8.24125
G1 X172.631 Y133.921 E8.25442
G1 X172.518 Y134.158 E8.26699
G1 X172.407 Y134.355 E8.27782
G1 X172.27 Y134.574 E8.2902
G1 X172.144 Y134.745 E8.30037
G1 X171.927 Y134.983 E8.3158
G1 X171.7 Y135.204 E8.33097
G1 X171.58 Y135.305 E8.33848
G1 X171.355 Y135.479 E8.3521
G1 X171.065 Y135.66 E8.36848
G1 X170.968 Y135.712 E8.37375
G1 X170.225 Y136.088 E8.41363
G1 X169.868 Y136.246 E8.43233
G1 X169.617 Y136.33 E8.44501
G1 X168.8 Y136.568 E8.48576
G1 X168.49 Y136.643 E8.50104
G1 X168.14 Y136.696 E8.51799
G1 X167.32 Y136.776 E8.55745
G1 X166.658 Y136.883 E8.58957
G1 X166.003 Y137.077 E8.62229
G1 X165.377 Y137.351 E8.65502
G1 X164.792 Y137.702 E8.68769
G1 X164.255 Y138.123 E8.72037
G1 X163.776 Y138.611 E8.75312
G1 X163.363 Y139.154 E8.7858
G1 X163.02 Y139.744 E8.81848
G1 X162.756 Y140.373 E8.85115
G1 X162.572 Y141.031 E8.88388
G1 X162.473 Y141.713 E8.91688
G1 X162.35 Y143.271 E8.99174
G1 X162.314 Y143.567 E9.00602
G1 X162.28 Y143.744 E9.01465
G1 X161.571 Y146.698 E9.16015
G1 X161.501 Y146.956 E9.17295
G1 X161.406 Y147.216 E9.18621
G1 X160.232 Y150.053 E9.33326
G1 X160.123 Y150.281 E9.34537
G1 X159.996 Y150.506 E9.35774
G1 X158.403 Y153.103 E9.50366
G1 X158.169 Y153.427 E9.5228
G1 X156.16 Y155.782 E9.67106
G1 X155.99 Y155.968 E9.68313
G1 X155.782 Y156.16 E9.69668
G1 X153.437 Y158.161 E9.84433
G1 X153.217 Y158.329 E9.85759
G1 X153.076 Y158.419 E9.8656
G1 X150.512 Y159.992 E10.00967
G1 X150.285 Y160.121 E10.02217
G1 X150.043 Y160.236 E10.035
G1 X147.129 Y161.44 E10.18601
G1 X146.845 Y161.533 E10.20033
G1 X146.698 Y161.571 E10.2076
G1 X143.678 Y162.295 E10.35634
G1 X143.378 Y162.339 E10.37086
G1 X143.251 Y162.353 E10.37698
G1 X140.275 Y162.587 E10.51995
G1 X139.942 Y162.6 E10.53591
G1 X80.038 Y162.599 E13.40499
G1 X79.709 Y162.586 E13.42076
G1 X76.733 Y162.352 E13.56374
G1 X76.417 Y162.311 E13.579
G1 X76.25 Y162.278 E13.58715
G1 X73.302 Y161.571 E13.73235
G1 X73.048 Y161.502 E13.74495
G1 X72.784 Y161.406 E13.75841
G1 X69.927 Y160.223 E13.90651
G1 X69.596 Y160.055 E13.92429
G1 X69.488 Y159.992 E13.93028
G1 X66.868 Y158.384 E14.07751
G1 X66.563 Y158.161 E14.0956
G1 X64.218 Y156.16 E14.24325
G1 X64.01 Y155.968 E14.25681
G1 X63.84 Y155.782 E14.26888
G1 X61.831 Y153.427 E14.41713
G1 X61.666 Y153.209 E14.43023
G1 X61.581 Y153.076 E14.43779
G1 X60.004 Y150.506 E14.5822
G1 X59.877 Y150.281 E14.59458
G1 X59.768 Y150.053 E14.60668
G1 X58.594 Y147.216 E14.75373
G1 X58.504 Y146.973 E14.76614
G1 X58.429 Y146.698 E14.7798
G1 X57.703 Y143.667 E14.92907
G1 X57.66 Y143.374 E14.94325
G1 X57.648 Y143.265 E14.94851
G1 X57.502 Y141.406 E15.03782
G1 X57.406 Y140.743 E15.0699
G1 X57.226 Y140.085 E15.10257
G1 X56.964 Y139.454 E15.1353
G1 X56.623 Y138.862 E15.16802
G1 X56.212 Y138.318 E15.20067
G1 X55.734 Y137.829 E15.23342
G1 X55.198 Y137.406 E15.26613
G1 X54.614 Y137.053 E15.29881
G1 X53.992 Y136.777 E15.3314
G1 X53.439 Y136.605 E15.35914
G1 X53.356 Y136.585 E15.36323
G1 X52.578 Y136.367 E15.40192
G1 X52.228 Y136.251 E15.41958
G1 X51.936 Y136.121 E15.43489
G1 X51.047 Y135.68 E15.48242
G1 X50.745 Y135.489 E15.49954
G1 X50.618 Y135.4 E15.50696
G1 X49.895 Y134.857 E15.55027
G1 X49.572 Y134.566 E15.57109
G1 X49.452 Y134.443 E15.57932
G1 X48.833 Y133.766 E15.62326
G1 X48.585 Y133.44 E15.64288
G1 X48.492 Y133.298 E15.65101
G1 X48.059 Y132.603 E15.69022
G1 X47.904 Y132.325 E15.70547
G1 X47.77 Y132.027 E15.72112
G1 X47.448 Y131.199 E15.76367
G1 X47.364 Y130.953 E15.77612
G1 X47.284 Y130.61 E15.79299
G1 X47.112 Y129.689 E15.83786
G1 X47.077 Y129.418 E15.85095
G1 X47.065 Y129.119 E15.86528
G1 X47.065 Y128.288 E15.90508
G1 X47.077 Y127.975 E15.92008
G1 X47.112 Y127.707 E15.93303
G1 X47.287 Y126.772 E15.97859
G1 X47.342 Y126.52 E15.99094
G1 X47.455 Y126.18 E16.0081
G1 X47.809 Y125.271 E16.05482
G1 X47.977 Y124.936 E16.07277
G1 X48.062 Y124.787 E16.08098
G1 X48.521 Y124.05 E16.12257
G1 X48.712 Y123.778 E16.13849
G1 X48.904 Y123.551 E16.15273
G1 X49.451 Y122.954 E16.19151
G1 X49.635 Y122.768 E16.20404
G1 X50.085 Y122.274 E16.23604
G1 X50.478 Y121.715 E16.26877
G1 X50.797 Y121.111 E16.30149
G1 X51.036 Y120.472 E16.33416
G1 X51.195 Y119.804 E16.36705
G1 X51.271 Y118.915 E16.40978
G1 X51.274 Y110.497 E16.81296
G1 X51.184 Y109.53 E16.85947
G1 X51.107 Y109.126 E16.87917
G1 X51.076 Y108.695 E16.89987
G1 X51.073 Y90.679 E17.76274
G1 X51.077 Y87.972 E17.89239
G1 X51.099 Y87.622 E17.90918
G1 X51.169 Y87.21 E17.9292
G1 X51.296 Y86.837 E17.94807
G1 X51.323 Y86.775 E17.95131
G1 X51.47 Y86.492 E17.96658
G1 X51.64 Y86.243 E17.98102
G1 X51.755 Y86.101 E17.98977
G1 X52.01 Y85.837 E18.00735
G1 X52.031 Y85.819 E18.00868
G1 X52.357 Y85.578 E18.02809
G1 X52.724 Y85.367 E18.04837
G1 X53.114 Y85.205 E18.0686
G1 X53.411 Y85.111 E18.08352
G1 X53.831 Y84.958 E18.10493
G1 X54.071 Y84.859 E18.11736
G1 X54.429 Y84.694 E18.13624
G1 X55.008 Y84.357 E18.16833
G1 X55.55 Y83.942 E18.20102
G1 X56.036 Y83.462 E18.23374
G1 X56.458 Y82.925 E18.26645
G1 X56.807 Y82.338 E18.29915
G1 X57.08 Y81.712 E18.33186
G1 X57.272 Y81.057 E18.36455
G1 X57.378 Y80.388 E18.397
G1 X57.402 Y79.995 E18.41585
G1 X57.414 Y79.698 E18.43009
G1 X57.645 Y76.772 E18.57067
G1 X57.686 Y76.434 E18.58697
G1 X57.72 Y76.256 E18.59565
G1 X58.429 Y73.302 E18.74115
G1 X58.499 Y73.044 E18.75395
G1 X58.594 Y72.784 E18.76721
G1 X59.777 Y69.927 E18.91531
G1 X59.944 Y69.596 E18.93307
G1 X60.015 Y69.476 E18.93975
G1 X61.611 Y66.876 E19.08586
G1 X61.831 Y66.573 E19.1038
G1 X63.84 Y64.218 E19.25205
G1 X64.019 Y64.023 E19.26473
G0 F9000 X64 Y64.043
G1 F600 X64 Y155.957 E23.66692
G0 F9000 X65.6 Y157.339
G1 F600 X65.6 Y62.66 E28.20153
G0 F9000 X67.2 Y61.411
G1 F600 X67.2 Y158.587 E32.85573
G0 F9000 X68.8 Y159.569
G1 F600 X68.8 Y60.43 E37.60396
G0 F9000 X70.4 Y59.58
G1 F600 X70.4 Y160.418 E42.43355
G0 F9000 X72 Y161.081
G1 F600 X72 Y58.919 E47.32656
G0 F9000 X73.6 Y58.357
G1 F600 X73.6 Y161.642 E52.27335
G0 F9000 X75.2 Y162.026
G1 F600 X75.2 Y57.973 E57.25693
G0 F9000 X76.8 Y57.642
G1 F600 X76.8 Y162.357 E62.27221
G0 F9000 X78.4 Y162.483
G1 F600 X78.4 Y57.517 E67.29951
G0 F9000 X80 Y57.421
G1 F600 X80 Y162.597 E72.33688
G0 F9000 X81.6 Y162.599
G1 F600 X81.6 Y57.401 E77.37529
G0 F9000 X83.2 Y57.401
G1 F600 X83.2 Y162.599 E82.41371
G0 F9000 X84.8 Y162.599
G1 F600 X84.8 Y57.401 E87.45212
G0 F9000 X86.4 Y57.401
G1 F600 X86.4 Y162.599 E92.49054
G0 F9000 X88 Y162.599
G1 F600 X88 Y57.401 E97.52895
G0 F9000 X89.6 Y57.423
G1 F600 X89.6 Y162.599 E102.56632
G0 F9000 X91.2 Y162.599
G1 F600 X91.2 Y57.4 E107.60478
G0 F9000 X92.8 Y57.4
G1 F600 X92.8 Y162.599 E112.64324
G0 F9000 X94.4 Y162.599
G1 F600 X94.4 Y57.4 E117.68171
G0 F9000 X96 Y57.4
G1 F600 X96 Y162.599 E122.72017
G0 F9000 X97.6 Y162.599
G1 F600 X97.6 Y57.4 E127.75863
G0 F9000 X99.2 Y57.4
G1 F600 X99.2 Y162.599 E132.7971
G0 F9000 X100.8 Y162.599
G1 F600 X100.8 Y57.4 E137.83556
G0 F9000 X102.4 Y57.4
G1 F600 X102.4 Y162.599 E142.87402
G0 F9000 X104 Y162.599
G1 F600 X104 Y57.4 E147.91249
G0 F9000 X105.6 Y57.4
G1 F600 X105.6 Y162.599 E152.95095
G0 F9000 X107.2 Y162.599
G1 F600 X107.2 Y57.4 E157.98941
G0 F9000 X108.8 Y57.4
G1 F600 X108.8 Y162.599 E163.02788
G0 F9000 X110.4 Y162.599
G1 F600 X110.4 Y57.4 E168.06634
G0 F9000 X112 Y57.4
G1 F600 X112 Y162.599 E173.1048
G0 F9000 X113.6 Y162.599
G1 F600 X113.6 Y57.4 E178.14327
G0 F9000 X115.2 Y57.4
G1 F600 X115.2 Y162.599 E183.18173
G0 F9000 X116.8 Y162.599
G1 F600 X116.8 Y57.4 E188.22019
G0 F9000 X118.4 Y57.4
G1 F600 X118.4 Y162.599 E193.25866
G0 F9000 X120 Y162.599
G1 F600 X120 Y57.4 E198.29712
G0 F9000 X121.6 Y57.4
G1 F600 X121.6 Y162.599 E203.33558
G0 F9000 X123.2 Y162.599
G1 F600 X123.2 Y57.4 E208.37405
G0 F9000 X124.8 Y57.4
G1 F600 X124.8 Y162.599 E213.41251
G0 F9000 X126.4 Y162.599
G1 F600 X126.4 Y57.4 E218.45097
G0 F9000 X128 Y57.4
G1 F600 X128 Y162.599 E223.48944
G0 F9000 X129.6 Y162.599
G1 F600 X129.6 Y57.4 E228.5279
G0 F9000 X131.2 Y57.4
G1 F600 X131.2 Y162.599 E233.56637
G0 F9000 X132.8 Y162.599
G1 F600 X132.8 Y57.4 E238.60483
G0 F9000 X134.4 Y57.4
G1 F600 X134.4 Y162.599 E243.64329
G0 F9000 X136 Y162.599
G1 F600 X136 Y57.4 E248.68176
G0 F9000 X137.6 Y57.4
G1 F600 X137.6 Y162.599 E253.72022
G0 F9000 X139.2 Y162.599
G1 F600 X139.2 Y57.406 E258.7584
G0 F9000 X140.8 Y57.456
G1 F600 X140.8 Y162.546 E263.79164
G0 F9000 X142.4 Y162.42
G1 F600 X142.4 Y57.581 E268.81286
G0 F9000 X144 Y57.782
G1 F600 X144 Y162.218 E273.81478
G0 F9000 X145.6 Y161.835
G1 F600 X145.6 Y58.166 E278.77996
G0 F9000 X147.2 Y58.589
G1 F600 X147.2 Y161.411 E283.70458
G0 F9000 X148.8 Y160.75
G1 F600 X148.8 Y59.25 E288.56588
G0 F9000 X150.4 Y59.943
G1 F600 X150.4 Y160.056 E293.36075
G0 F9000 X152 Y159.08
G1 F600 X152 Y60.922 E298.06199
G0 F9000 X153.6 Y61.979
G1 F600 X153.6 Y158.022 E302.66193
G0 F9000 X155.2 Y156.657
G1 F600 X155.2 Y63.344 E307.13112
G0 F9000 X156.8 Y64.969
G1 F600 X156.8 Y155.032 E311.44465
G0 F9000 X158.4 Y153.108
G1 F600 X158.4 Y66.895 E315.57379
G0 F9000 X160 Y69.503
G1 F600 X160 Y150.499 E319.45306
G0 F9000 X161.6 Y146.578
G1 F600 X161.6 Y73.423 E322.95679
G1 F2700 E317.95679
G0 F9000 X162.635 Y73.174
G0 X163.319 Y76.158
G0 X164.034 Y81.18
G0 X163.2 Y81.878
G1 F2700 E322.95679
G1 F600 X163.2 Y139.435 E325.71346
G0 F9000 X164.8 Y137.698
G1 F600 X164.8 Y83.745 E328.29751
G0 F9000 X166.4 Y84.536
G1 F600 X166.4 Y136.96 E330.80834
G0 F9000 X168 Y136.71
G1 F600 X168 Y84.945 E333.2876
G0 F9000 X169.6 Y85.618
G1 F600 X169.6 Y136.335 E335.71667
G0 F9000 X171.2 Y135.576
G1 F600 X171.2 Y121.102 E336.4099
G0 F9000 X172.8 Y123.956
G1 F600 X172.8 Y125.807 E336.49855
G1 F2700 E331.49855
G0 F9000 X173.655 Y126.618
G0 X173.67 Y130.811
G0 X172.8 Y131.594
G1 F2700 E336.49855
G1 F600 X172.8 Y133.441 E336.58702
G1 F2700 E331.58702
G0 F9000 X173.732 Y134.038
G0 X173.32 Y134.902
G0 X158.934 Y154.172
G0 X156.562 Y156.891
G0 X153.7 Y159.284
G0 X150.51 Y161.194
G0 X147.124 Y162.559
G0 X143.502 Y163.396
G0 X139.959 Y163.664
G0 X79.634 Y163.648
G0 X76.011 Y163.316
G0 X72.497 Y162.437
G0 X69.064 Y160.977
G0 X65.903 Y158.996
G0 X63.109 Y156.562
G0 X61.59 Y154.785
G0 X62.4 Y154.093
G1 F2700 E336.58702
G1 F600 X62.4 Y65.906 E340.8107
G0 F9000 X60.8 Y68.197
G1 F600 X60.8 Y151.803 E344.81497
G0 F9000 X59.2 Y148.68
G1 F600 X59.2 Y71.32 E348.5201
G1 F2700 E343.5201
G0 F9000 X58.216 Y70.913
G0 X57.444 Y72.864
G0 X56.789 Y75.616
G0 X56.586 Y76.67
G0 X57.6 Y77.342
G1 F2700 E348.5201
G1 F600 X57.6 Y142.653 E351.64814
G1 F2700 E346.64814
G0 F9000 X56.54 Y142.737
G0 X55.402 Y139.012
G0 X56 Y138.101
G1 F2700 E351.64814
G1 F600 X56 Y83.497 E354.26338
G0 F9000 X54.4 Y84.707
G1 F600 X54.4 Y136.958 E356.76592
G0 F9000 X52.8 Y136.429
G1 F600 X52.8 Y85.335 E359.21304
G0 F9000 X51.2 Y87.118
G1 F600 X51.2 Y109.701 E360.29465
G1 F2700 E355.29465
G0 F9000 X50.21 Y110.543
G0 X50.207 Y118.867
G0 X51.2 Y119.745
G1 F2700 E360.29465
G1 F600 X51.2 Y135.755 E361.06144
G0 F9000 X49.6 Y134.591
G1 F600 X49.6 Y122.803 E361.62602
G0 F9000 X48 Y124.895
G1 F600 X48 Y132.497 E361.99012
G0 F300 X48 Y132.497 Z0.324
G0 F9000 X48.585 Y133.439
;TIME_ELAPSED:774.366571
;LAYER:-5
;TYPE:SUPPORT
G1 F1125 X48.727 Y133.638 E362.00475
G1 X48.832 Y133.764 E362.01457
G1 X49.452 Y134.442 E362.06958
G1 X49.572 Y134.565 E362.07986
G1 X49.708 Y134.697 E362.09121
G1 X49.783 Y134.766 E362.09731
G1 X49.894 Y134.856 E362.10587
G1 X50.329 Y135.182 E362.13841
G1 X48.582 Y133.435 E362.28632
G1 X48.491 Y133.296 E362.29627
G1 X48.059 Y132.602 E362.34521
G1 X47.992 Y132.487 E362.35318
G1 X47.904 Y132.324 E362.36427
G1 X47.849 Y132.215 E362.37158
G1 X47.77 Y132.026 E362.38384
G1 X47.448 Y131.198 E362.43703
G1 X47.364 Y130.952 E362.45259
G1 X47.333 Y130.841 E362.45949
G1 X47.314 Y130.753 E362.46488
G1 X53.063 Y136.502 E362.95163
G0 F9000 X53.356 Y136.584
