;FLAVOR:Marlin
;TIME:17445
;Filament used: 8.00198m
;Layer height: 0.12
;MINX:68.987
;MINY:61.709
;MINZ:0.144
;MAXX:154.688
;MAXY:156.339
;MAXZ:10.599
;Generated with Cura_SteamEngine 4.11.0
M140 S50
M105
M190 S50
M104 S200
M105
M109 S200
M82 ;absolute extrusion mode
; Ender 3 Custom Start G-code
G92 E0 ; Reset Extruder
G28 ; Home all axes
G1 Z2.0 F3000 ; Move Z Axis up little to prevent scratching of Heat Bed
G1 X0.1 Y20 Z0.3 F5000.0 ; Move to start position
G1 X0.1 Y200.0 Z0.3 F1500.0 E15 ; Draw the first line
G1 X0.4 Y200.0 Z0.3 F5000.0 ; Move to side a little
G1 X0.4 Y20 Z0.3 F1500.0 E30 ; Draw the second line
G92 E0 ; Reset Extruder
G1 Z2.0 F3000 ; Move Z Axis up little to prevent scratching of Heat Bed
G1 X5 Y20 Z0.3 F5000.0 ; Move over to prevent blob squish
G92 E0
G92 E0
G1 F2700 E-5
;LAYER_COUNT:83
;LAYER:-6
M107
G0 F9000 X85.353 Y72.308 Z0.144
;TYPE:SUPPORT-INTERFACE
G1 F2700 E0
G1 F600 X85.524 Y72.112 E0.01246
G1 X85.637 Y71.996 E0.02021
G1 X87.298 Y70.379 E0.13124
G1 X87.525 Y70.18 E0.1457
G1 X87.764 Y70.003 E0.15994
G1 X89.606 Y68.742 E0.26686
G1 X89.887 Y68.567 E0.28271
G1 X90.124 Y68.447 E0.29543
G1 X92.19 Y67.504 E0.4042
G1 X92.525 Y67.371 E0.42147
G1 X92.731 Y67.304 E0.43184
G1 X95.009 Y66.707 E0.54463
G1 X95.259 Y66.652 E0.55689
G1 X95.588 Y66.612 E0.57276
G1 X97.832 Y66.422 E0.68062
G1 X98.133 Y66.408 E0.69506
G1 X98.198 Y66.409 E0.69817
G1 X98.865 Y66.383 E0.73014
G1 X99.539 Y66.27 E0.76287
G1 X100.192 Y66.074 E0.79552
G1 X100.817 Y65.796 E0.82829
G1 X101.4 Y65.442 E0.86095
G1 X101.935 Y65.017 E0.89368
G1 X102.413 Y64.527 E0.92646
G1 X102.856 Y63.932 E0.96199
G1 X103.077 Y63.642 E0.97945
G1 X103.109 Y63.608 E0.98169
G1 X103.382 Y63.351 E0.99965
G1 X103.419 Y63.322 E1.0019
G1 X103.735 Y63.11 E1.02012
G1 X103.777 Y63.087 E1.02242
G1 X104.11 Y62.935 E1.03995
G1 X104.16 Y62.917 E1.04249
G1 X104.517 Y62.82 E1.06021
G1 X104.573 Y62.81 E1.06294
G1 X104.953 Y62.772 E1.08123
G1 X105.39 Y62.806 E1.10222
G1 X105.637 Y62.849 E1.11423
G1 X105.902 Y62.913 E1.12729
G1 X106.221 Y63.034 E1.14363
G1 X106.83 Y63.296 E1.17538
G1 X107.74 Y63.719 E1.22344
G1 X108.358 Y63.976 E1.2555
G1 X109.017 Y64.156 E1.28822
G1 X109.693 Y64.253 E1.32093
G1 X110.376 Y64.262 E1.35364
G1 X111.054 Y64.186 E1.38632
G1 X111.72 Y64.024 E1.41914
G1 X112.477 Y63.723 E1.45816
G1 X112.615 Y63.655 E1.46553
G1 X113.308 Y63.336 E1.50207
G1 X114.011 Y63.034 E1.53871
G1 X114.157 Y62.978 E1.5462
G1 X114.401 Y62.895 E1.55855
G1 X114.801 Y62.806 E1.57817
G1 X115.155 Y62.774 E1.5952
G1 X115.216 Y62.773 E1.59812
G1 X115.584 Y62.8 E1.61579
G1 X115.642 Y62.809 E1.6186
G1 X115.987 Y62.891 E1.63559
G1 X116.052 Y62.912 E1.63886
G1 X116.385 Y63.052 E1.65616
G1 X116.444 Y63.083 E1.65935
G1 X116.741 Y63.27 E1.67616
G1 X116.787 Y63.304 E1.6789
G1 X117.066 Y63.551 E1.69675
G1 X117.102 Y63.588 E1.69922
G1 X117.336 Y63.877 E1.71703
G1 X117.469 Y64.071 E1.72829
G1 X117.883 Y64.6 E1.76047
G1 X118.368 Y65.079 E1.79312
G1 X118.91 Y65.495 E1.82584
G1 X119.499 Y65.838 E1.85848
G1 X120.128 Y66.105 E1.89121
G1 X120.785 Y66.29 E1.9239
G1 X121.459 Y66.39 E1.95654
G1 X122.027 Y66.408 E1.98375
G1 X122.328 Y66.419 E1.99818
G1 X124.623 Y66.607 E2.10847
G1 X124.911 Y66.642 E2.12236
G1 X125.195 Y66.703 E2.13627
G1 X127.32 Y67.256 E2.24144
G1 X127.643 Y67.348 E2.25752
G1 X127.931 Y67.457 E2.27227
G1 X129.995 Y68.394 E2.38084
G1 X130.37 Y68.581 E2.40091
G1 X130.554 Y68.696 E2.4113
G1 X132.49 Y70.02 E2.52363
G1 X132.704 Y70.179 E2.5364
G1 X132.9 Y70.349 E2.54883
G1 X134.663 Y72.063 E2.66659
G1 X134.945 Y72.391 E2.68731
G1 X137.911 Y76.136 E2.91612
G1 X138.056 Y76.337 E2.92799
G1 X140.639 Y80.264 E3.15311
G1 X140.845 Y80.593 E3.1717
G1 X140.919 Y80.719 E3.1787
G1 X143.174 Y84.903 E3.40634
G1 X143.345 Y85.257 E3.42517
G1 X145.231 Y89.628 E3.65317
G1 X145.341 Y89.91 E3.66767
G1 X145.95 Y91.751 E3.76054
G1 X146.2 Y92.372 E3.7926
G1 X146.534 Y92.968 E3.82533
G1 X146.939 Y93.518 E3.85804
G1 X147.41 Y94.01 E3.89066
G1 X147.838 Y94.366 E3.91732
G1 X148.111 Y94.57 E3.93365
G1 X148.259 Y94.689 E3.94274
G1 X149.665 Y95.919 E4.03221
G1 X149.793 Y96.042 E4.04072
G1 X150.305 Y96.473 E4.07277
G1 X150.798 Y96.795 E4.10097
G1 X150.858 Y96.837 E4.10448
G1 X151.15 Y97.075 E4.12252
G1 X151.43 Y97.399 E4.14303
G1 X151.697 Y97.794 E4.16587
G1 X152.93 Y99.975 E4.28586
G1 X153.069 Y100.262 E4.30113
G1 X153.207 Y100.638 E4.32032
G1 X153.294 Y100.997 E4.33801
G1 X153.355 Y101.355 E4.3554
G1 X153.374 Y101.543 E4.36445
G1 X153.383 Y101.919 E4.38247
G1 X153.38 Y101.96 E4.38444
G1 X153.328 Y102.331 E4.40238
G1 X153.313 Y102.394 E4.40548
G1 X153.206 Y102.733 E4.42251
G1 X153.189 Y102.776 E4.42472
G1 X153.013 Y103.122 E4.44331
G1 X152.989 Y103.16 E4.44547
G1 X152.7 Y103.555 E4.46891
G1 X152.391 Y103.959 E4.49327
G1 X152.048 Y104.55 E4.52599
G1 X151.781 Y105.179 E4.55872
G1 X151.597 Y105.836 E4.5914
G1 X151.497 Y106.511 E4.62408
G1 X151.482 Y107.194 E4.6568
G1 X151.554 Y107.874 E4.68955
G1 X151.712 Y108.538 E4.72224
G1 X151.95 Y109.177 E4.7549
G1 X152.272 Y109.786 E4.78789
G1 X152.837 Y110.547 E4.83329
G1 X152.973 Y110.7 E4.84309
G1 X153.194 Y110.993 E4.86067
G1 X153.225 Y111.044 E4.86353
G1 X153.393 Y111.365 E4.88088
G1 X153.411 Y111.409 E4.88316
G1 X153.536 Y111.786 E4.90218
G1 X153.552 Y111.853 E4.90548
G1 X153.604 Y112.156 E4.9202
G1 X153.63 Y112.542 E4.93873
G1 X153.625 Y112.92 E4.95684
G1 X153.586 Y113.264 E4.97342
G1 X153.568 Y113.349 E4.97758
G1 X153.479 Y113.666 E4.99335
G1 X153.362 Y113.966 E5.00877
G1 X152.279 Y116.391 E5.13597
G1 X152.109 Y116.72 E5.15371
G1 X151.908 Y117.026 E5.17125
G1 X151.883 Y117.058 E5.17319
G1 X151.613 Y117.349 E5.1922
G1 X151.587 Y117.373 E5.1939
G1 X151.01 Y117.995 E5.23453
G1 X150.099 Y119.157 E5.30525
G1 X149.878 Y119.406 E5.3212
G1 X149.599 Y119.662 E5.33933
G1 X149.54 Y119.709 E5.34294
G1 X149.039 Y120.154 E5.37504
G1 X148.589 Y120.667 E5.40772
G1 X148.209 Y121.234 E5.44041
G1 X147.901 Y121.846 E5.47323
G1 X147.799 Y122.075 E5.48523
G1 X147.639 Y122.616 E5.51225
G1 X147.549 Y122.875 E5.52539
G1 X147.505 Y122.982 E5.53093
G1 X146.372 Y125.592 E5.6672
G1 X146.251 Y125.834 E5.68016
G1 X146.181 Y125.954 E5.68681
G1 X144.65 Y128.433 E5.82636
G1 X144.491 Y128.649 E5.83921
G1 X144.409 Y128.752 E5.84551
G1 X142.661 Y130.843 E5.97605
G1 X142.469 Y131.058 E5.98985
G1 X142.334 Y131.188 E5.99883
G1 X140.193 Y133.103 E6.1364
G1 X139.924 Y133.315 E6.15281
G1 X139.825 Y133.385 E6.15861
G1 X137.541 Y134.901 E6.28991
G1 X137.32 Y135.037 E6.30234
G1 X137.085 Y135.159 E6.31502
G1 X134.579 Y136.348 E6.44787
G1 X134.338 Y136.45 E6.4604
G1 X134.152 Y136.513 E6.46981
G1 X132.206 Y137.113 E6.56734
G1 X131.579 Y137.351 E6.59946
G1 X130.977 Y137.672 E6.63214
G1 X130.419 Y138.066 E6.66485
G1 X129.915 Y138.527 E6.69757
G1 X129.474 Y139.048 E6.73026
G1 X129.103 Y139.621 E6.76295
G1 X128.806 Y140.236 E6.79566
G1 X128.59 Y140.883 E6.82833
G1 X128.456 Y141.553 E6.86106
G1 X128.408 Y142.24 E6.89404
G1 X128.489 Y143.198 E6.94009
G1 X128.75 Y144.673 E7.01183
G1 X128.784 Y145.08 E7.03139
G1 X128.885 Y147.805 E7.16199
G1 X128.875 Y148.069 E7.17464
G1 X128.866 Y148.2 E7.18093
G1 X128.611 Y150.739 E7.30315
G1 X128.557 Y151.078 E7.31959
G1 X128.455 Y151.457 E7.33839
G1 X128.442 Y151.494 E7.34027
G1 X128.279 Y151.849 E7.35898
G1 X128.038 Y152.202 E7.37945
G1 X127.783 Y152.497 E7.39812
G1 X127.569 Y152.686 E7.4118
G1 X127.26 Y152.906 E7.42996
G1 X127.23 Y152.925 E7.43167
G1 X126.879 Y153.098 E7.45041
G1 X126.861 Y153.105 E7.45133
G1 X126.467 Y153.222 E7.47102
G1 X126.024 Y153.298 E7.49254
G1 X123.367 Y153.558 E7.62041
G1 X123.064 Y153.576 E7.63495
G1 X122.833 Y153.571 E7.64601
G1 X119.96 Y153.43 E7.78378
G1 X119.628 Y153.391 E7.79979
G1 X119.463 Y153.364 E7.8078
G1 X116.673 Y152.81 E7.94403
G1 X116.325 Y152.714 E7.96132
G1 X113.643 Y151.761 E8.09764
G1 X113.305 Y151.624 E8.11511
G1 X113.138 Y151.54 E8.12406
G1 X110.659 Y150.223 E8.25851
G1 X110.411 Y150.079 E8.27225
G1 X110.212 Y149.943 E8.28379
G1 X107.9 Y148.242 E8.42126
G1 X107.657 Y148.036 E8.43652
G1 X107.542 Y147.928 E8.44408
G1 X105.82 Y146.222 E8.56017
G1 X105.44 Y145.84 E8.58598
G1 X105.268 Y145.636 E8.59876
G1 X105.24 Y145.602 E8.60087
G1 X103.48 Y143.254 E8.74141
G1 X103.312 Y142.991 E8.75636
G1 X103.254 Y142.888 E8.76202
G1 X102.018 Y140.614 E8.88598
G1 X101.662 Y140.047 E8.91804
G1 X101.229 Y139.519 E8.95075
G1 X100.732 Y139.05 E8.98348
G1 X100.181 Y138.647 E9.01617
G1 X99.583 Y138.317 E9.04889
G1 X98.948 Y138.066 E9.08159
G1 X98.287 Y137.897 E9.11426
G1 X97.606 Y137.812 E9.14713
G1 X96.767 Y137.827 E9.18732
G1 X96.695 Y137.834 E9.19079
G1 X93.561 Y137.974 E9.34104
G1 X93.269 Y137.969 E9.35503
G1 X92.984 Y137.944 E9.36873
G1 X89.983 Y137.603 E9.51339
G1 X89.613 Y137.532 E9.53143
G1 X89.542 Y137.514 E9.53494
G1 X86.621 Y136.708 E9.68007
G1 X86.337 Y136.615 E9.69438
G1 X86.126 Y136.53 E9.70527
G1 X83.346 Y135.268 E9.8515
G1 X83.11 Y135.15 E9.86414
G1 X82.869 Y135.003 E9.87766
G1 X80.356 Y133.345 E10.02185
G1 X80.109 Y133.165 E10.03649
G1 X80.026 Y133.098 E10.0416
G1 X79.726 Y132.827 E10.06096
G1 X77.61 Y130.892 E10.19829
G1 X77.387 Y130.652 E10.21398
G1 X77.294 Y130.541 E10.22092
G1 X75.434 Y128.21 E10.36375
G1 X75.26 Y127.972 E10.37787
G1 X75.127 Y127.757 E10.38997
G1 X73.595 Y125.057 E10.53866
G1 X73.429 Y124.702 E10.55743
G1 X72.359 Y121.865 E10.70265
G1 X72.234 Y121.479 E10.72208
G1 X72.189 Y121.295 E10.73115
G1 X71.56 Y118.223 E10.88134
G1 X71.522 Y117.951 E10.89449
G1 X71.513 Y117.857 E10.89901
G1 X71.111 Y112.678 E11.1478
G1 X71.106 Y112.394 E11.16141
G1 X71.184 Y107.309 E11.40498
G1 X71.198 Y107.035 E11.41812
G1 X71.762 Y101.829 E11.66892
G1 X71.819 Y101.476 E11.68605
G1 X72.867 Y96.351 E11.93658
G1 X72.952 Y96.042 E11.95193
G1 X74.403 Y91.255 E12.19151
G1 X74.505 Y90.967 E12.20614
G1 X74.571 Y90.792 E12.2151
G1 X76.475 Y86.131 E12.45624
G1 X76.59 Y85.879 E12.46951
G1 X76.634 Y85.79 E12.47426
G1 X78.958 Y81.338 E12.71479
G1 X79.101 Y81.078 E12.72901
G1 X79.199 Y80.917 E12.73803
G1 X81.979 Y76.618 E12.98323
G1 X82.165 Y76.357 E12.99858
G1 X85.353 Y72.308 E13.2454
G1 F2700 E8.2454
G0 F9000 X84.535 Y71.627
G0 X139.527 Y102.6
G0 X138.704 Y101.92
G1 F2700 E13.2454
G1 F600 X138.174 Y102.668 E13.28931
G1 X138.04 Y102.897 E13.30202
G1 X137.74 Y103.491 E13.33389
G1 X137.6 Y103.853 E13.35248
G1 X137.351 Y104.578 E13.38919
G1 X137.175 Y105.218 E13.42098
G1 X137.112 Y105.583 E13.43872
G1 X137.007 Y106.346 E13.47561
G1 X136.959 Y107.009 E13.50745
G1 X136.969 Y107.397 E13.52604
G1 X137.018 Y108.169 E13.56309
G1 X137.101 Y108.828 E13.5949
G1 X137.188 Y109.207 E13.61352
G1 X137.387 Y109.952 E13.65045
G1 X137.599 Y110.582 E13.68229
G1 X137.752 Y110.923 E13.70019
G1 X138.088 Y111.605 E13.7366
G1 X138.419 Y112.181 E13.76842
G1 X138.634 Y112.484 E13.78622
G1 X138.825 Y112.733 E13.80125
G1 X139.265 Y113.239 E13.83336
G1 X139.775 Y113.692 E13.86603
G1 X140.337 Y114.079 E13.89871
G1 X140.945 Y114.391 E13.93144
G1 X141.586 Y114.625 E13.96413
G1 X142.253 Y114.775 E13.99687
G1 X142.932 Y114.84 E14.02954
G1 X143.615 Y114.819 E14.06227
G1 X144.289 Y114.712 E14.09495
G1 X144.945 Y114.52 E14.12769
G1 X145.571 Y114.248 E14.16038
G1 X146.157 Y113.899 E14.19305
G1 X146.695 Y113.477 E14.22579
G1 X147.176 Y112.993 E14.25848
G1 X147.594 Y112.447 E14.29141
G1 X147.789 Y112.091 E14.31085
G1 X147.811 Y112.106 E14.31213
G1 X148.031 Y111.651 E14.33633
G1 X148.142 Y111.424 E14.34843
G1 X148.206 Y111.304 E14.35495
G1 X148.424 Y110.967 E14.37417
G1 X148.847 Y110.441 E14.4065
G1 X149.205 Y109.86 E14.43918
G1 X149.488 Y109.238 E14.47191
G1 X149.689 Y108.586 E14.50459
G1 X149.806 Y107.913 E14.53731
G1 X149.838 Y107.231 E14.57001
G1 X149.784 Y106.551 E14.60268
G1 X149.643 Y105.882 E14.63542
G1 X149.42 Y105.237 E14.66811
G1 X149.117 Y104.625 E14.70082
G1 X148.739 Y104.057 E14.73349
G1 X148.296 Y103.542 E14.76603
G1 X147.955 Y103.224 E14.78836
G1 X147.693 Y102.96 E14.80618
G1 X147.657 Y102.918 E14.80883
G1 X147.416 Y102.581 E14.82867
G1 X147.069 Y102.077 E14.85797
G1 X146.614 Y101.568 E14.89067
G1 X146.099 Y101.12 E14.92337
G1 X145.531 Y100.741 E14.95607
G1 X144.92 Y100.437 E14.98876
G1 X144.275 Y100.212 E15.02147
G1 X143.607 Y100.07 E15.05418
G1 X142.927 Y100.014 E15.08686
G1 X142.244 Y100.045 E15.11961
G1 X141.571 Y100.16 E15.15231
G1 X140.919 Y100.36 E15.18497
G1 X140.297 Y100.641 E15.21766
G1 X139.714 Y100.997 E15.25038
G1 X139.182 Y101.425 E15.28308
G1 X138.704 Y101.92 E15.31604
G0 F9000 X139.2 Y101.411
G1 F600 X139.2 Y78.077 E16.43361
G0 F9000 X137.6 Y75.744
G1 F600 X137.6 Y103.853 E17.77988
G1 F2700 E12.77988
G0 F9000 X138.714 Y103.921
G0 X140.792 Y101.585
G0 X140.8 Y100.414
G1 F2700 E17.77988
G1 F600 X140.8 Y80.522 E18.7326
G0 F9000 X142.4 Y83.467
G1 F600 X142.4 Y100.038 E19.52626
G0 F9000 X144 Y100.153
G1 F600 X144 Y86.776 E20.16694
G0 F9000 X145.6 Y90.693
G1 F600 X145.6 Y100.787 E20.65039
G0 F9000 X147.2 Y102.267
G1 F600 X147.2 Y93.791 E21.05635
G0 F9000 X148.8 Y95.163
G1 F600 X148.8 Y104.148 E21.48668
G0 F9000 X152 Y104.664
G1 F600 X152 Y98.33 E21.79004
G0 F9000 X150.4 Y96.536
G1 F600 X150.4 Y118.774 E22.85512
G0 F9000 X148.8 Y120.427
G1 F600 X148.8 Y110.499 E23.33062
G0 F9000 X147.2 Y112.961
G1 F600 X147.2 Y123.685 E23.84424
G0 F9000 X145.6 Y126.895
G1 F600 X145.6 Y114.23 E24.45083
G0 F9000 X144 Y114.757
G1 F600 X144 Y129.242 E25.14458
G0 F9000 X142.4 Y131.125
G1 F600 X142.4 Y114.79 E25.92694
G0 F9000 X140.8 Y114.317
G1 F600 X140.8 Y132.561 E26.80073
G0 F9000 X139.2 Y133.8
G1 F600 X139.2 Y113.165 E27.78903
G0 F9000 X137.6 Y110.585
G1 F600 X137.6 Y134.862 E28.95177
G0 F9000 X136 Y135.674
G1 F600 X136 Y73.724 E31.91884
G0 F9000 X134.4 Y71.808
G1 F600 X134.4 Y136.424 E35.0136
G0 F9000 X132.8 Y136.93
G1 F600 X132.8 Y70.263 E38.20659
G0 F9000 X131.2 Y69.138
G1 F600 X131.2 Y137.554 E41.48334
G0 F9000 X129.6 Y138.9
G1 F600 X129.6 Y68.215 E44.86877
G0 F9000 X128 Y67.489
G1 F600 X128 Y152.246 E48.92817
G0 F9000 X126.4 Y153.234
G1 F600 X126.4 Y67.017 E53.0575
G0 F9000 X124.8 Y66.629
G1 F600 X124.8 Y153.418 E57.21423
G0 F9000 X123.2 Y153.568
G1 F600 X123.2 Y66.491 E61.38474
G0 F9000 X121.6 Y66.395
G1 F600 X121.6 Y153.51 E65.55708
G0 F9000 X120 Y153.431
G1 F600 X120 Y66.051 E69.74211
G0 F9000 X118.4 Y65.104
G1 F600 X118.4 Y153.152 E73.95913
G0 F9000 X116.8 Y152.835
G1 F600 X116.8 Y63.316 E78.24661
G0 F9000 X115.2 Y62.773
G1 F600 X115.2 Y152.314 E82.53514
G0 F9000 X113.6 Y151.743
G1 F600 X113.6 Y63.21 E86.77539
G0 F9000 X112 Y63.912
G1 F600 X112 Y150.935 E90.94332
G0 F9000 X110.4 Y150.071
G1 F600 X110.4 Y64.259 E95.05326
G0 F9000 X108.8 Y64.097
G1 F600 X108.8 Y148.904 E99.11505
G0 F9000 X107.2 Y147.589
G1 F600 X107.2 Y63.468 E103.14399
G0 F9000 X105.6 Y62.843
G1 F600 X105.6 Y146 E107.12676
G0 F9000 X104 Y143.947
G1 F600 X104 Y62.985 E111.00441
G0 F9000 X102.4 Y64.54
G1 F600 X102.4 Y141.316 E114.68156
G0 F9000 X100.8 Y139.114
G1 F600 X100.8 Y65.803 E118.19276
G0 F9000 X99.2 Y66.326
G1 F600 X99.2 Y138.165 E121.63346
G0 F9000 X97.6 Y137.813
G1 F600 X97.6 Y66.441 E125.05179
G0 F9000 X96 Y66.577
G1 F600 X96 Y137.866 E128.46615
G0 F9000 X94.4 Y137.937
G1 F600 X94.4 Y66.866 E131.87007
G0 F9000 X92.8 Y67.285
G1 F600 X92.8 Y137.923 E135.25325
G0 F9000 X91.2 Y137.741
G1 F600 X91.2 Y67.955 E138.59562
G0 F9000 X89.6 Y68.746
G1 F600 X89.6 Y137.528 E141.88991
G0 F9000 X88 Y137.088
G1 F600 X88 Y69.841 E145.11067
G0 F9000 X86.4 Y71.253
G1 F600 X86.4 Y136.635 E148.24212
G0 F9000 X84.8 Y135.928
G1 F600 X84.8 Y73.01 E151.25555
G0 F9000 X83.2 Y75.042
G1 F600 X83.2 Y135.195 E154.13655
G0 F9000 X81.6 Y134.165
G1 F600 X81.6 Y77.204 E156.86468
G0 F9000 X80 Y79.678
G1 F600 X80 Y133.074 E159.42206
G0 F9000 X78.4 Y131.614
G1 F600 X78.4 Y82.406 E161.77885
G0 F9000 X76.8 Y85.472
G1 F600 X76.8 Y129.921 E163.90772
G0 F9000 X75.2 Y127.875
G1 F600 X75.2 Y89.252 E165.75755
G1 F2700 E160.75755
G0 F9000 X74.214 Y88.85
G0 X73.548 Y90.53
G0 X72.581 Y93.596
G0 X73.6 Y93.904
G1 F2700 E165.75755
G1 F600 X73.6 Y125.065 E167.25
G1 F2700 E162.25
G0 F9000 X72.416 Y125.036
G0 X71.395 Y122.451
G0 X70.957 Y120.586
G0 X72 Y120.371
G1 F2700 E167.25
G1 F600 X72 Y100.59 E168.1974
G1 F2700 E163.1974
G0 F9000 X70.956 Y100.377
G0 X71.665 Y96.671
G0 X73.572 Y90.424
G0 X75.686 Y85.305
G0 X78.295 Y80.356
G0 X81.324 Y75.706
