;FLAVOR:Marlin
;TIME:1190
;Filament used: 0.418811m
;Layer height: 0.12
;MINX:99.489
;MINY:94.481
;MINZ:0.144
;MAXX:120.502
;MAXY:125.889
;MAXZ:10.599
;Generated with Cura_SteamEngine 4.11.0
M140 S50
M105
M190 S50
M104 S200
M105
M109 S200
M82 ;absolute extrusion mode
; Ender 3 Custom Start G-code
G92 E0 ; Reset Extruder
G28 ; Home all axes
G1 Z2.0 F3000 ; Move Z Axis up little to prevent scratching of Heat Bed
G1 X0.1 Y20 Z0.3 F5000.0 ; Move to start position
G1 X0.1 Y200.0 Z0.3 F1500.0 E15 ; Draw the first line
G1 X0.4 Y200.0 Z0.3 F5000.0 ; Move to side a little
G1 X0.4 Y20 Z0.3 F1500.0 E30 ; Draw the second line
G92 E0 ; Reset Extruder
G1 Z2.0 F3000 ; Move Z Axis up little to prevent scratching of Heat Bed
G1 X5 Y20 Z0.3 F5000.0 ; Move over to prevent blob squish
G92 E0
G92 E0
G1 F2700 E-5
;LAYER_COUNT:83
;LAYER:-6
M107
G0 F9000 X105.487 Y101.462 Z0.144
;TYPE:SUPPORT-INTERFACE
G1 F2700 E0
G1 F600 X106.392 Y100.556 E0.06133
G1 X106.585 Y100.373 E0.07407
G1 X106.657 Y100.31 E0.07865
G1 X107.577 Y99.542 E0.13605
G1 X107.829 Y99.348 E0.15128
G1 X108.112 Y99.163 E0.16748
G1 X108.405 Y98.966 E0.18439
G1 X108.795 Y98.682 E0.20749
G1 X109.053 Y98.512 E0.22229
G1 X109.138 Y98.462 E0.22701
G1 X110.19 Y97.863 E0.28499
G1 X110.498 Y97.707 E0.30153
G1 X111.547 Y97.228 E0.35676
G1 X111.899 Y97.087 E0.37492
G1 X113.024 Y96.69 E0.43206
G1 X113.358 Y96.588 E0.44879
G1 X113.724 Y96.496 E0.46686
G1 X114.368 Y96.288 E0.49927
G1 X114.624 Y96.158 E0.51303
G1 X114.63 Y96.17 E0.51367
G1 X115.254 Y95.847 E0.54732
G1 X115.441 Y95.764 E0.55712
G1 X115.825 Y95.653 E0.57626
G1 X116.185 Y95.579 E0.59387
G1 X116.531 Y95.548 E0.6105
G1 X116.716 Y95.545 E0.61937
G1 X117.064 Y95.566 E0.63606
G1 X117.134 Y95.577 E0.63946
G1 X117.495 Y95.66 E0.6572
G1 X117.542 Y95.675 E0.65956
G1 X117.876 Y95.811 E0.67683
G1 X118.144 Y95.961 E0.69154
G1 X118.47 Y96.218 E0.71143
G1 X118.746 Y96.481 E0.72968
G1 X118.843 Y96.593 E0.73678
G1 X119.065 Y96.898 E0.75485
G1 X119.083 Y96.927 E0.75648
G1 X119.258 Y97.277 E0.77523
G1 X119.27 Y97.307 E0.77677
G1 X119.388 Y97.681 E0.79556
G1 X119.438 Y97.958 E0.80904
G1 X119.448 Y98.395 E0.82997
G1 X119.435 Y98.704 E0.84479
G1 X119.379 Y99.06 E0.86205
G1 X119.338 Y99.236 E0.8707
G1 X119.224 Y99.591 E0.88856
G1 X119.204 Y99.641 E0.89114
G1 X118.746 Y100.528 E0.93895
G1 X118.768 Y100.539 E0.94013
G1 X118.628 Y100.87 E0.95734
G1 X118.493 Y101.321 E0.97989
G1 X118.423 Y101.602 E0.99376
G1 X118.344 Y101.868 E1.00705
G1 X118.309 Y101.977 E1.01253
G1 X117.918 Y103.087 E1.06889
G1 X117.827 Y103.321 E1.08092
G1 X117.779 Y103.432 E1.08671
G1 X117.292 Y104.499 E1.14289
G1 X117.163 Y104.76 E1.15683
G1 X116.549 Y105.846 E1.21658
G1 X116.409 Y106.071 E1.22927
G1 X116.308 Y106.219 E1.23786
G1 X116.039 Y106.587 E1.25969
G1 X115.792 Y106.958 E1.28103
G1 X115.612 Y107.224 E1.29642
G1 X115.442 Y107.442 E1.30966
G1 X114.635 Y108.404 E1.3698
G1 X114.45 Y108.602 E1.38278
G1 X113.613 Y109.439 E1.43947
G1 X113.405 Y109.635 E1.45316
G1 X113.348 Y109.685 E1.45679
G1 X112.517 Y110.378 E1.50861
G1 X112.231 Y110.606 E1.52613
G1 X112.015 Y110.756 E1.53872
G1 X111.48 Y111.16 E1.57083
G1 X110.992 Y111.636 E1.60348
G1 X110.567 Y112.171 E1.63621
G1 X110.213 Y112.755 E1.66892
G1 X109.935 Y113.379 E1.70163
G1 X109.739 Y114.033 E1.73433
G1 X109.627 Y114.704 E1.76691
G1 X109.599 Y115.247 E1.79296
G1 X109.58 Y121.619 E2.09814
G1 X109.558 Y121.97 E2.11499
G1 X109.495 Y122.348 E2.13334
G1 X109.485 Y122.389 E2.13536
G1 X109.367 Y122.737 E2.15296
G1 X109.326 Y122.831 E2.15787
G1 X109.196 Y123.084 E2.1715
G1 X109.045 Y123.309 E2.18447
G1 X108.949 Y123.431 E2.19191
G1 X108.7 Y123.704 E2.20961
G1 X108.676 Y123.726 E2.21117
G1 X108.356 Y123.975 E2.23058
G1 X108.001 Y124.192 E2.25051
G1 X107.884 Y124.246 E2.25668
G1 X107.649 Y124.346 E2.26892
G1 X107.495 Y124.405 E2.27681
G1 X106.728 Y124.666 E2.31562
G1 X106.394 Y124.758 E2.33221
G1 X106.025 Y124.82 E2.35013
G1 X105.982 Y124.823 E2.3522
G1 X105.598 Y124.825 E2.37059
G1 X105.565 Y124.822 E2.37217
G1 X105.189 Y124.761 E2.39042
G1 X104.866 Y124.676 E2.40642
G1 X103.97 Y124.379 E2.45163
G1 X103.673 Y124.258 E2.46698
G1 X103.445 Y124.143 E2.47922
G1 X103.169 Y123.966 E2.49492
G1 X102.88 Y123.735 E2.51264
G1 X102.85 Y123.707 E2.5146
G1 X102.589 Y123.416 E2.53333
G1 X102.413 Y123.174 E2.54766
G1 X102.271 Y122.919 E2.56164
G1 X102.119 Y122.558 E2.5804
G1 X102.043 Y122.288 E2.59383
G1 X101.989 Y121.845 E2.61521
G1 X101.974 Y121.595 E2.6272
G1 X101.957 Y116.234 E2.88396
G1 X101.912 Y115.565 E2.91608
G1 X101.782 Y114.894 E2.94881
G1 X101.567 Y114.246 E2.98151
G1 X101.273 Y113.631 E3.01416
G1 X101.092 Y113.35 E3.03017
G1 X100.925 Y113.081 E3.04533
G1 X100.749 Y112.737 E3.06384
G1 X100.731 Y112.696 E3.06599
G1 X100.622 Y112.355 E3.08313
G1 X100.566 Y112.064 E3.09732
G1 X100.554 Y111.603 E3.11941
G1 X100.564 Y111.327 E3.13264
G1 X100.638 Y110.868 E3.15491
G1 X100.668 Y110.747 E3.16088
G1 X100.785 Y110.397 E3.17855
G1 X100.828 Y110.296 E3.18381
G1 X101.051 Y109.855 E3.20748
G1 X101.188 Y109.583 E3.22206
G1 X101.331 Y109.301 E3.23721
G1 X101.289 Y109.301 E3.23922
G1 X101.503 Y108.7 E3.26977
G1 X101.587 Y108.368 E3.28618
G1 X101.659 Y108.12 E3.29855
G1 X101.684 Y108.042 E3.30247
G1 X102.115 Y106.818 E3.36462
G1 X102.227 Y106.549 E3.37858
G1 X102.713 Y105.483 E3.43469
G1 X102.881 Y105.161 E3.45208
G1 X103.457 Y104.146 E3.50798
G1 X103.634 Y103.865 E3.52388
G1 X103.705 Y103.761 E3.52991
G1 X103.963 Y103.408 E3.55085
G1 X104.181 Y103.084 E3.56956
G1 X104.328 Y102.857 E3.58251
G1 X104.48 Y102.655 E3.59462
G1 X105.29 Y101.682 E3.65525
G1 X105.487 Y101.462 E3.6694
G0 F9000 X105.6 Y101.348
G1 F600 X105.6 Y124.825 E4.79382
G0 F9000 X107.2 Y124.506
G1 F600 X107.2 Y99.856 E5.97442
G0 F9000 X108.8 Y98.678
G1 F600 X108.8 Y123.595 E7.16781
G1 F2700 E2.16781
G0 F9000 X108.967 Y124.848
G0 X108.048 Y125.334
G0 X106.609 Y125.802
G0 X105.56 Y125.889
G0 X104.993 Y125.78
G0 X103.708 Y125.415
G0 X104 Y124.388
G1 F2700 E7.16781
G1 F600 X104 Y103.353 E8.17527
G0 F9000 X102.4 Y106.169
G1 F600 X102.4 Y123.15 E8.98857
G1 F2700 E3.98857
G0 F9000 X101.303 Y123.365
G0 X101.019 Y122.521
G0 X99.964 Y113.533
G0 X100.8 Y112.836
G1 F2700 E8.98857
G1 F600 X100.8 Y110.361 E9.10711
G1 F2700 E4.10711
G0 F9000 X99.845 Y109.84
G0 X99.591 Y110.346
G0 X99.489 Y111.596
G0 X99.555 Y112.467
G0 X101.067 Y122.766
G0 X101.511 Y123.74
G0 X102.184 Y124.542
G0 X103.037 Y125.131
G0 X104.557 Y125.695
G0 X105.56 Y125.889
G0 X106.609 Y125.802
G0 X108.312 Y125.221
G0 X108.967 Y124.848
G0 X109.455 Y124.456
G0 X110.122 Y123.611
G0 X110.506 Y122.695
G0 X110.583 Y122.103
G0 X111.311 Y112.998
G0 X110.4 Y112.447
G1 F2700 E9.10711
G1 F600 X110.4 Y97.756 E9.81073
G0 F9000 X112 Y97.051
G1 F600 X112 Y110.768 E10.4677
G0 F9000 X113.6 Y109.452
G1 F600 X113.6 Y96.527 E11.08674
G0 F9000 X115.2 Y95.874
G1 F600 X115.2 Y107.731 E11.65462
G0 F9000 X116.8 Y105.403
G1 F600 X116.8 Y95.551 E12.12648
G0 F9000 X118.4 Y96.163
G1 F600 X118.4 Y101.68 E12.39072
G0 F300 X118.4 Y101.68 Z0.324
G0 F9000 X118.343 Y101.867
;TIME_ELAPSED:34.107560
;LAYER:-5
;TYPE:SUPPORT
G1 F1125 X118.422 Y101.602 E12.40727
G1 X118.452 Y101.481 E12.41473
G1 X113.518 Y96.547 E12.83248
G1 X113.723 Y96.495 E12.84514
G1 X114.367 Y96.288 E12.88564
G1 X114.57 Y96.185 E12.89927
G1 X118.803 Y100.418 E13.25766
G1 X119.203 Y99.64 E13.31003
G1 X119.223 Y99.591 E13.3132
G1 X119.264 Y99.465 E13.32113
G1 X115.535 Y95.736 E13.63686
G1 X115.824 Y95.653 E13.65486
G1 X115.992 Y95.609 E13.66525
G1 X116.184 Y95.578 E13.6769
G1 X116.382 Y95.556 E13.68882
G1 X116.53 Y95.547 E13.6977
G1 X116.715 Y95.544 E13.70878
G1 X116.761 Y95.547 E13.71154
G1 X119.443 Y98.23 E13.93866
G0 F9000 X119.437 Y97.958
G1 F1125 X119.407 Y97.766 E13.95029
G1 X119.387 Y97.68 E13.95558
G1 X119.269 Y97.307 E13.979
G1 X119.257 Y97.277 E13.98093
G1 X119.082 Y96.927 E14.00436
G1 X119.064 Y96.897 E14.00645
G1 X118.842 Y96.592 E14.02904
G1 X118.745 Y96.481 E14.03786
G1 X118.634 Y96.363 E14.04756
G1 X118.469 Y96.218 E14.06071
G1 X118.143 Y95.961 E14.08557
G1 X117.976 Y95.862 E14.09719
G1 X117.875 Y95.81 E14.10399
G1 X117.541 Y95.675 E14.12556
G1 X117.494 Y95.66 E14.12851
G1 X117.133 Y95.576 E14.1507
G1 X117.063 Y95.566 E14.15493
G1 X116.761 Y95.547 E14.17305
G1 F2700 E9.17305
G0 F9000 X116.825 Y94.485
G0 X117.771 Y94.631
G0 X118.744 Y95.079
G0 X119.532 Y95.763
G0 X120.016 Y96.413
G0 X120.415 Y97.397
G0 X120.502 Y97.905
G0 X120.459 Y99.079
G0 X120.255 Y99.89
G0 X119.45 Y101.88
G0 X118.343 Y101.867
G1 F2700 E14.17305
G1 F1125 X118.308 Y101.976 E14.1799
G1 X118.106 Y102.55 E14.21633
G1 X112.449 Y96.893 E14.69529
G1 X111.898 Y97.087 E14.73026
G1 X111.773 Y97.133 E14.73824
G1 X111.546 Y97.227 E14.75295
G1 X111.425 Y97.283 E14.76093
G1 X117.714 Y103.572 E15.2934
G1 X117.291 Y104.498 E15.35435
G1 X117.27 Y104.542 E15.35727
G1 X110.455 Y97.727 E15.93427
G1 X110.398 Y97.755 E15.93807
G1 X110.189 Y97.862 E15.95213
G1 X109.544 Y98.23 E15.99658
G1 X116.769 Y105.455 E16.6083
G1 X116.548 Y105.846 E16.63519
G1 X116.408 Y106.07 E16.651
G1 X116.307 Y106.218 E16.66173
G1 X116.227 Y106.328 E16.66987
G1 X108.671 Y98.772 E17.30961
G1 X108.404 Y98.965 E17.32934
G1 X108.11 Y99.163 E17.35056
G1 X107.986 Y99.242 E17.35936
G1 X107.831 Y99.346 E17.37053
G1 X115.652 Y107.167 E18.03271
G1 X115.502 Y107.366 E18.04763
G1 X115.414 Y107.473 E18.05592
G1 X115.017 Y107.946 E18.09289
G1 X107.051 Y99.98 E18.76735
G1 X106.656 Y100.309 E18.79812
G1 X106.506 Y100.445 E18.81025
G1 X106.391 Y100.556 E18.81981
G1 X106.302 Y100.645 E18.82735
G1 X114.354 Y108.697 E19.50908
G1 X113.646 Y109.404 E19.56899
G1 X105.595 Y101.352 E20.25068
G1 X105.486 Y101.462 E20.25995
G1 X105.289 Y101.681 E20.27758
G1 X104.934 Y102.106 E20.31074
G1 X112.892 Y110.063 E20.98447
G1 X112.516 Y110.377 E21.0138
G1 X112.37 Y110.496 E21.02507
G1 X112.23 Y110.605 E21.0357
G1 X112.147 Y110.667 E21.0419
G1 X112.107 Y110.693 E21.04476
G1 X104.304 Y102.89 E21.70541
G1 X104.25 Y102.973 E21.71134
G1 X104.18 Y103.084 E21.71919
G1 X103.962 Y103.408 E21.74257
G1 X103.727 Y103.727 E21.76629
G1 X111.317 Y111.317 E22.40891
G1 X110.991 Y111.635 E22.43618
G1 X110.65 Y112.065 E22.46903
G1 X103.193 Y104.607 E23.10043
G1 X102.88 Y105.16 E23.13847
G1 X102.808 Y105.293 E23.14753
G1 X102.712 Y105.481 E23.16017
G1 X102.693 Y105.522 E23.16287
G1 X110.124 Y112.953 E23.79203
G1 X109.934 Y113.378 E23.8199
G1 X109.75 Y113.993 E23.85833
G1 X102.251 Y106.494 E24.49324
G1 X102.181 Y106.65 E24.50348
G1 X102.114 Y106.816 E24.5142
G1 X101.865 Y107.522 E24.55902
G1 X109.599 Y115.256 E25.21383
G1 X109.595 Y116.666 E25.29824
G1 X101.527 Y108.598 E25.98133
G1 X101.502 Y108.699 E25.98756
G1 X101.288 Y109.3 E26.02575
G1 X101.331 Y109.3 E26.02833
G1 X101.187 Y109.582 E26.04728
G1 X101.167 Y109.639 E26.0509
G1 X101.162 Y109.647 E26.05147
G1 X109.591 Y118.076 E26.76512
G1 X109.587 Y119.486 E26.84953
G1 X100.712 Y110.612 E27.60091
G1 X100.667 Y110.745 E27.60931
G1 X100.638 Y110.867 E27.61682
G1 X100.593 Y111.089 E27.63038
G1 X100.583 Y111.158 E27.63456
G1 X100.564 Y111.326 E27.64468
G1 X100.554 Y111.601 E27.66115
G1 X100.561 Y111.874 E27.6775
G1 X109.583 Y120.896 E28.44136
G1 X109.58 Y121.618 E28.48459
G1 X109.571 Y121.811 E28.49616
G1 X109.558 Y121.969 E28.50565
G1 X109.513 Y122.241 E28.52215
G1 X101.59 Y114.318 E29.19296
G1 X101.782 Y114.893 E29.22926
G1 X101.911 Y115.564 E29.27016
G1 X101.947 Y116.089 E29.30167
G1 X109.095 Y123.238 E29.90691
G1 X109.045 Y123.308 E29.91206
G1 X108.948 Y123.43 E29.92139
G1 X108.699 Y123.703 E29.94351
G1 X108.676 Y123.725 E29.94542
G1 X108.39 Y123.946 E29.96705
G1 X101.96 Y117.516 E30.51146
G1 X101.965 Y118.936 E30.59647
G1 X107.449 Y124.419 E31.06074
G1 X106.727 Y124.665 E31.10641
G1 X106.556 Y124.716 E31.11709
G1 X106.394 Y124.757 E31.12709
G1 X106.375 Y124.76 E31.12825
G1 X101.969 Y120.354 E31.50129
G1 X101.973 Y121.594 E31.57552
G1 X101.984 Y121.783 E31.58686
G1 X104.879 Y124.678 E31.83197
G1 X104.866 Y124.674 E31.83278
G1 X103.97 Y124.378 E31.88927
G1 X103.819 Y124.321 E31.89894
G1 X103.741 Y124.288 E31.90401
G1 X103.513 Y124.179 E31.91914
G1 X103.445 Y124.142 E31.92377
G1 X103.287 Y124.045 E31.93487
G1 X103.169 Y123.965 E31.94341
G1 X102.88 Y123.734 E31.96556
G1 X102.849 Y123.706 E31.96806
G1 X102.589 Y123.414 E31.99146
G1 X102.478 Y123.268 E32.00244
G1 X102.413 Y123.173 E32.00934
G1 X102.331 Y123.032 E32.0191
G1 X102.27 Y122.918 E32.02684
G1 X102.118 Y122.557 E32.05029
G1 X102.087 Y122.46 E32.05639
G1 X102.039 Y122.27 E32.06812
G1 X101.988 Y121.844 E32.09381
G1 F2700 E27.09381
G0 F300 X101.988 Y121.844 Z0.444
G0 F9000 X100.987 Y122.427
G0 X101.303 Y123.365
G0 X101.769 Y124.096
G0 X102.541 Y124.826
G0 X103.258 Y125.219
G0 X104.543 Y125.691
G0 X104.812 Y124.869
;TIME_ELAPSED:53.891147
;LAYER:-4
;TYPE:SUPPORT-INTERFACE
G1 F2700 E32.09381
G1 F1500 X105.004 Y124.924 E32.09779
G1 X105.148 Y124.958 E32.10074
G1 X105.529 Y125.019 E32.10844
G1 X105.591 Y125.025 E32.10969
G1 X105.997 Y125.023 E32.11779
G1 X106.051 Y125.019 E32.11887
G1 X106.427 Y124.956 E32.12648
G1 X106.597 Y124.913 E32.12998
G1 X106.799 Y124.853 E32.13418
G1 X106.954 Y124.8 E32.13745
G1 X104.602 Y124.8 E32.18439
G1 X103.986 Y124.597 E32.19733
G1 X103.903 Y124.568 E32.19909
G1 X103.671 Y124.478 E32.20405
G1 X103.509 Y124.4 E32.20764
G1 X108.025 Y124.4 E32.29776
G1 X108.101 Y124.365 E32.29943
G1 X108.292 Y124.254 E32.30384
G1 X108.462 Y124.145 E32.30787
G1 X108.648 Y124 E32.31258
G1 X102.89 Y124 E32.42748
G1 X102.743 Y123.882 E32.43125
G1 X102.71 Y123.851 E32.43215
G1 X102.484 Y123.6 E32.43889
G1 X109.065 Y123.6 E32.57022
G1 X109.1 Y123.562 E32.57125
G1 X109.212 Y123.418 E32.57489
G1 X109.315 Y123.273 E32.57844
G1 X109.359 Y123.2 E32.58014
G1 X102.195 Y123.2 E32.72311
G1 X102.157 Y123.134 E32.72463
G1 X102.085 Y122.995 E32.72775
G1 X102.002 Y122.8 E32.73198
G1 X109.556 Y122.8 E32.88273
G0 F9000 X109.558 Y122.796
G1 F1500 X109.673 Y122.457 E32.88987
G1 X109.687 Y122.4 E32.89104
G1 X101.865 Y122.4 E33.04714
G1 X101.843 Y122.311 E33.04897
G1 X101.805 Y122 E33.05522
G1 X109.756 Y122 E33.21389
G0 F9000 X109.757 Y121.996
G1 F1500 X109.77 Y121.838 E33.21706
G1 X109.779 Y121.627 E33.22127
G1 X109.779 Y121.6 E33.22181
G1 X101.773 Y121.6 E33.38158
G1 X101.773 Y121.591 E33.38176
G1 X101.771 Y121.2 E33.38956
G1 X109.78 Y121.2 E33.54939
G1 X109.781 Y120.8 E33.55737
G1 X101.77 Y120.8 E33.71724
G1 X101.769 Y120.4 E33.72522
G1 X109.782 Y120.4 E33.88513
G1 X109.783 Y120 E33.89311
G1 X101.767 Y120 E34.05308
G1 X101.766 Y119.6 E34.06106
G1 X109.785 Y119.6 E34.22109
G1 X109.786 Y119.2 E34.22907
G1 X101.765 Y119.2 E34.38914
G1 X101.765 Y118.8 E34.39712
G1 X109.788 Y118.8 E34.55723
G1 X109.789 Y118.4 E34.56521
G1 X101.763 Y118.4 E34.72538
G1 X101.762 Y118 E34.73336
G1 X109.79 Y118 E34.89357
G1 X109.792 Y117.6 E34.90155
G1 X101.761 Y117.6 E35.06182
G1 X101.76 Y117.2 E35.0698
G1 X109.793 Y117.2 E35.23011
G1 X109.794 Y116.8 E35.23809
G1 X101.758 Y116.8 E35.39846
G1 X101.757 Y116.4 E35.40644
G1 X109.795 Y116.4 E35.56685
G1 X109.796 Y116 E35.57483
G1 X101.741 Y116 E35.73558
G1 X101.714 Y115.6 E35.74358
G1 X109.797 Y115.6 E35.90488
G1 X109.799 Y115.252 E35.91183
G1 X109.801 Y115.2 E35.91287
G1 X101.637 Y115.2 E36.07579
G1 X101.588 Y114.945 E36.08097
G1 X101.539 Y114.8 E36.08403
G1 X109.822 Y114.8 E36.24932
G1 X109.826 Y114.725 E36.25082
G1 X109.88 Y114.4 E36.2574
G1 X101.407 Y114.4 E36.42648
G1 X101.381 Y114.321 E36.42814
G1 X101.227 Y114 E36.43525
G1 X109.957 Y114 E36.60946
G1 X110.077 Y113.6 E36.6178
G1 X101.015 Y113.6 E36.79864
G1 X100.905 Y113.429 E36.8027
G1 X100.762 Y113.2 E36.80809
G1 X110.233 Y113.2 E36.99709
G1 X110.39 Y112.848 E37.00478
G1 X110.419 Y112.8 E37.0059
G1 X100.557 Y112.8 E37.20271
G1 X100.546 Y112.772 E37.20331
G1 X100.427 Y112.4 E37.2111
G1 X110.662 Y112.4 E37.41535
G1 X110.732 Y112.286 E37.41802
G1 X110.958 Y112 E37.4253
G1 X100.365 Y112 E37.63669
G1 X100.354 Y111.606 E37.64456
G1 X100.355 Y111.6 E37.64468
G1 X111.315 Y111.6 E37.8634
G1 X111.61 Y111.312 E37.87162
G1 X111.758 Y111.2 E37.87533
G1 X100.379 Y111.2 E38.10241
G1 X100.395 Y111.058 E38.10526
G1 X100.44 Y110.836 E38.10978
G1 X100.449 Y110.8 E38.11052
G1 X112.305 Y110.8 E38.34712
G1 X112.358 Y110.761 E38.34843
G1 X112.494 Y110.655 E38.35187
